;FLAVOR:UltiGCode
;TIME:225
;MATERIAL:332
;MATERIAL2:0
;NOZZLE_DIAMETER:0.4
;MINX:96.493
;MINY:96.489
;MINZ:0.3
;MAXX:126.507
;MAXY:126.507
;MAXZ:0.75
;Generated with Cura_SteamEngine 5.4.0
M82 ;absolute extrusion mode
G0 F3000 Y50 ;avoid prime blob
G92 E0
G92 E0
G10
;LAYER_COUNT:4
;LAYER:0
M107
G0 F7200 X98.033 Y100.116 Z0.3
;TYPE:SKIRT
G11
G1 F900 X100.823 Y97.494 E0.45944
G1 X104.123 Y96.496 E0.87316
G1 X118.412 Y96.489 E2.58784
G1 X120.368 Y96.895 E2.82756
G1 X122.872 Y98.016 E3.15678
G1 X125.506 Y100.819 E3.61835
G1 X126.504 Y104.123 E4.03252
G1 X126.507 Y118.345 E5.73916
G1 X126.045 Y120.655 E6.02185
G1 X124.756 Y123.072 E6.35056
G1 X122.167 Y125.506 E6.77697
G1 X118.877 Y126.504 E7.18954
G1 X104.655 Y126.507 E8.89618
G1 X102.345 Y126.045 E9.17887
G1 X99.928 Y124.756 E9.50758
G1 X97.494 Y122.167 E9.934
G1 X96.496 Y118.877 E10.34656
G1 X96.493 Y104.668 E12.05164
G1 X96.901 Y102.601 E12.30447
G1 X98.033 Y100.116 E12.63215
G0 F7200 X98.364 Y100.354
G1 F900 X101.029 Y97.85 E13.07097
G1 X104.183 Y96.896 E13.46638
G1 X118.37 Y96.889 E15.16882
G1 X120.245 Y97.278 E15.39861
G1 X122.636 Y98.349 E15.713
G1 X125.15 Y101.024 E16.15351
G1 X126.104 Y104.183 E16.5495
G1 X126.107 Y118.306 E18.24426
G1 X125.664 Y120.519 E18.51509
G1 X124.434 Y122.826 E18.82882
G1 X121.962 Y125.15 E19.23597
G1 X118.817 Y126.104 E19.63035
G1 X104.694 Y126.107 E21.32511
G1 X102.481 Y125.664 E21.59594
G1 X100.174 Y124.434 E21.90967
G1 X97.85 Y121.962 E22.31682
G1 X96.896 Y118.817 E22.7112
G1 X96.893 Y104.705 E24.40464
G1 X97.284 Y102.726 E24.64671
G1 X98.364 Y100.354 E24.95946
G0 F7200 X98.696 Y100.591
G1 F900 X101.234 Y98.206 E25.37739
G1 X104.243 Y97.296 E25.75463
G1 X118.328 Y97.289 E27.44483
G1 X120.124 Y97.662 E27.66495
G1 X122.398 Y98.68 E27.96392
G1 X124.794 Y101.23 E28.38381
G1 X125.704 Y104.243 E28.7615
G1 X125.707 Y118.268 E30.4445
G1 X125.284 Y120.382 E30.70321
G1 X124.112 Y122.58 E31.00212
G1 X121.757 Y124.794 E31.39
G1 X118.757 Y125.704 E31.76619
G1 X104.732 Y125.707 E33.44919
G1 X102.618 Y125.284 E33.7079
G1 X100.42 Y124.112 E34.00681
G1 X98.206 Y121.757 E34.39469
G1 X97.296 Y118.757 E34.77089
G1 X97.293 Y104.741 E36.45281
G1 X97.666 Y102.852 E36.68387
G1 X98.696 Y100.591 E36.98201
G0 F7200 X99.028 Y100.828
G1 F900 X101.439 Y98.562 E37.37906
G1 X104.303 Y97.696 E37.73811
G1 X118.286 Y97.689 E39.41607
G1 X120.001 Y98.045 E39.62626
G1 X122.162 Y99.013 E39.9104
G1 X124.438 Y101.435 E40.30923
G1 X125.304 Y104.303 E40.66874
G1 X125.307 Y118.23 E42.33998
G1 X124.904 Y120.245 E42.58657
G1 X123.79 Y122.334 E42.87067
G1 X121.552 Y124.438 E43.23927
G1 X118.697 Y125.304 E43.59729
G1 X104.77 Y125.307 E45.26853
G1 X102.755 Y124.904 E45.51512
G1 X100.666 Y123.79 E45.79921
G1 X98.562 Y121.552 E46.16782
G1 X97.696 Y118.697 E46.52583
G1 X97.693 Y104.777 E48.19623
G1 X98.048 Y102.978 E48.41628
G1 X99.028 Y100.828 E48.69981
G0 F7200 X99.359 Y101.066
G1 F900 X101.645 Y98.918 E49.07623
G1 X104.363 Y98.096 E49.41698
G1 X118.244 Y98.089 E51.0827
G1 X119.878 Y98.428 E51.28296
G1 X121.925 Y99.345 E51.55212
G1 X124.082 Y101.641 E51.93015
G1 X124.904 Y104.363 E52.27136
G1 X124.907 Y118.191 E53.93072
G1 X124.523 Y120.109 E54.16545
G1 X123.468 Y122.088 E54.43457
G1 X121.347 Y124.082 E54.7839
G1 X118.637 Y124.904 E55.12373
G1 X104.809 Y124.907 E56.78309
G1 X102.891 Y124.523 E57.01782
G1 X100.912 Y123.468 E57.28694
G1 X98.918 Y121.347 E57.63627
G1 X98.096 Y118.637 E57.97611
G1 X98.093 Y104.814 E59.63487
G1 X98.431 Y103.103 E59.84415
G1 X99.359 Y101.066 E60.11276
G0 F7200 X99.691 Y101.303
G1 F900 X101.85 Y99.274 E60.4683
G1 X104.423 Y98.496 E60.79087
G1 X118.202 Y98.489 E62.44435
G1 X119.755 Y98.811 E62.63467
G1 X121.688 Y99.677 E62.88884
G1 X123.726 Y101.847 E63.24608
G1 X124.504 Y104.423 E63.56899
G1 X124.507 Y118.153 E65.21659
G1 X124.143 Y119.972 E65.4392
G1 X123.146 Y121.842 E65.6935
G1 X121.142 Y123.726 E66.02356
G1 X118.577 Y124.504 E66.34521
G1 X104.847 Y124.507 E67.99281
G1 X103.028 Y124.143 E68.21542
G1 X101.158 Y123.146 E68.46972
G1 X99.274 Y121.142 E68.79978
G1 X98.496 Y118.577 E69.12143
G1 X98.493 Y104.85 E70.76867
G1 X98.813 Y103.229 E70.96695
G1 X99.691 Y101.303 E71.22095
G0 F7200 X100.022 Y101.541
G1 F900 X102.056 Y99.63 E71.55586
G1 X104.483 Y98.896 E71.86012
G1 X118.16 Y98.889 E73.50136
G1 X119.632 Y99.194 E73.68176
G1 X121.451 Y100.009 E73.92094
G1 X123.37 Y102.053 E74.25738
G1 X124.104 Y104.483 E74.56199
G1 X124.107 Y118.115 E76.19783
G1 X123.763 Y119.835 E76.40832
G1 X122.824 Y121.596 E76.64781
G1 X120.937 Y123.37 E76.9586
G1 X118.517 Y124.104 E77.26206
G1 X104.885 Y124.107 E78.89791
G1 X103.165 Y123.763 E79.10839
G1 X101.404 Y122.824 E79.34788
G1 X99.63 Y120.937 E79.65867
G1 X98.896 Y118.517 E79.96214
G1 X98.893 Y104.887 E81.59774
G1 X99.196 Y103.354 E81.78525
G1 X100.022 Y101.541 E82.02433
G0 F7200 X100.354 Y101.778
G1 F900 X102.261 Y99.986 E82.33835
G1 X104.543 Y99.296 E82.62444
G1 X118.118 Y99.289 E84.25344
G1 X119.509 Y99.577 E84.4239
G1 X121.214 Y100.341 E84.6481
G1 X123.014 Y102.259 E84.96374
G1 X123.704 Y104.543 E85.25005
G1 X123.707 Y118.076 E86.87401
G1 X123.382 Y119.699 E87.07264
G1 X122.502 Y121.35 E87.29715
G1 X120.732 Y123.014 E87.58867
G1 X118.457 Y123.704 E87.87395
G1 X104.924 Y123.707 E89.49791
G1 X103.301 Y123.382 E89.69654
G1 X101.65 Y122.502 E89.92104
G1 X99.986 Y120.732 E90.21257
G1 X99.296 Y118.457 E90.49785
G1 X99.293 Y104.925 E92.12169
G1 X99.579 Y103.479 E92.29857
G1 X100.354 Y101.778 E92.52287
G0 F7200 X100.686 Y102.015
G1 F900 X102.466 Y100.342 E92.81601
G1 X104.603 Y99.696 E93.08391
G1 X118.076 Y99.689 E94.70067
G1 X119.388 Y99.961 E94.86146
G1 X120.976 Y100.672 E95.07025
G1 X122.658 Y102.465 E95.36526
G1 X123.304 Y104.603 E95.63328
G1 X123.307 Y118.038 E97.24548
G1 X123.002 Y119.562 E97.43199
G1 X122.18 Y121.104 E97.64168
G1 X120.527 Y122.658 E97.91393
G1 X118.397 Y123.304 E98.18102
G1 X104.962 Y123.307 E99.79322
G1 X103.438 Y123.002 E99.97973
G1 X101.896 Y122.18 E100.18942
G1 X100.342 Y120.527 E100.46167
G1 X99.696 Y118.397 E100.72877
G1 X99.693 Y104.963 E102.34085
G1 X99.962 Y103.604 E102.50709
G1 X100.686 Y102.015 E102.71663
G0 F7200 X101.017 Y102.253
G1 F900 X102.672 Y100.698 E102.98914
G1 X104.663 Y100.096 E103.23875
G1 X118.034 Y100.089 E104.84327
G1 X119.265 Y100.344 E104.99412
G1 X120.738 Y101.004 E105.18781
G1 X122.302 Y102.671 E105.46211
G1 X122.904 Y104.663 E105.71183
G1 X122.907 Y118 E107.31227
G1 X122.622 Y119.425 E107.48666
G1 X121.858 Y120.858 E107.68153
G1 X120.322 Y122.302 E107.93451
G1 X118.337 Y122.904 E108.18343
G1 X105 Y122.907 E109.78387
G1 X103.575 Y122.622 E109.95825
G1 X102.142 Y121.858 E110.15312
G1 X100.698 Y120.322 E110.40611
G1 X100.096 Y118.337 E110.65502
G1 X100.093 Y105.001 E112.25534
G1 X100.345 Y103.729 E112.41095
G1 X101.017 Y102.253 E112.60556
G0 F7200 X101.349 Y102.49
G1 F900 X102.877 Y101.054 E112.85718
G1 X104.723 Y100.496 E113.0886
G1 X117.992 Y100.489 E114.68088
G1 X119.142 Y100.727 E114.82181
G1 X120.5 Y101.336 E115.0004
G1 X121.946 Y102.877 E115.25399
G1 X122.504 Y104.723 E115.48541
G1 X122.507 Y117.962 E117.07409
G1 X122.242 Y119.288 E117.23635
G1 X121.536 Y120.612 E117.41641
G1 X120.117 Y121.946 E117.65012
G1 X118.277 Y122.504 E117.88085
G1 X105.038 Y122.507 E119.46953
G1 X103.712 Y122.242 E119.6318
G1 X102.388 Y121.536 E119.81185
G1 X101.054 Y120.117 E120.04557
G1 X100.496 Y118.277 E120.2763
G1 X100.493 Y105.039 E121.86486
G1 X100.728 Y103.854 E122.00982
G1 X101.349 Y102.49 E122.18967
G0 F7200 X101.681 Y102.727
G1 F900 X103.082 Y101.41 E122.42041
G1 X104.783 Y100.896 E122.63365
G1 X117.95 Y100.889 E124.21369
G1 X119.019 Y101.11 E124.34468
G1 X120.262 Y101.668 E124.50818
G1 X121.59 Y103.083 E124.74105
G1 X122.104 Y104.783 E124.95417
G1 X122.107 Y117.923 E126.53097
G1 X121.861 Y119.152 E126.68137
G1 X121.214 Y120.366 E126.84645
G1 X119.912 Y121.59 E127.06089
G1 X118.217 Y122.104 E127.27344
G1 X105.077 Y122.107 E128.85024
G1 X103.848 Y121.861 E129.00064
G1 X102.634 Y121.214 E129.16572
G1 X101.41 Y119.912 E129.38016
G1 X100.896 Y118.217 E129.59271
G1 X100.893 Y105.077 E131.16951
G1 X101.111 Y103.979 E131.30384
G1 X101.681 Y102.727 E131.46892
G0 F7200 X102.012 Y102.965
G1 F900 X103.288 Y101.766 E131.67903
G1 X104.843 Y101.296 E131.87397
G1 X117.908 Y101.289 E133.44177
G1 X118.896 Y101.493 E133.56283
G1 X120.024 Y102 E133.71123
G1 X121.234 Y103.289 E133.92338
G1 X121.704 Y104.843 E134.11821
G1 X121.707 Y117.885 E135.68325
G1 X121.481 Y119.015 E135.82153
G1 X120.892 Y120.12 E135.97179
G1 X119.707 Y121.234 E136.16696
G1 X118.157 Y121.704 E136.36133
G1 X105.115 Y121.707 E137.92637
G1 X103.985 Y121.481 E138.06465
G1 X102.88 Y120.892 E138.21491
G1 X101.766 Y119.707 E138.41008
G1 X101.296 Y118.157 E138.60445
G1 X101.293 Y105.115 E140.16949
G1 X101.494 Y104.104 E140.29318
G1 X102.012 Y102.965 E140.44333
G0 F7200 X102.344 Y103.202
G1 F900 X103.493 Y102.122 E140.63256
G1 X104.903 Y101.696 E140.80931
G1 X117.866 Y101.689 E142.36487
G1 X118.773 Y101.876 E142.476
G1 X119.786 Y102.332 E142.60931
G1 X120.878 Y103.495 E142.80075
G1 X121.304 Y104.903 E142.97727
G1 X121.307 Y117.847 E144.53055
G1 X121.101 Y118.878 E144.65672
G1 X120.57 Y119.874 E144.79216
G1 X119.502 Y120.878 E144.96806
G1 X118.097 Y121.304 E145.14424
G1 X105.153 Y121.307 E146.69752
G1 X104.122 Y121.101 E146.82369
G1 X103.126 Y120.57 E146.95913
G1 X102.122 Y119.502 E147.13503
G1 X101.696 Y118.097 E147.31121
G1 X101.693 Y105.153 E148.86449
G1 X101.877 Y104.229 E148.97755
G1 X102.344 Y103.202 E149.11293
G0 F7200 X102.674 Y103.441
G1 F900 X103.699 Y102.478 E149.2817
G1 X104.963 Y102.096 E149.44015
G1 X117.824 Y102.089 E150.98347
G1 X118.649 Y102.259 E151.08455
G1 X119.548 Y102.664 E151.20288
G1 X120.522 Y103.701 E151.3736
G1 X120.904 Y104.963 E151.53182
G1 X120.907 Y117.809 E153.07334
G1 X120.721 Y118.741 E153.18739
G1 X120.248 Y119.628 E153.30802
G1 X119.297 Y120.522 E153.46465
G1 X118.037 Y120.904 E153.62264
G1 X105.191 Y120.907 E155.16416
G1 X104.259 Y120.721 E155.27821
G1 X103.372 Y120.248 E155.39884
G1 X102.478 Y119.297 E155.55546
G1 X102.096 Y118.037 E155.71346
G1 X102.093 Y105.191 E157.25498
G1 X102.26 Y104.352 E157.35764
G1 X102.674 Y103.441 E157.47771
G0 F7200 X103.004 Y103.68
G1 F900 X103.905 Y102.834 E157.62603
G1 X105.023 Y102.496 E157.76618
G1 X117.782 Y102.489 E159.29726
G1 X118.525 Y102.642 E159.38829
G1 X119.31 Y102.996 E159.49163
G1 X120.166 Y103.907 E159.64164
G1 X120.504 Y105.023 E159.78156
G1 X120.507 Y117.771 E161.31132
G1 X120.341 Y118.604 E161.41325
G1 X119.926 Y119.382 E161.51906
G1 X119.092 Y120.166 E161.65642
G1 X117.977 Y120.504 E161.79623
G1 X105.229 Y120.507 E163.32599
G1 X104.396 Y120.341 E163.42792
G1 X103.618 Y119.926 E163.53373
G1 X102.834 Y119.092 E163.67109
G1 X102.496 Y117.977 E163.8109
G1 X102.493 Y105.229 E165.34066
G1 X102.643 Y104.475 E165.43291
G1 X103.004 Y103.68 E165.53769
G0 F7200 X103.334 Y103.919
G1 F900 X104.111 Y103.19 E165.66554
G1 X105.083 Y102.896 E165.7874
G1 X117.741 Y102.889 E167.30636
G1 X118.403 Y103.025 E167.38746
G1 X119.073 Y103.328 E167.4757
G1 X119.81 Y104.112 E167.60482
G1 X120.104 Y105.083 E167.72656
G1 X120.107 Y117.733 E169.24456
G1 X119.961 Y118.467 E169.33437
G1 X119.604 Y119.136 E169.42537
G1 X118.887 Y119.81 E169.54345
G1 X117.917 Y120.104 E169.66508
G1 X105.267 Y120.107 E171.18308
G1 X104.533 Y119.961 E171.27289
G1 X103.864 Y119.604 E171.36388
G1 X103.19 Y118.887 E171.48197
G1 X102.896 Y117.917 E171.6036
G1 X102.893 Y105.267 E173.1216
G1 X103.026 Y104.598 E173.20345
G1 X103.334 Y103.919 E173.29292
G0 F7200 X103.664 Y104.158
G1 F900 X104.317 Y103.546 E173.40031
G1 X105.143 Y103.296 E173.50388
G1 X117.699 Y103.289 E175.0106
G1 X118.278 Y103.408 E175.08153
G1 X118.836 Y103.66 E175.155
G1 X119.454 Y104.318 E175.26332
G1 X119.704 Y105.143 E175.36677
G1 X119.707 Y117.695 E176.87301
G1 X119.581 Y118.33 E176.9507
G1 X119.282 Y118.89 E177.02688
G1 X118.682 Y119.454 E177.12569
G1 X117.857 Y119.704 E177.22914
G1 X105.305 Y119.707 E178.73538
G1 X104.67 Y119.581 E178.81306
G1 X104.11 Y119.282 E178.88924
G1 X103.546 Y118.682 E178.98806
G1 X103.296 Y117.857 E179.0915
G1 X103.293 Y105.305 E180.59774
G1 X103.409 Y104.721 E180.66919
G1 X103.664 Y104.158 E180.74336
G0 F7200 X104.321 Y104.641
G1 F900 X104.729 Y104.258 E180.81051
G1 X105.263 Y104.096 E180.87747
G1 X117.615 Y104.089 E182.35971
G1 X118.116 Y104.192 E182.42109
G1 X118.358 Y104.32 E182.45394
G1 X118.742 Y104.729 E182.52127
G1 X118.904 Y105.263 E182.58823
G1 X118.907 Y117.657 E184.07551
G1 X118.808 Y118.116 E184.13186
G1 X118.68 Y118.358 E184.16471
G1 X118.271 Y118.742 E184.23203
G1 X117.737 Y118.904 E184.29899
G1 X105.343 Y118.907 E185.78627
G1 X104.884 Y118.808 E185.84262
G1 X104.642 Y118.68 E185.87547
G1 X104.258 Y118.271 E185.94279
G1 X104.096 Y117.737 E186.00976
G1 X104.093 Y105.343 E187.49704
G1 X104.192 Y104.883 E187.5535
G1 X104.321 Y104.641 E187.58641
G0 F7200 X103.994 Y104.398
G1 F900 X104.523 Y103.902 E187.67343
G1 X105.203 Y103.696 E187.75869
G1 X117.657 Y103.689 E189.25317
G1 X118.197 Y103.8 E189.31933
G1 X118.599 Y103.992 E189.37279
G1 X119.098 Y104.523 E189.46023
G1 X119.304 Y105.203 E189.54549
G1 X119.307 Y117.657 E191.03997
G1 X119.199 Y118.2 E191.10641
G1 X119.008 Y118.599 E191.15949
G1 X118.477 Y119.098 E191.24693
G1 X117.797 Y119.304 E191.33219
G1 X105.343 Y119.307 E192.82667
G1 X104.8 Y119.199 E192.89311
G1 X104.401 Y119.008 E192.94619
G1 X103.902 Y118.477 E193.03363
G1 X103.696 Y117.797 E193.11889
G1 X103.693 Y105.343 E194.61337
G1 X103.801 Y104.799 E194.67993
G1 X103.994 Y104.398 E194.73333
G10
;MESH:Key_Cap_Cover_0_equalSign_closingCurlyBracket.stl
G0 F7200 X104.708 Y105.427
G0 X105.403 Y118.511
;TYPE:WALL-OUTER
G11
G1 F900 X117.703 Y118.503 E196.35693
G1 X118.067 Y118.385 E196.40744
G1 X118.424 Y117.995 E196.47723
G1 X118.511 Y117.597 E196.53101
G1 X118.504 Y105.297 E198.15461
G1 X118.385 Y104.933 E198.20516
G1 X117.995 Y104.576 E198.27495
G1 X117.597 Y104.489 E198.32873
G1 X105.297 Y104.496 E199.95233
G1 X104.933 Y104.615 E200.00288
G1 X104.576 Y105.005 E200.07267
G1 X104.489 Y105.403 E200.12645
G1 X104.497 Y117.703 E201.75005
G1 X104.615 Y118.067 E201.80056
G1 X105.005 Y118.424 E201.87035
G1 X105.403 Y118.511 E201.92412
G0 F7200 X105.603 Y118.511
G0 X105.445 Y118.111
;TYPE:WALL-INNER
G1 F900 X117.639 Y118.103 E203.31424
G1 X117.862 Y118.031 E203.34096
G1 X118.046 Y117.849 E203.37046
G1 X118.111 Y117.555 E203.40478
G1 X118.104 Y105.36 E204.79501
G1 X118.031 Y105.138 E204.82166
G1 X117.849 Y104.954 E204.85116
G1 X117.555 Y104.889 E204.88549
G1 X105.36 Y104.896 E206.27572
G1 X105.138 Y104.969 E206.30236
G1 X104.954 Y105.151 E206.33186
G1 X104.889 Y105.445 E206.36619
G1 X104.897 Y117.639 E207.7563
G1 X104.969 Y117.862 E207.78302
G1 X105.151 Y118.046 E207.81252
G1 X105.445 Y118.111 E207.84685
G10
G0 F7200 X109.547 Y117.989
G0 X109.546 Y115.655
;TYPE:SKIN
G11
G1 F702 X109.546 Y115.155 E207.91097
G1 X107.051 Y115.155 E208.23095
G1 X107.051 Y115.655 E208.29508
G1 X109.546 Y115.655 E208.61506
G10
G0 F7200 X109.546 Y114.29
G11
G1 F700.4 X109.546 Y113.788 E208.67957
G1 X107.05 Y113.787 E209.00033
G1 X107.05 Y114.289 E209.06484
G1 X109.546 Y114.29 E209.38559
G10
G0 F7200 X108.595 Y110.726
G11
G1 F803.9 X109.09 Y110.543 E209.44556
G1 F776.5 X109.253 Y110.401 E209.4709
G1 X109.513 Y109.981 E209.5288
G1 F788 X109.597 Y109.636 E209.56987
G1 X109.596 Y106.916 E209.88453
G1 X109.511 Y106.57 E209.92574
G1 F778.4 X109.255 Y106.156 E209.98268
G1 X109.09 Y106.014 E210.00814
G1 F808 X108.591 Y105.829 E210.06834
G1 F822.4 X107.96 Y105.829 E210.13858
G1 F803.9 X107.462 Y106.016 E210.19903
G1 F780.3 X107.296 Y106.159 E210.2246
G1 F772.7 X107.046 Y106.583 E210.28255
G1 F778.4 X106.961 Y106.921 E210.32331
G1 F786.1 X106.958 Y109.629 E210.63727
G1 F790 X107.044 Y109.983 E210.67932
G1 F778.4 X107.299 Y110.396 E210.73609
G1 F780.3 X107.468 Y110.542 E210.76216
G1 F808 X107.964 Y110.726 E210.822
G1 F820.3 X108.595 Y110.726 E210.89241
G0 F7200 X108.501 Y110.298
G1 F820.3 X108.055 Y110.299 E210.94217
G1 F808 X107.726 Y110.175 E210.98194
G1 F790 X107.41 Y109.729 E211.04503
G1 F784.2 X107.412 Y106.985 E211.36387
G1 F790 X107.513 Y106.646 E211.4047
G1 F792 X107.723 Y106.385 E211.44328
