;FLAVOR:UltiGCode
;TIME:2555
;MATERIAL:3061
;MATERIAL2:0
;NOZZLE_DIAMETER:0.4
;MINX:88.795
;MINY:88.795
;MINZ:0.3
;MAXX:134.205
;MAXY:134.205
;MAXZ:33.6
;Generated with Cura_SteamEngine 5.4.0
M82 ;absolute extrusion mode
G0 F3000 Y50 ;avoid prime blob
G92 E0
G92 E0
G10
;LAYER_COUNT:223
;LAYER:0
M107
G0 F7200 X92.434 Y92.611 Z0.3
;TYPE:SKIRT
G11
G1 F900 X93.935 Y91.308 E0.23852
G1 X95.265 Y90.446 E0.42871
G1 X96.624 Y89.781 E0.61027
G1 X98.298 Y89.217 E0.82224
G1 X99.796 Y88.923 E1.00543
G1 X101.493 Y88.795 E1.20965
G1 X122.141 Y88.822 E3.68741
G1 X123.45 Y88.951 E3.84525
G1 X125.236 Y89.3 E4.06363
G1 X127.624 Y90.3 E4.3743
G1 X129.422 Y91.578 E4.63901
G1 X130.601 Y92.653 E4.83047
G1 X131.918 Y94.231 E5.07711
G1 X132.382 Y94.946 E5.1794
G1 X133.371 Y97.001 E5.45307
G1 X133.759 Y98.202 E5.60452
G1 X134.119 Y100.134 E5.84036
G1 X134.205 Y101.489 E6.00328
G1 X134.172 Y122.238 E8.49317
G1 X134.009 Y123.686 E8.66802
G1 X133.686 Y125.267 E8.86166
G1 X132.705 Y127.61 E9.16647
G1 X131.353 Y129.518 E9.44709
G1 X130.647 Y130.308 E9.57423
G1 X128.977 Y131.757 E9.83955
G1 X127.821 Y132.506 E10.00484
G1 X126.281 Y133.257 E10.21044
G1 X124.702 Y133.783 E10.41016
G1 X123.204 Y134.077 E10.59335
G1 X121.506 Y134.205 E10.79769
G1 X100.83 Y134.177 E13.27881
G1 X99.546 Y134.05 E13.43364
G1 X97.781 Y133.704 E13.64947
G1 X95.39 Y132.703 E13.96052
G1 X93.413 Y131.298 E14.25157
G1 X92.761 Y130.717 E14.35636
G1 X91.243 Y128.977 E14.63346
G1 X90.494 Y127.821 E14.79875
G1 X89.743 Y126.281 E15.00435
G1 X89.216 Y124.699 E15.20445
G1 X88.923 Y123.206 E15.38703
G1 X88.795 Y121.501 E15.5922
G1 X88.873 Y100.134 E18.15626
G1 X89.006 Y99.233 E18.26555
G1 X89.644 Y96.96 E18.54885
G1 X90.312 Y95.364 E18.75647
G1 X91.597 Y93.545 E19.02372
G1 X92.434 Y92.611 E19.17422
G0 F7200 X92.697 Y92.913
G1 F900 X94.153 Y91.644 E19.40599
G1 X95.483 Y90.782 E19.59618
G1 X96.799 Y90.141 E19.77184
G1 X98.375 Y89.61 E19.9714
G1 X99.873 Y89.316 E20.15459
G1 X101.493 Y89.195 E20.34953
G1 X122.102 Y89.22 E22.82261
G1 X123.373 Y89.344 E22.97586
G1 X125.122 Y89.686 E23.18971
G1 X127.43 Y90.652 E23.48995
G1 X129.152 Y91.874 E23.74334
G1 X130.331 Y92.949 E23.9348
G1 X131.582 Y94.449 E24.16918
G1 X132.046 Y95.164 E24.27147
G1 X132.99 Y97.124 E24.53253
G1 X133.378 Y98.325 E24.68398
G1 X133.72 Y100.16 E24.90797
G1 X133.805 Y101.488 E25.06766
G1 X133.774 Y122.194 E27.55238
G1 X133.617 Y123.606 E27.72286
G1 X133.302 Y125.148 E27.91173
G1 X132.353 Y127.414 E28.20653
G1 X131.054 Y129.252 E28.47661
G1 X130.384 Y130.006 E28.59765
G1 X128.759 Y131.421 E28.85622
G1 X127.603 Y132.17 E29.02151
G1 X126.154 Y132.878 E29.21504
G1 X124.625 Y133.39 E29.40853
G1 X123.127 Y133.684 E29.59172
G1 X121.507 Y133.805 E29.78667
G1 X100.869 Y133.779 E32.26323
G1 X99.623 Y133.657 E32.41346
G1 X97.897 Y133.319 E32.62452
G1 X95.583 Y132.35 E32.92556
G1 X93.679 Y130.999 E33.20571
G1 X93.027 Y130.418 E33.31051
G1 X91.579 Y128.759 E33.57475
G1 X90.83 Y127.603 E33.74005
G1 X90.122 Y126.154 E33.93357
G1 X89.609 Y124.622 E34.12745
G1 X89.316 Y123.129 E34.31002
G1 X89.195 Y121.502 E34.5058
G1 X89.269 Y100.192 E37.06302
G1 X89.402 Y99.291 E37.17231
G1 X90.013 Y97.114 E37.44364
G1 X90.664 Y95.559 E37.64594
G1 X91.896 Y93.811 E37.90256
G1 X92.697 Y92.913 E38.04696
G0 F7200 X92.96 Y93.215
G1 F900 X94.416 Y91.946 E38.27873
G1 X95.658 Y91.142 E38.45627
G1 X96.974 Y90.501 E38.63193
G1 X98.452 Y90.003 E38.81909
G1 X99.95 Y89.709 E39.00227
G1 X101.493 Y89.595 E39.18794
G1 X122.064 Y89.618 E41.65646
G1 X123.296 Y89.737 E41.80499
G1 X125.006 Y90.071 E42.01407
G1 X127.234 Y91.004 E42.30392
G1 X128.882 Y92.17 E42.54618
G1 X130.061 Y93.245 E42.73764
G1 X131.246 Y94.667 E42.95976
G1 X131.71 Y95.382 E43.06204
G1 X132.609 Y97.247 E43.31049
G1 X132.997 Y98.448 E43.46194
G1 X133.321 Y100.186 E43.6741
G1 X133.405 Y101.487 E43.83054
G1 X133.376 Y122.15 E46.3101
G1 X133.225 Y123.526 E46.47621
G1 X132.918 Y125.029 E46.6603
G1 X132.001 Y127.218 E46.9451
G1 X130.727 Y129.021 E47.21002
G1 X130.121 Y129.705 E47.31968
G1 X128.541 Y131.085 E47.57142
G1 X127.385 Y131.834 E47.73671
G1 X126.026 Y132.499 E47.91827
G1 X124.548 Y132.997 E48.10542
G1 X123.05 Y133.291 E48.28861
G1 X121.507 Y133.405 E48.47428
G1 X100.908 Y133.381 E50.94616
G1 X99.7 Y133.264 E51.0918
G1 X98.011 Y132.933 E51.29833
G1 X95.777 Y131.998 E51.58895
G1 X93.945 Y130.7 E51.85837
G1 X93.293 Y130.119 E51.96317
G1 X91.915 Y128.541 E52.21457
G1 X91.166 Y127.385 E52.37986
G1 X90.501 Y126.026 E52.56142
G1 X90.002 Y124.545 E52.74895
G1 X89.709 Y123.052 E52.93153
G1 X89.595 Y121.503 E53.11791
G1 X89.665 Y100.25 E55.66829
G1 X89.798 Y99.349 E55.77758
G1 X90.382 Y97.268 E56.03695
G1 X91.016 Y95.753 E56.23402
G1 X92.195 Y94.077 E56.47992
G1 X92.96 Y93.215 E56.61822
G0 F7200 X93.223 Y93.517
G1 F900 X94.679 Y92.248 E56.84999
G1 X95.833 Y91.502 E57.01489
G1 X97.149 Y90.861 E57.19054
G1 X98.529 Y90.396 E57.36529
G1 X100.027 Y90.102 E57.54848
G1 X101.493 Y89.995 E57.72487
G1 X122.026 Y90.016 E60.18883
G1 X123.219 Y90.13 E60.33264
G1 X124.89 Y90.456 E60.53694
G1 X127.038 Y91.356 E60.81641
G1 X128.651 Y92.497 E61.05351
G1 X129.754 Y93.502 E61.23257
G1 X130.91 Y94.885 E61.44887
G1 X131.374 Y95.6 E61.55115
G1 X132.228 Y97.37 E61.78698
G1 X132.616 Y98.571 E61.93844
G1 X132.922 Y100.212 E62.13875
G1 X133.005 Y101.486 E62.29196
G1 X132.978 Y122.107 E64.76648
G1 X132.833 Y123.446 E64.9281
G1 X132.534 Y124.91 E65.1074
G1 X131.648 Y127.025 E65.38257
G1 X130.427 Y128.757 E65.63687
G1 X129.857 Y129.404 E65.74034
G1 X128.323 Y130.749 E65.98516
G1 X127.167 Y131.498 E66.15045
G1 X125.851 Y132.139 E66.32611
G1 X124.471 Y132.604 E66.50086
G1 X122.973 Y132.898 E66.68404
G1 X121.507 Y133.005 E66.86043
G1 X100.946 Y132.983 E69.32775
G1 X99.777 Y132.871 E69.46868
G1 X98.127 Y132.548 E69.67043
G1 X95.973 Y131.646 E69.95066
G1 X94.21 Y130.4 E70.20973
G1 X93.594 Y129.855 E70.30842
G1 X92.251 Y128.323 E70.5529
G1 X91.502 Y127.167 E70.7182
G1 X90.861 Y125.851 E70.89385
G1 X90.395 Y124.468 E71.06898
G1 X90.102 Y122.975 E71.25156
G1 X89.995 Y121.504 E71.42854
G1 X90.061 Y100.308 E73.97208
G1 X90.194 Y99.407 E74.08137
G1 X90.751 Y97.422 E74.32877
G1 X91.368 Y95.947 E74.52063
G1 X92.495 Y94.342 E74.75597
G1 X93.223 Y93.517 E74.888
G0 F7200 X93.486 Y93.819
G1 F900 X94.942 Y92.55 E75.11977
G1 X96.008 Y91.862 E75.27202
G1 X97.324 Y91.221 E75.44768
G1 X98.606 Y90.789 E75.61002
G1 X100.104 Y90.495 E75.7932
G1 X101.493 Y90.395 E75.96032
G1 X121.988 Y90.414 E78.41972
G1 X123.142 Y90.523 E78.55881
G1 X124.774 Y90.841 E78.75834
G1 X126.842 Y91.708 E79.02742
G1 X128.42 Y92.824 E79.25935
G1 X129.447 Y93.759 E79.42602
G1 X130.574 Y95.103 E79.6365
G1 X131.038 Y95.818 E79.73878
G1 X131.847 Y97.493 E79.962
G1 X132.235 Y98.694 E80.11345
G1 X132.523 Y100.238 E80.30193
G1 X132.605 Y101.486 E80.45201
G1 X132.58 Y122.065 E82.92149
G1 X132.441 Y123.366 E83.0785
G1 X132.15 Y124.791 E83.25303
G1 X131.296 Y126.83 E83.5183
G1 X130.1 Y128.526 E83.76734
G1 X129.593 Y129.103 E83.85951
G1 X128.059 Y130.448 E84.10433
G1 X126.992 Y131.138 E84.25681
G1 X125.676 Y131.779 E84.43246
G1 X124.394 Y132.211 E84.5948
G1 X122.896 Y132.505 E84.77799
G1 X121.507 Y132.605 E84.9451
G1 X100.984 Y132.585 E87.40787
G1 X99.854 Y132.478 E87.54407
G1 X98.241 Y132.162 E87.74131
G1 X96.168 Y131.294 E88.011
G1 X94.474 Y130.1 E88.2597
G1 X93.895 Y129.591 E88.35221
G1 X92.552 Y128.059 E88.59669
G1 X91.862 Y126.992 E88.74917
G1 X91.221 Y125.676 E88.92482
G1 X90.788 Y124.391 E89.08754
G1 X90.495 Y122.898 E89.27012
G1 X90.395 Y121.505 E89.43771
G1 X90.457 Y100.366 E91.9744
G1 X90.59 Y99.465 E92.08369
G1 X91.12 Y97.576 E92.31913
G1 X91.72 Y96.142 E92.50566
G1 X92.796 Y94.606 E92.73071
G1 X93.486 Y93.819 E92.85631
G0 F7200 X93.749 Y94.121
G1 F900 X95.205 Y92.852 E93.08807
G1 X96.183 Y92.222 E93.22768
G1 X97.499 Y91.581 E93.40333
G1 X98.683 Y91.182 E93.55326
G1 X100.181 Y90.888 E93.73645
G1 X101.493 Y90.795 E93.89429
G1 X121.951 Y90.812 E96.34925
G1 X123.066 Y90.916 E96.48363
G1 X124.657 Y91.226 E96.67814
G1 X126.646 Y92.06 E96.93695
G1 X128.189 Y93.151 E97.16372
G1 X129.141 Y94.017 E97.31816
G1 X130.238 Y95.321 E97.52264
G1 X130.702 Y96.036 E97.62493
G1 X131.466 Y97.616 E97.83553
G1 X131.854 Y98.817 E97.98698
G1 X132.124 Y100.264 E98.16362
G1 X132.205 Y101.486 E98.31058
G1 X132.182 Y122.023 E100.77503
G1 X132.049 Y123.286 E100.92742
G1 X131.766 Y124.672 E101.09717
G1 X130.943 Y126.637 E101.35282
G1 X129.798 Y128.263 E101.59146
G1 X129.329 Y128.802 E101.6772
G1 X127.795 Y130.147 E101.92202
G1 X126.817 Y130.778 E102.06169
G1 X125.501 Y131.419 E102.23734
G1 X124.317 Y131.818 E102.38727
G1 X122.819 Y132.112 E102.57046
G1 X121.507 Y132.205 E102.7283
G1 X101.021 Y132.187 E105.18662
G1 X99.931 Y132.085 E105.31799
G1 X98.357 Y131.777 E105.51045
G1 X96.361 Y130.941 E105.77013
G1 X94.737 Y129.798 E106.00844
G1 X94.196 Y129.327 E106.09452
G1 X92.853 Y127.795 E106.339
G1 X92.222 Y126.817 E106.47866
G1 X91.581 Y125.501 E106.65432
G1 X91.181 Y124.314 E106.80463
G1 X90.888 Y122.821 E106.98721
G1 X90.795 Y121.506 E107.1454
G1 X90.853 Y100.424 E109.67525
G1 X90.986 Y99.523 E109.78454
G1 X91.489 Y97.73 E110.00801
G1 X92.071 Y96.339 E110.18895
G1 X93.124 Y94.836 E110.40917
G1 X93.749 Y94.121 E110.52313
G0 F7200 X94.012 Y94.423
G1 F900 X95.468 Y93.154 E110.7549
G1 X96.358 Y92.582 E110.88185
G1 X97.674 Y91.941 E111.05751
G1 X98.76 Y91.575 E111.19503
G1 X100.258 Y91.281 E111.37822
G1 X101.493 Y91.195 E111.52678
G1 X121.914 Y91.21 E113.9773
G1 X122.99 Y91.309 E114.10697
G1 X124.54 Y91.611 E114.29646
G1 X126.45 Y92.412 E114.545
G1 X127.958 Y93.478 E114.76661
G1 X128.835 Y94.275 E114.90882
G1 X129.902 Y95.539 E115.10731
G1 X130.366 Y96.254 E115.2096
G1 X131.085 Y97.739 E115.40759
G1 X131.473 Y98.94 E115.55904
G1 X131.725 Y100.291 E115.72396
G1 X131.805 Y101.486 E115.86768
G1 X131.784 Y121.982 E118.3272
G1 X131.657 Y123.206 E118.47487
G1 X131.382 Y124.553 E118.63984
G1 X130.59 Y126.444 E118.88586
G1 X129.496 Y128 E119.11411
G1 X129.027 Y128.539 E119.19985
G1 X127.532 Y129.846 E119.43814
G1 X126.642 Y130.418 E119.5651
G1 X125.326 Y131.059 E119.74075
G1 X124.24 Y131.425 E119.87828
G1 X122.742 Y131.719 E120.06147
G1 X121.507 Y131.805 E120.21002
G1 X101.058 Y131.789 E122.66391
G1 X100.008 Y131.692 E122.79044
G1 X98.473 Y131.392 E122.97813
G1 X96.554 Y130.588 E123.2278
G1 X95 Y129.496 E123.45572
G1 X94.459 Y129.025 E123.54179
G1 X93.154 Y127.532 E123.77975
G1 X92.582 Y126.642 E123.9067
G1 X91.941 Y125.326 E124.08236
G1 X91.574 Y124.237 E124.22026
G1 X91.281 Y122.744 E124.40284
G1 X91.195 Y121.507 E124.55164
G1 X91.249 Y100.482 E127.07465
G1 X91.382 Y99.581 E127.18394
G1 X91.858 Y97.884 E127.39544
G1 X92.422 Y96.536 E127.57078
G1 X93.452 Y95.066 E127.78618
G1 X94.012 Y94.423 E127.8885
G0 F7200 X94.275 Y94.724
G1 F900 X95.685 Y93.49 E128.11335
G1 X96.533 Y92.942 E128.2345
G1 X97.849 Y92.301 E128.41016
G1 X98.837 Y91.968 E128.53527
G1 X100.335 Y91.674 E128.71846
G1 X101.493 Y91.595 E128.85775
G1 X121.878 Y91.608 E131.30395
G1 X122.914 Y91.702 E131.42878
G1 X124.423 Y91.996 E131.61326
G1 X126.254 Y92.764 E131.85153
G1 X127.727 Y93.805 E132.06797
G1 X128.53 Y94.534 E132.19812
G1 X129.566 Y95.757 E132.39046
G1 X130.03 Y96.472 E132.49274
G1 X130.704 Y97.862 E132.67812
G1 X131.092 Y99.063 E132.82957
G1 X131.326 Y100.318 E132.98277
G1 X131.405 Y101.486 E133.12325
G1 X131.386 Y121.941 E135.57785
G1 X131.265 Y123.126 E135.72079
G1 X130.998 Y124.434 E135.88098
G1 X130.237 Y126.251 E136.11738
G1 X129.194 Y127.737 E136.33524
G1 X128.725 Y128.276 E136.42097
G1 X127.315 Y129.51 E136.64582
G1 X126.467 Y130.058 E136.76698
G1 X125.151 Y130.699 E136.94264
G1 X124.163 Y131.032 E137.06775
G1 X122.665 Y131.326 E137.25094
G1 X121.507 Y131.405 E137.39022
G1 X101.094 Y131.391 E139.83978
G1 X100.085 Y131.299 E139.96136
G1 X98.587 Y131.006 E140.14453
G1 X96.748 Y130.236 E140.38377
G1 X95.263 Y129.194 E140.60147
G1 X94.722 Y128.723 E140.68754
G1 X93.49 Y127.315 E140.91205
G1 X92.942 Y126.467 E141.03321
G1 X92.301 Y125.151 E141.20887
G1 X91.967 Y124.16 E141.33436
G1 X91.674 Y122.667 E141.51694
G1 X91.595 Y121.508 E141.65634
G1 X91.645 Y100.54 E144.17251
G1 X91.778 Y99.639 E144.2818
G1 X92.227 Y98.038 E144.48133
G1 X92.773 Y96.733 E144.65109
G1 X93.78 Y95.296 E144.86165
G1 X94.275 Y94.724 E144.95243
G0 F7200 X94.577 Y94.987
G1 F900 X95.948 Y93.791 E145.17075
G1 X96.708 Y93.302 E145.27919
G1 X98.024 Y92.661 E145.45485
G1 X98.914 Y92.361 E145.56756
G1 X100.412 Y92.067 E145.75075
G1 X101.493 Y91.995 E145.88075
G1 X121.842 Y92.006 E148.32263
G1 X122.838 Y92.095 E148.44263
G1 X124.306 Y92.381 E148.6221
G1 X126.061 Y93.117 E148.85047
G1 X127.458 Y94.101 E149.05552
G1 X128.261 Y94.83 E149.18567
G1 X129.23 Y95.975 E149.36567
G1 X129.694 Y96.69 E149.46795
G1 X130.323 Y97.985 E149.64071
G1 X130.711 Y99.186 E149.79217
G1 X130.927 Y100.345 E149.93364
G1 X131.005 Y101.486 E150.07088
G1 X130.988 Y121.901 E152.52068
G1 X130.873 Y123.046 E152.65877
G1 X130.614 Y124.315 E152.81419
G1 X129.884 Y126.057 E153.04085
G1 X128.892 Y127.474 E153.24841
G1 X128.423 Y128.013 E153.33415
G1 X127.052 Y129.209 E153.55247
G1 X126.292 Y129.698 E153.66092
G1 X124.976 Y130.339 E153.83658
G1 X124.086 Y130.639 E153.94928
G1 X122.588 Y130.933 E154.13247
G1 X121.507 Y131.005 E154.26248
G1 X101.13 Y130.993 E156.70772
G1 X100.162 Y130.906 E156.82435
G1 X98.701 Y130.62 E157.00299
G1 X96.943 Y129.884 E157.2317
G1 X95.526 Y128.892 E157.43926
G1 X94.985 Y128.421 E157.52534
G1 X93.791 Y127.052 E157.74332
G1 X93.302 Y126.292 E157.85177
G1 X92.661 Y124.976 E158.02743
G1 X92.36 Y124.083 E158.14051
G1 X92.067 Y122.59 E158.32309
G1 X91.995 Y121.509 E158.4531
G1 X92.041 Y100.598 E160.96242
G1 X92.174 Y99.697 E161.07171
G1 X92.596 Y98.192 E161.25928
G1 X93.124 Y96.93 E161.42344
G1 X94.108 Y95.526 E161.62918
G1 X94.577 Y94.987 E161.71492
G0 F7200 X94.879 Y95.25
G1 F900 X96.165 Y94.127 E161.91979
G1 X96.883 Y93.662 E162.02244
G1 X98.199 Y93.021 E162.1981
G1 X98.991 Y92.754 E162.2984
G1 X100.489 Y92.46 E162.48159
G1 X101.493 Y92.395 E162.60232
G1 X121.807 Y92.404 E165.04
G1 X122.762 Y92.488 E165.15504
G1 X124.189 Y92.766 E165.3295
G1 X125.868 Y93.47 E165.54798
G1 X127.189 Y94.397 E165.74163
G1 X127.992 Y95.126 E165.87178
G1 X128.894 Y96.193 E166.03944
G1 X129.358 Y96.908 E166.14172
G1 X129.942 Y98.108 E166.30187
G1 X130.33 Y99.309 E166.45332
G1 X130.528 Y100.373 E166.5832
G1 X130.605 Y101.486 E166.71708
G1 X130.59 Y121.862 E169.1622
G1 X130.481 Y122.966 E169.29532
G1 X130.23 Y124.196 E169.44596
G1 X129.531 Y125.864 E169.66299
G1 X128.59 Y127.211 E169.86016
G1 X128.121 Y127.75 E169.9459
G1 X126.835 Y128.873 E170.15078
G1 X126.117 Y129.338 E170.25343
G1 X124.801 Y129.979 E170.42909
G1 X124.009 Y130.246 E170.52938
G1 X122.511 Y130.54 E170.71257
G1 X121.507 Y130.605 E170.8333
G1 X101.165 Y130.595 E173.27434
G1 X100.239 Y130.513 E173.3859
G1 X98.817 Y130.235 E173.55977
G1 X97.136 Y129.531 E173.77846
G1 X95.789 Y128.59 E173.97564
G1 X95.248 Y128.119 E174.06172
G1 X94.127 Y126.835 E174.26626
G1 X93.662 Y126.117 E174.36891
G1 X93.021 Y124.801 E174.54456
G1 X92.753 Y124.006 E174.64524
G1 X92.46 Y122.513 E174.82782
G1 X92.395 Y121.51 E174.94843
G1 X92.437 Y100.656 E177.45091
G1 X92.57 Y99.755 E177.56021
G1 X92.965 Y98.346 E177.7358
G1 X93.476 Y97.125 E177.89464
G1 X94.41 Y95.789 E178.09025
G1 X94.879 Y95.25 E178.17599
G0 F7200 X95.181 Y95.513
G1 F900 X96.384 Y94.462 E178.36768
G1 X97.058 Y94.022 E178.46427
G1 X98.374 Y93.381 E178.63993
G1 X99.068 Y93.147 E178.72781
G1 X100.566 Y92.853 E178.911
G1 X101.493 Y92.795 E179.02246
G1 X121.773 Y92.803 E181.45606
G1 X122.686 Y92.881 E181.56602
G1 X124.072 Y93.151 E181.73547
G1 X125.674 Y93.823 E181.94393
G1 X126.921 Y94.694 E182.12646
G1 X127.687 Y95.385 E182.25026
G1 X128.558 Y96.411 E182.41176
G1 X129.022 Y97.126 E182.51404
G1 X129.562 Y98.232 E182.66174
G1 X129.937 Y99.383 E182.807
G1 X130.129 Y100.401 E182.93132
G1 X130.205 Y101.486 E183.06184
G1 X130.192 Y121.823 E185.50228
G1 X130.089 Y122.886 E185.63043
G1 X129.846 Y124.077 E185.7763
G1 X129.178 Y125.671 E185.9837
G1 X128.288 Y126.948 E186.17048
G1 X127.819 Y127.487 E186.25622
G1 X126.616 Y128.538 E186.44791
G1 X125.942 Y128.978 E186.5445
G1 X124.626 Y129.619 E186.72016
