;FLAVOR:UltiGCode
;TIME:607
;MATERIAL:566
;MATERIAL2:0
;NOZZLE_DIAMETER:0.4
;MINX:100.061
;MINY:100.217
;MINZ:0.3
;MAXX:122.939
;MAXY:122.783
;MAXZ:13.8
;Generated with Cura_SteamEngine 5.4.0
M82 ;absolute extrusion mode
G0 F3000 Y50 ;avoid prime blob
G92 E0
G92 E0
G10
;LAYER_COUNT:91
;LAYER:0
M107
G0 F7200 X101.953 Y102.811 Z0.3
;TYPE:SKIRT
G11
G1 F1500 X103.1 Y101.674 E0.19381
G1 X106.649 Y100.217 E0.65418
G1 X115.959 Y100.217 E1.77138
G1 X118.44 Y100.791 E2.07696
G1 X121.222 Y103.064 E2.50806
G1 X122.532 Y105.908 E2.88381
G1 X122.865 Y108.279 E3.17112
G1 X122.224 Y111.131 E3.5219
G1 X122.038 Y111.494 E3.57084
G1 X122.137 Y111.685 E3.59666
G1 X122.939 Y114.226 E3.91641
G1 X122.52 Y117.293 E4.28786
G1 X121.047 Y120.189 E4.67775
G1 X119.9 Y121.326 E4.87156
G1 X116.351 Y122.783 E5.33193
G1 X107.025 Y122.783 E6.45105
G1 X104.555 Y122.207 E6.7554
G1 X101.775 Y119.932 E7.18647
G1 X100.468 Y117.092 E7.56163
G1 X100.135 Y114.721 E7.84894
G1 X100.776 Y111.869 E8.19972
G1 X100.962 Y111.506 E8.24866
G1 X100.863 Y111.315 E8.27448
G1 X100.061 Y108.774 E8.59423
G1 X100.48 Y105.707 E8.96569
G1 X101.953 Y102.811 E9.35558
G0 F7200 X102.281 Y103.05
G1 F1500 X103.326 Y102.014 E9.53216
G1 X106.728 Y100.617 E9.97348
G1 X115.912 Y100.617 E11.07556
G1 X118.259 Y101.16 E11.36464
G1 X120.898 Y103.316 E11.77356
G1 X122.144 Y106.021 E12.13094
G1 X122.459 Y108.263 E12.40263
G1 X121.834 Y111.043 E12.74455
G1 X121.578 Y111.495 E12.80689
G1 X121.756 Y111.805 E12.84979
G1 X122.531 Y114.26 E13.15872
G1 X122.133 Y117.17 E13.51117
G1 X120.719 Y119.95 E13.88544
G1 X119.674 Y120.986 E14.06202
G1 X116.272 Y122.383 E14.50334
G1 X107.073 Y122.383 E15.60722
G1 X104.736 Y121.838 E15.89519
G1 X102.099 Y119.68 E16.30408
G1 X100.856 Y116.979 E16.66087
G1 X100.541 Y114.737 E16.93256
G1 X101.166 Y111.957 E17.27448
G1 X101.422 Y111.505 E17.33682
G1 X101.244 Y111.195 E17.37972
G1 X100.469 Y108.74 E17.68865
G1 X100.867 Y105.83 E18.0411
G1 X102.281 Y103.05 E18.41537
G0 F7200 X102.609 Y103.289
G1 F1500 X103.552 Y102.354 E18.57472
G1 X106.807 Y101.017 E18.99699
G1 X115.865 Y101.017 E20.08395
G1 X118.078 Y101.529 E20.35653
G1 X120.574 Y103.568 E20.74328
G1 X121.756 Y106.134 E21.0823
G1 X122.053 Y108.247 E21.33835
G1 X121.444 Y110.955 E21.67143
G1 X121.107 Y111.495 E21.74781
G1 X121.375 Y111.925 E21.80861
G1 X122.123 Y114.294 E22.10673
G1 X121.746 Y117.047 E22.44017
G1 X120.391 Y119.711 E22.79883
G1 X119.448 Y120.646 E22.95818
G1 X116.193 Y121.983 E23.38045
G1 X107.121 Y121.983 E24.46909
G1 X104.917 Y121.469 E24.74067
G1 X102.423 Y119.428 E25.12739
G1 X101.244 Y116.866 E25.46582
G1 X100.947 Y114.753 E25.72187
G1 X101.556 Y112.045 E26.05495
G1 X101.893 Y111.505 E26.13133
G1 X101.625 Y111.075 E26.19213
G1 X100.877 Y108.706 E26.49025
G1 X101.254 Y105.953 E26.82369
G1 X102.609 Y103.289 E27.18235
G0 F7200 X102.937 Y103.528
G1 F1500 X103.778 Y102.694 E27.32448
G1 X106.886 Y101.417 E27.72769
G1 X115.818 Y101.417 E28.79953
G1 X117.897 Y101.898 E29.0556
G1 X120.25 Y103.82 E29.42019
G1 X121.368 Y106.247 E29.74084
G1 X121.647 Y108.231 E29.98126
G1 X121.054 Y110.867 E30.30549
G1 X120.623 Y111.492 E30.39659
G1 X120.994 Y112.045 E30.4765
G1 X121.715 Y114.328 E30.7638
G1 X121.359 Y116.924 E31.07824
G1 X120.063 Y119.472 E31.42128
G1 X119.222 Y120.306 E31.56341
G1 X116.114 Y121.583 E31.96662
G1 X107.169 Y121.583 E33.04002
G1 X105.098 Y121.1 E33.29521
G1 X102.747 Y119.176 E33.65976
G1 X101.632 Y116.753 E33.97983
G1 X101.353 Y114.769 E34.22025
G1 X101.946 Y112.133 E34.54448
G1 X102.377 Y111.508 E34.63558
G1 X102.006 Y110.955 E34.71549
G1 X101.285 Y108.672 E35.00279
G1 X101.641 Y106.076 E35.31722
G1 X102.937 Y103.528 E35.66026
G0 F7200 X103.265 Y103.767
G1 F1500 X104.004 Y103.034 E35.78517
G1 X106.965 Y101.817 E36.16933
G1 X115.771 Y101.817 E37.22605
G1 X117.716 Y102.267 E37.46561
G1 X119.926 Y104.072 E37.80803
G1 X120.98 Y106.36 E38.11032
G1 X121.241 Y108.215 E38.33511
G1 X120.681 Y110.704 E38.64126
G1 X120.135 Y111.497 E38.75679
G1 X120.613 Y112.165 E38.85536
G1 X121.307 Y114.362 E39.13184
G1 X120.972 Y116.801 E39.42727
G1 X119.735 Y119.233 E39.75469
G1 X118.996 Y119.966 E39.8796
G1 X116.035 Y121.183 E40.26376
G1 X107.217 Y121.183 E41.32192
G1 X105.279 Y120.731 E41.56072
G1 X103.071 Y118.924 E41.9031
G1 X102.02 Y116.64 E42.2048
G1 X101.759 Y114.785 E42.4296
G1 X102.319 Y112.296 E42.73574
G1 X102.865 Y111.503 E42.85128
G1 X102.387 Y110.835 E42.94985
G1 X101.693 Y108.638 E43.22633
G1 X102.028 Y106.199 E43.52175
G1 X103.265 Y103.767 E43.84918
G0 F7200 X103.591 Y104.008
G1 F1500 X104.23 Y103.374 E43.95719
G1 X107.044 Y102.217 E44.3223
G1 X115.724 Y102.217 E45.3639
G1 X117.535 Y102.636 E45.58696
G1 X119.602 Y104.324 E45.9072
G1 X120.592 Y106.473 E46.19113
G1 X120.835 Y108.199 E46.4003
G1 X120.308 Y110.541 E46.68836
G1 X119.647 Y111.501 E46.82823
G1 X120.251 Y112.346 E46.95287
G1 X120.899 Y114.397 E47.21098
G1 X120.585 Y116.681 E47.48764
G1 X119.409 Y118.992 E47.7988
G1 X118.77 Y119.626 E47.90682
G1 X115.956 Y120.783 E48.27193
G1 X107.265 Y120.783 E49.31485
G1 X105.46 Y120.362 E49.53726
G1 X103.395 Y118.672 E49.85747
G1 X102.408 Y116.527 E50.14081
G1 X102.165 Y114.801 E50.34997
G1 X102.692 Y112.459 E50.63804
G1 X103.353 Y111.499 E50.77791
G1 X102.749 Y110.654 E50.90255
G1 X102.101 Y108.603 E51.16066
G1 X102.415 Y106.319 E51.43732
G1 X103.591 Y104.008 E51.74848
G0 F7200 X103.917 Y104.249
G1 F1500 X104.456 Y103.714 E51.83961
G1 X107.123 Y102.617 E52.18567
G1 X115.677 Y102.617 E53.21215
G1 X117.354 Y103.005 E53.4187
G1 X119.278 Y104.576 E53.71677
G1 X120.204 Y106.586 E53.98234
G1 X120.429 Y108.183 E54.17587
G1 X119.935 Y110.378 E54.44586
G1 X119.158 Y111.505 E54.61013
G1 X119.889 Y112.527 E54.76091
G1 X120.491 Y114.432 E55.00065
G1 X120.198 Y116.561 E55.25854
G1 X119.083 Y118.751 E55.55344
G1 X118.544 Y119.286 E55.64457
G1 X115.877 Y120.383 E55.99063
G1 X107.313 Y120.383 E57.01831
G1 X105.641 Y119.993 E57.22434
G1 X103.719 Y118.42 E57.52237
G1 X102.796 Y116.414 E57.78735
G1 X102.571 Y114.817 E57.98088
G1 X103.065 Y112.622 E58.25087
G1 X103.842 Y111.495 E58.41514
G1 X103.111 Y110.473 E58.56592
G1 X102.509 Y108.568 E58.80566
G1 X102.802 Y106.439 E59.06355
G1 X103.917 Y104.249 E59.35845
G0 F7200 X104.608 Y104.084
G1 F1500 X107.202 Y103.017 E59.69504
G1 X115.63 Y103.017 E60.7064
G1 X117.173 Y103.374 E60.89645
G1 X118.954 Y104.828 E61.17234
G1 X119.816 Y106.699 E61.41955
G1 X120.023 Y108.167 E61.59745
G1 X119.562 Y110.215 E61.84936
G1 X118.67 Y111.509 E62.03796
G1 X119.528 Y112.709 E62.21498
G1 X120.083 Y114.466 E62.43609
G1 X119.811 Y116.441 E62.67533
G1 X118.727 Y118.57 E62.96202
G1 X118.392 Y118.916 E63.01981
G1 X115.798 Y119.983 E63.35639
G1 X107.361 Y119.983 E64.36883
G1 X105.822 Y119.624 E64.55847
G1 X104.043 Y118.168 E64.83433
G1 X103.184 Y116.301 E65.08095
G1 X102.977 Y114.833 E65.25885
G1 X103.438 Y112.785 E65.51076
G1 X104.33 Y111.491 E65.69936
G1 X103.472 Y110.291 E65.87638
G1 X102.917 Y108.534 E66.09749
G1 X103.189 Y106.559 E66.33673
G1 X104.273 Y104.43 E66.62342
G1 X104.608 Y104.084 E66.68121
G0 F7200 X104.76 Y104.454
G1 F1500 X107.281 Y103.417 E67.00832
G1 X115.583 Y103.417 E68.00456
G1 X116.992 Y103.743 E68.17811
G1 X118.63 Y105.08 E68.43184
G1 X119.428 Y106.812 E68.66068
G1 X119.617 Y108.151 E68.82295
G1 X119.189 Y110.052 E69.05678
G1 X118.182 Y111.513 E69.26971
G1 X119.167 Y112.891 E69.47297
G1 X119.675 Y114.5 E69.67545
G1 X119.424 Y116.32 E69.89591
G1 X118.371 Y118.388 E70.17439
G1 X118.24 Y118.546 E70.19902
G1 X115.719 Y119.583 E70.52613
G1 X107.409 Y119.583 E71.52333
G1 X106.003 Y119.255 E71.69658
G1 X104.367 Y117.916 E71.95028
G1 X103.572 Y116.188 E72.17853
G1 X103.383 Y114.849 E72.3408
G1 X103.811 Y112.948 E72.57463
G1 X104.818 Y111.487 E72.78756
G1 X103.833 Y110.109 E72.99082
G1 X103.325 Y108.5 E73.1933
G1 X103.576 Y106.68 E73.41377
G1 X104.629 Y104.612 E73.69224
G1 X104.76 Y104.454 E73.71687
G0 F7200 X104.985 Y104.794
G1 F1500 X107.36 Y103.817 E74.02505
G1 X115.536 Y103.817 E75.00617
G1 X116.811 Y104.112 E75.16321
G1 X118.306 Y105.332 E75.39476
G1 X119.04 Y106.925 E75.60524
G1 X119.211 Y108.135 E75.75188
G1 X118.816 Y109.889 E75.96763
G1 X117.694 Y111.517 E76.2049
G1 X118.806 Y113.073 E76.4344
G1 X119.267 Y114.534 E76.61824
G1 X119.037 Y116.199 E76.81993
G1 X118.015 Y118.206 E77.0902
G1 X115.64 Y119.183 E77.39837
G1 X107.457 Y119.183 E78.38033
G1 X106.184 Y118.886 E78.5372
G1 X104.691 Y117.664 E78.76872
G1 X103.96 Y116.075 E78.97861
G1 X103.789 Y114.865 E79.12525
G1 X104.184 Y113.111 E79.341
G1 X105.306 Y111.483 E79.57826
G1 X104.194 Y109.927 E79.80776
G1 X103.733 Y108.466 E79.9916
G1 X103.963 Y106.801 E80.1933
G1 X104.985 Y104.794 E80.46357
G0 F7200 X105.273 Y105.108
G1 F1500 X107.439 Y104.217 E80.74462
G1 X115.489 Y104.217 E81.71062
G1 X116.63 Y104.481 E81.85116
G1 X117.982 Y105.584 E82.06054
G1 X118.652 Y107.038 E82.25265
G1 X118.805 Y108.119 E82.38367
G1 X118.443 Y109.726 E82.58134
G1 X117.206 Y111.521 E82.84293
G1 X118.445 Y113.256 E83.09877
G1 X118.859 Y114.568 E83.26386
G1 X118.65 Y116.079 E83.44691
G1 X117.727 Y117.892 E83.69104
G1 X115.561 Y118.783 E83.97209
G1 X107.505 Y118.783 E84.93881
G1 X106.365 Y118.517 E85.07929
G1 X105.015 Y117.412 E85.28864
G1 X104.348 Y115.962 E85.48016
G1 X104.195 Y114.881 E85.61118
G1 X104.557 Y113.274 E85.80885
G1 X105.794 Y111.479 E86.07044
G1 X104.555 Y109.744 E86.32628
G1 X104.141 Y108.432 E86.49137
G1 X104.35 Y106.921 E86.67442
G1 X105.273 Y105.108 E86.91855
G0 F7200 X105.561 Y105.422
G1 F1500 X107.518 Y104.617 E87.17248
G1 X115.442 Y104.617 E88.12336
G1 X116.449 Y104.85 E88.24739
G1 X117.658 Y105.836 E88.4346
G1 X118.264 Y107.151 E88.60835
G1 X118.399 Y108.103 E88.72374
G1 X118.07 Y109.563 E88.90333
G1 X116.718 Y111.525 E89.18926
G1 X118.083 Y113.436 E89.47107
G1 X118.451 Y114.602 E89.61779
G1 X118.263 Y115.959 E89.78219
G1 X117.439 Y117.578 E90.00018
G1 X115.482 Y118.383 E90.25411
G1 X107.553 Y118.383 E91.20559
G1 X106.546 Y118.148 E91.32968
G1 X105.339 Y117.16 E91.51686
G1 X104.736 Y115.849 E91.69002
G1 X104.601 Y114.897 E91.8054
G1 X104.93 Y113.437 E91.985
G1 X106.282 Y111.475 E92.27092
G1 X104.917 Y109.564 E92.55274
G1 X104.549 Y108.398 E92.69946
G1 X104.737 Y107.041 E92.86385
G1 X105.561 Y105.422 E93.08185
G0 F7200 X105.851 Y105.735
G1 F1500 X107.597 Y105.017 E93.30839
G1 X115.395 Y105.017 E94.24415
G1 X116.268 Y105.219 E94.35168
G1 X117.334 Y106.088 E94.51672
G1 X117.876 Y107.264 E94.67211
G1 X117.993 Y108.087 E94.77186
G1 X117.697 Y109.4 E94.93337
G1 X116.23 Y111.53 E95.24373
G1 X117.722 Y113.619 E95.55178
G1 X118.043 Y114.636 E95.67976
G1 X117.876 Y115.836 E95.82515
G1 X117.149 Y117.265 E96.01754
G1 X115.403 Y117.983 E96.24409
G1 X107.601 Y117.983 E97.18033
G1 X106.727 Y117.779 E97.28802
G1 X105.663 Y116.908 E97.45303
G1 X105.124 Y115.736 E97.60783
G1 X105.007 Y114.913 E97.70758
G1 X105.303 Y113.6 E97.8691
G1 X106.77 Y111.47 E98.17945
G1 X105.278 Y109.381 E98.48751
G1 X104.957 Y108.364 E98.61548
G1 X105.124 Y107.164 E98.76087
G1 X105.851 Y105.735 E98.95326
G0 F7200 X106.141 Y106.048
G1 F1500 X107.676 Y105.417 E99.15242
G1 X115.348 Y105.417 E100.07306
G1 X116.087 Y105.588 E100.16408
G1 X117.01 Y106.34 E100.30695
G1 X117.513 Y107.431 E100.45111
G1 X117.587 Y108.07 E100.52831
G1 X117.324 Y109.237 E100.67186
G1 X115.742 Y111.534 E101.00655
G1 X117.359 Y113.799 E101.3405
G1 X117.634 Y114.672 E101.45034
G1 X117.489 Y115.713 E101.57647
G1 X116.859 Y116.952 E101.74326
G1 X115.324 Y117.583 E101.94242
G1 X107.649 Y117.583 E102.86342
G1 X106.906 Y117.41 E102.95496
G1 X105.988 Y116.658 E103.09737
G1 X105.487 Y115.569 E103.24121
G1 X105.413 Y114.93 E103.3184
G1 X105.676 Y113.763 E103.46196
G1 X107.258 Y111.466 E103.79665
G1 X105.641 Y109.201 E104.1306
G1 X105.366 Y108.328 E104.24044
G1 X105.511 Y107.287 E104.36656
G1 X106.141 Y106.048 E104.53336
G0 F7200 X106.431 Y106.361
G1 F1500 X107.755 Y105.817 E104.70513
G1 X115.348 Y105.817 E105.61629
G1 X115.907 Y105.957 E105.68544
G1 X116.686 Y106.591 E105.80597
G1 X117.126 Y107.547 E105.93225
G1 X117.197 Y107.982 E105.98514
G1 X116.951 Y109.074 E106.11947
G1 X115.262 Y111.525 E106.47666
G1 X115.783 Y112.28 E106.58674
G1 X116.998 Y113.982 E106.83768
G1 X117.226 Y114.705 E106.92865
G1 X117.102 Y115.59 E107.03589
G1 X116.569 Y116.639 E107.17708
G1 X115.245 Y117.183 E107.34885
G1 X107.649 Y117.183 E108.26037
G1 X107.086 Y117.041 E108.33005
G1 X106.313 Y116.408 E108.44994
G1 X105.874 Y115.453 E108.57607
G1 X105.803 Y115.018 E108.62896
G1 X106.049 Y113.926 E108.76328
G1 X107.738 Y111.475 E109.12048
G1 X107.217 Y110.72 E109.23055
G1 X106.002 Y109.018 E109.4815
G1 X105.774 Y108.295 E109.57247
G1 X105.898 Y107.41 E109.6797
G1 X106.431 Y106.361 E109.8209
G0 F7200 X106.721 Y106.674
G1 F1500 X107.834 Y106.217 E109.96528
G1 X115.348 Y106.217 E110.86696
G1 X115.725 Y106.324 E110.91399
G1 X116.362 Y106.842 E111.01251
G1 X116.763 Y107.714 E111.12769
G1 X116.79 Y107.969 E111.15846
G1 X116.578 Y108.911 E111.27433
G1 X114.776 Y111.525 E111.65532
G1 X115.457 Y112.512 E111.79921
G1 X116.672 Y114.214 E112.05015
G1 X116.818 Y114.738 E112.11543
G1 X116.715 Y115.467 E112.20378
G1 X116.279 Y116.326 E112.31938
G1 X115.166 Y116.783 E112.46376
G1 X107.649 Y116.783 E113.3658
G1 X107.27 Y116.675 E113.41309
G1 X106.637 Y116.156 E113.51132
G1 X106.237 Y115.286 E113.62622
G1 X106.21 Y115.031 E113.65699
G1 X106.422 Y114.089 E113.77286
G1 X108.224 Y111.475 E114.15385
G1 X107.543 Y110.488 E114.29775
G1 X106.328 Y108.786 E114.54869
G1 X106.182 Y108.262 E114.61396
G1 X106.285 Y107.533 E114.70231
G1 X106.721 Y106.674 E114.81791
G0 F7200 X107.011 Y106.987
G1 F1500 X107.913 Y106.617 E114.9349
G1 X115.348 Y106.617 E115.8271
G1 X115.595 Y106.702 E115.85845
G1 X116.038 Y107.094 E115.92943
G1 X116.4 Y107.881 E116.03339
G1 X116.205 Y108.748 E116.14002
G1 X114.789 Y110.801 E116.4393
G1 X114.281 Y111.513 E116.54426
G1 X115.131 Y112.744 E116.72377
G1 X116.346 Y114.446 E116.97471
G1 X116.42 Y114.696 E117.006
G1 X116.358 Y115.286 E117.07719
G1 X115.989 Y116.013 E117.17502
G1 X115.087 Y116.383 E117.29202
G1 X107.649 Y116.383 E118.18458
G1 X107.401 Y116.297 E118.21608
G1 X106.961 Y115.905 E118.28679
G1 X106.6 Y115.119 E118.39058
G1 X106.795 Y114.252 E118.49722
G1 X108.211 Y112.199 E118.7965
G1 X108.719 Y111.487 E118.90146
G1 X107.869 Y110.256 E119.08097
G1 X106.654 Y108.554 E119.33191
G1 X106.58 Y108.304 E119.3632
G1 X106.642 Y107.714 E119.43439
G1 X107.011 Y106.987 E119.53222
G0 F7200 X107.301 Y107.3
G1 F1500 X107.992 Y107.017 E119.62183
G1 X115.348 Y107.017 E120.50455
G1 X115.684 Y107.28 E120.55575
G1 X115.993 Y107.869 E120.63557
G1 X115.832 Y108.585 E120.72363
G1 X114.463 Y110.569 E121.01289
G1 X113.792 Y111.509 E121.15148
G1 X114.805 Y112.976 E121.36541
G1 X116.02 Y114.678 E121.61635
G1 X116.001 Y115.105 E121.66764
G1 X115.699 Y115.7 E121.74771
G1 X115.008 Y115.983 E121.83732
G1 X107.649 Y115.983 E122.7204
G1 X107.315 Y115.719 E122.77149
G1 X107.007 Y115.131 E122.85114
G1 X107.168 Y114.415 E122.93921
G1 X108.537 Y112.431 E123.22846
G1 X109.208 Y111.491 E123.36705
G1 X108.195 Y110.024 E123.58099
G1 X106.98 Y108.322 E123.83193
G1 X106.999 Y107.895 E123.88322
G1 X107.301 Y107.3 E123.96329
G0 F7200 X107.833 Y107.896
G1 F1500 X107.992 Y107.817 E123.98459
G1 X115.1 Y107.817 E124.83755
G1 X115.2 Y107.958 E124.8583
G1 X115.174 Y108.131 E124.87929
G1 X113.812 Y110.104 E125.16698
G1 X112.814 Y111.501 E125.37301
G1 X114.153 Y113.44 E125.65578
G1 X115.224 Y114.941 E125.87705
G1 X115.167 Y115.104 E125.89777
G1 X115.008 Y115.183 E125.91907
G1 X107.9 Y115.183 E126.77203
G1 X107.8 Y115.042 E126.79278
G1 X107.826 Y114.869 E126.81377
G1 X109.188 Y112.896 E127.10146
G1 X110.186 Y111.499 E127.30749
G1 X108.847 Y109.56 E127.59026
G1 X107.776 Y108.059 E127.81153
G1 X107.833 Y107.896 E127.83225
G0 F7200 X107.55 Y107.613
G1 F1500 X107.992 Y107.417 E127.89027
G1 X115.226 Y107.417 E128.75835
G1 X115.426 Y107.586 E128.78977
G1 X115.594 Y107.891 E128.83156
G1 X115.503 Y108.358 E128.88865
G1 X114.137 Y110.337 E129.17721
G1 X113.303 Y111.505 E129.34943
G1 X114.479 Y113.208 E129.59778
G1 X115.623 Y114.811 E129.8341
G1 X115.602 Y115.073 E129.86565
G1 X115.45 Y115.387 E129.90751
G1 X115.008 Y115.583 E129.96553
G1 X107.773 Y115.583 E130.83373
