;FLAVOR:UltiGCode
;TIME:681
;MATERIAL:230
;MATERIAL2:0
;NOZZLE_DIAMETER:0.4
;MINX:101.295
;MINY:102.861
;MINZ:0.3
;MAXX:121.705
;MAXY:120.139
;MAXZ:16.05
;Generated with Cura_SteamEngine 5.4.0
M82 ;absolute extrusion mode
G0 F3000 Y50 ;avoid prime blob
G92 E0
G92 E0
G10
;LAYER_COUNT:106
;LAYER:0
M107
G0 F7200 X102.385 Y106.358 Z0.3
;TYPE:SKIRT
G11
G1 F450 X104.952 Y103.865 E0.4294
G1 X108.024 Y102.862 E0.81719
G1 X114.902 Y102.861 E1.64255
G1 X116.996 Y103.321 E1.89982
G1 X118.664 Y104.433 E2.14039
G1 X120.706 Y106.539 E2.4924
G1 X121.705 Y109.618 E2.88084
G1 X121.705 Y113.317 E3.32472
G1 X121.285 Y115.245 E3.56151
G1 X120.175 Y117.065 E3.81732
G1 X118.027 Y119.149 E4.17646
G1 X114.976 Y120.138 E4.56133
G1 X108.124 Y120.139 E5.38357
G1 X106.188 Y119.719 E5.6213
G1 X104.368 Y118.609 E5.87711
G1 X102.286 Y116.463 E6.23591
G1 X101.295 Y113.406 E6.62154
G1 X101.295 Y109.292 E7.11522
G1 X102.185 Y106.674 E7.44704
G1 X102.385 Y106.358 E7.49192
G0 F7200 X102.664 Y106.645
G1 F450 X105.165 Y104.216 E7.91029
G1 X108.087 Y103.262 E8.27914
G1 X114.857 Y103.261 E9.09154
G1 X116.837 Y103.696 E9.33481
G1 X118.409 Y104.744 E9.56152
G1 X120.355 Y106.751 E9.89699
G1 X121.305 Y109.679 E10.26638
G1 X121.305 Y113.273 E10.69766
G1 X120.908 Y115.096 E10.92155
G1 X119.862 Y116.811 E11.1626
G1 X117.815 Y118.797 E11.50485
G1 X114.912 Y119.738 E11.87106
G1 X108.167 Y119.739 E12.68046
G1 X106.337 Y119.342 E12.90517
G1 X104.622 Y118.296 E13.14623
G1 X102.638 Y116.251 E13.48814
G1 X101.695 Y113.342 E13.8551
G1 X101.695 Y109.359 E14.33306
G1 X102.564 Y106.803 E14.65702
G1 X102.664 Y106.645 E14.67946
G0 F7200 X102.943 Y106.932
G1 F450 X105.378 Y104.567 E15.0868
G1 X108.15 Y103.662 E15.43672
G1 X114.812 Y103.661 E16.23616
G1 X116.678 Y104.071 E16.46542
G1 X118.154 Y105.055 E16.67829
G1 X120.004 Y106.963 E16.9972
G1 X120.905 Y109.74 E17.34755
G1 X120.905 Y113.229 E17.76623
G1 X120.531 Y114.947 E17.97721
G1 X119.549 Y116.557 E18.20352
G1 X117.603 Y118.445 E18.52888
G1 X114.848 Y119.338 E18.87641
G1 X108.21 Y119.339 E19.67297
G1 X106.486 Y118.965 E19.88466
G1 X104.876 Y117.983 E20.11097
G1 X102.99 Y116.039 E20.43599
G1 X102.095 Y113.278 E20.78428
G1 X102.095 Y109.426 E21.24652
G1 X102.943 Y106.932 E21.56263
G0 F7200 X103.291 Y107.152
G1 F450 X105.591 Y104.918 E21.94739
G1 X108.213 Y104.062 E22.27838
G1 X114.767 Y104.061 E23.06486
G1 X116.519 Y104.446 E23.28011
G1 X117.899 Y105.366 E23.47914
G1 X119.653 Y107.175 E23.7815
G1 X120.505 Y109.801 E24.1128
G1 X120.505 Y113.185 E24.51888
G1 X120.154 Y114.798 E24.71697
G1 X119.236 Y116.303 E24.92851
G1 X117.391 Y118.093 E25.23699
G1 X114.784 Y118.938 E25.56585
G1 X108.253 Y118.939 E26.34957
G1 X106.635 Y118.588 E26.54825
G1 X105.13 Y117.67 E26.75979
G1 X103.342 Y115.827 E27.06793
G1 X102.495 Y113.214 E27.39755
G1 X102.495 Y109.493 E27.84407
G1 X103.291 Y107.152 E28.14078
G0 F7200 X103.639 Y107.372
G1 F450 X105.804 Y105.269 E28.50297
G1 X108.276 Y104.462 E28.81502
G1 X114.722 Y104.461 E29.58854
G1 X116.36 Y104.821 E29.78979
G1 X117.644 Y105.677 E29.97497
G1 X119.302 Y107.387 E30.26079
G1 X120.105 Y109.862 E30.57303
G1 X120.105 Y113.141 E30.96651
G1 X119.777 Y114.649 E31.1517
G1 X118.923 Y116.049 E31.34849
G1 X117.179 Y117.741 E31.64008
G1 X114.72 Y118.538 E31.95027
G1 X108.296 Y118.539 E32.72115
G1 X106.784 Y118.211 E32.90681
G1 X105.384 Y117.357 E33.1036
G1 X103.694 Y115.615 E33.39485
G1 X102.895 Y113.15 E33.7058
G1 X102.895 Y109.56 E34.1366
G1 X103.639 Y107.372 E34.41393
G0 F7200 X103.987 Y107.592
G1 F450 X106.017 Y105.62 E34.75354
G1 X108.339 Y104.862 E35.04665
G1 X114.677 Y104.861 E35.80721
G1 X116.201 Y105.196 E35.99446
G1 X117.389 Y105.988 E36.1658
G1 X118.951 Y107.599 E36.43507
G1 X119.705 Y109.923 E36.72826
G1 X119.705 Y113.097 E37.10914
G1 X119.4 Y114.5 E37.28143
G1 X118.61 Y115.795 E37.46346
G1 X116.966 Y117.39 E37.73833
G1 X114.659 Y118.138 E38.02936
G1 X108.339 Y118.139 E38.78776
G1 X106.933 Y117.834 E38.9604
G1 X105.638 Y117.044 E39.14244
G1 X104.046 Y115.403 E39.4168
G1 X103.295 Y113.086 E39.70908
G1 X103.295 Y109.627 E40.12416
G1 X103.987 Y107.592 E40.38209
G0 F7200 X104.335 Y107.812
G1 F450 X106.23 Y105.971 E40.69913
G1 X108.402 Y105.262 E40.97331
G1 X114.632 Y105.261 E41.72091
G1 X116.042 Y105.571 E41.89415
G1 X117.134 Y106.299 E42.05164
G1 X118.6 Y107.811 E42.30436
G1 X119.305 Y109.984 E42.5785
G1 X119.305 Y113.053 E42.94678
G1 X119.023 Y114.351 E43.10618
G1 X118.297 Y115.541 E43.27345
G1 X116.754 Y117.038 E43.53144
G1 X114.595 Y117.738 E43.80379
G1 X108.382 Y117.739 E44.54935
G1 X107.082 Y117.457 E44.70898
G1 X105.892 Y116.731 E44.87626
G1 X104.398 Y115.191 E45.13373
G1 X103.695 Y113.022 E45.40734
G1 X103.695 Y109.694 E45.8067
G1 X104.335 Y107.812 E46.04524
G0 F7200 X104.683 Y108.032
G1 F450 X106.443 Y106.322 E46.33971
G1 X108.465 Y105.662 E46.59495
G1 X114.587 Y105.661 E47.32959
G1 X115.883 Y105.946 E47.48883
G1 X116.879 Y106.61 E47.63247
G1 X118.249 Y108.023 E47.86865
G1 X118.905 Y110.045 E48.12374
G1 X118.905 Y113.009 E48.47942
G1 X118.646 Y114.202 E48.62591
G1 X117.984 Y115.287 E48.77843
G1 X116.542 Y116.686 E49.01953
G1 X114.531 Y117.338 E49.27321
G1 X108.425 Y117.339 E50.00593
G1 X107.231 Y117.08 E50.15255
G1 X106.146 Y116.418 E50.30507
G1 X104.75 Y114.979 E50.54565
G1 X104.095 Y112.958 E50.80059
G1 X104.095 Y109.761 E51.18423
G1 X104.683 Y108.032 E51.40338
G0 F7200 X105.031 Y108.252
G1 F450 X106.656 Y106.673 E51.67528
G1 X108.528 Y106.062 E51.91158
G1 X114.542 Y106.061 E52.63326
G1 X115.724 Y106.321 E52.77849
G1 X116.624 Y106.921 E52.90829
G1 X117.898 Y108.235 E53.12792
G1 X118.505 Y110.106 E53.36396
G1 X118.505 Y112.965 E53.70704
G1 X118.269 Y114.053 E53.84063
G1 X117.671 Y115.033 E53.9784
G1 X116.33 Y116.334 E54.20261
G1 X114.467 Y116.938 E54.43762
G1 X108.468 Y116.939 E55.1575
G1 X107.38 Y116.703 E55.2911
G1 X106.4 Y116.105 E55.42886
G1 X105.102 Y114.767 E55.65256
G1 X104.495 Y112.894 E55.88883
G1 X104.495 Y109.828 E56.25675
G1 X105.031 Y108.252 E56.45651
G0 F7200 X105.379 Y108.472
G1 F450 X106.869 Y107.024 E56.70583
G1 X108.591 Y106.462 E56.9232
G1 X114.497 Y106.461 E57.63192
G1 X115.565 Y106.696 E57.76314
G1 X116.369 Y107.232 E57.8791
G1 X117.547 Y108.447 E58.08217
G1 X118.105 Y110.167 E58.29916
G1 X118.105 Y112.921 E58.62964
G1 X117.892 Y113.902 E58.75011
G1 X117.356 Y114.781 E58.87365
G1 X116.118 Y115.982 E59.08063
G1 X114.403 Y116.538 E59.29698
G1 X108.512 Y116.539 E60.0039
G1 X107.531 Y116.326 E60.12436
G1 X106.652 Y115.79 E60.2479
G1 X105.453 Y114.554 E60.45454
G1 X104.895 Y112.833 E60.67165
G1 X104.895 Y109.895 E61.02421
G1 X105.379 Y108.472 E61.20457
G0 F7200 X105.727 Y108.692
G1 F450 X107.082 Y107.375 E61.43132
G1 X108.654 Y106.862 E61.62975
G1 X114.452 Y106.861 E62.32551
G1 X115.406 Y107.071 E62.44273
G1 X116.114 Y107.543 E62.54484
G1 X117.196 Y108.659 E62.73137
G1 X117.705 Y110.228 E62.92931
G1 X117.705 Y112.877 E63.24719
G1 X117.515 Y113.751 E63.35452
G1 X117.041 Y114.529 E63.46384
G1 X115.905 Y115.631 E63.65377
G1 X114.342 Y116.138 E63.85095
G1 X108.556 Y116.139 E64.54527
G1 X107.682 Y115.949 E64.6526
G1 X106.904 Y115.475 E64.76192
G1 X105.804 Y114.341 E64.9515
G1 X105.295 Y112.772 E65.14944
G1 X105.295 Y109.962 E65.48664
G1 X105.727 Y108.692 E65.64762
G0 F7200 X106.075 Y108.912
G1 F450 X107.295 Y107.726 E65.8518
G1 X108.717 Y107.262 E66.03129
G1 X114.407 Y107.261 E66.71409
G1 X115.247 Y107.446 E66.81731
G1 X115.859 Y107.854 E66.90557
G1 X116.845 Y108.871 E67.07555
G1 X117.305 Y110.289 E67.25444
G1 X117.305 Y112.833 E67.55972
G1 X117.138 Y113.6 E67.65392
G1 X116.724 Y114.28 E67.74945
G1 X115.693 Y115.28 E67.92181
G1 X114.281 Y115.738 E68.09994
G1 X108.6 Y115.739 E68.78166
G1 X107.833 Y115.572 E68.87585
G1 X107.153 Y115.158 E68.97139
G1 X106.155 Y114.129 E69.1434
G1 X105.695 Y112.711 E69.32229
G1 X105.695 Y110.029 E69.64413
G1 X106.075 Y108.912 E69.78572
G0 F7200 X106.423 Y109.132
G1 F450 X107.508 Y108.077 E69.96732
G1 X108.78 Y107.662 E70.12788
G1 X114.362 Y107.661 E70.79772
G1 X115.088 Y107.821 E70.88693
G1 X115.604 Y108.165 E70.96135
G1 X116.494 Y109.083 E71.11478
G1 X116.905 Y110.35 E71.27462
G1 X116.905 Y112.789 E71.5673
G1 X116.761 Y113.449 E71.64836
G1 X116.407 Y114.031 E71.73011
G1 X115.482 Y114.928 E71.88473
G1 X114.219 Y115.338 E72.04407
G1 X108.644 Y115.339 E72.71307
G1 X107.984 Y115.195 E72.79414
G1 X107.402 Y114.841 E72.87588
G1 X106.506 Y113.917 E73.03033
G1 X106.095 Y112.65 E73.19017
G1 X106.095 Y110.096 E73.49665
G1 X106.423 Y109.132 E73.61884
G0 F7200 X106.771 Y109.352
G1 F450 X107.721 Y108.428 E73.77787
G1 X108.843 Y108.062 E73.91949
G1 X114.317 Y108.061 E74.57637
G1 X114.929 Y108.196 E74.65158
G1 X115.349 Y108.476 E74.71215
G1 X116.143 Y109.295 E74.84904
G1 X116.505 Y110.411 E74.98983
G1 X116.505 Y112.745 E75.26991
G1 X116.384 Y113.298 E75.33784
G1 X116.09 Y113.782 E75.40579
G1 X115.271 Y114.576 E75.54268
G1 X114.157 Y114.938 E75.68324
G1 X108.688 Y114.939 E76.33952
G1 X108.135 Y114.818 E76.40745
G1 X107.651 Y114.524 E76.4754
G1 X106.857 Y113.705 E76.61229
G1 X106.495 Y112.589 E76.75308
G1 X106.495 Y110.163 E77.0442
G1 X106.771 Y109.352 E77.147
G0 F7200 X107.119 Y109.572
G1 F450 X107.934 Y108.779 E77.28345
G1 X108.906 Y108.462 E77.40614
G1 X114.272 Y108.461 E78.05006
G1 X114.772 Y108.571 E78.11149
G1 X115.062 Y108.754 E78.15264
G1 X115.791 Y109.506 E78.27833
G1 X116.105 Y110.473 E78.40033
G1 X116.105 Y112.745 E78.67297
G1 X115.995 Y113.205 E78.72973
G1 X115.812 Y113.495 E78.77088
G1 X115.06 Y114.224 E78.89656
G1 X114.094 Y114.538 E79.01845
G1 X108.688 Y114.539 E79.66717
G1 X108.228 Y114.429 E79.72393
G1 X107.938 Y114.246 E79.76507
G1 X107.209 Y113.494 E79.89076
G1 X106.895 Y112.527 E80.01276
G1 X106.895 Y110.23 E80.2884
G1 X107.119 Y109.572 E80.37181
G0 F7200 X107.467 Y109.792
G1 F450 X108.147 Y109.13 E80.48569
G1 X108.969 Y108.862 E80.58944
G1 X114.272 Y108.861 E81.2258
G1 X114.576 Y108.92 E81.26296
G1 X114.775 Y109.032 E81.29037
G1 X115.439 Y109.717 E81.40485
G1 X115.705 Y110.535 E81.50807
G1 X115.705 Y112.705 E81.76847
G1 X115.646 Y113.009 E81.80563
G1 X115.534 Y113.208 E81.83303
G1 X114.849 Y113.872 E81.94751
G1 X114.031 Y114.138 E82.05073
G1 X108.728 Y114.139 E82.68709
G1 X108.424 Y114.08 E82.72425
G1 X108.225 Y113.968 E82.75165
G1 X107.561 Y113.283 E82.86613
G1 X107.295 Y112.465 E82.96935
G1 X107.295 Y110.297 E83.22951
G1 X107.467 Y109.792 E83.29353
G0 F7200 X107.746 Y110.079
G1 F450 X108.36 Y109.481 E83.39638
G1 X109.032 Y109.262 E83.4812
G1 X114.272 Y109.261 E84.11
G1 X114.488 Y109.31 E84.13657
G1 X115.087 Y109.928 E84.23985
G1 X115.305 Y110.598 E84.3244
G1 X115.305 Y112.705 E84.57724
G1 X115.256 Y112.921 E84.60382
G1 X114.638 Y113.52 E84.7071
G1 X113.968 Y113.738 E84.79165
G1 X108.728 Y113.739 E85.42045
G1 X108.512 Y113.69 E85.44703
G1 X107.913 Y113.072 E85.5503
G1 X107.695 Y112.402 E85.63485
G1 X107.695 Y110.297 E85.88745
G1 X107.746 Y110.079 E85.91432
G0 F7200 X108.095 Y110.297
G1 F450 X108.573 Y109.832 E85.99434
G1 X109.095 Y109.662 E86.06022
G1 X114.272 Y109.661 E86.68146
G1 X114.735 Y110.139 E86.76132
G1 X114.905 Y110.661 E86.8272
G1 X114.905 Y112.705 E87.07248
G1 X114.427 Y113.168 E87.15233
G1 X113.905 Y113.338 E87.21821
G1 X108.728 Y113.339 E87.83945
G1 X108.265 Y112.861 E87.91931
G1 X108.095 Y112.339 E87.98519
G1 X108.095 Y110.297 E88.23023
G0 F7200 X108.895 Y110.563
G1 F450 X109.095 Y110.462 E88.25711
G1 X114.004 Y110.461 E88.84619
G1 X114.105 Y110.661 E88.87308
G1 X114.105 Y112.437 E89.0862
G1 X113.905 Y112.538 E89.11309
G1 X108.996 Y112.539 E89.70217
G1 X108.895 Y112.339 E89.72905
G1 X108.895 Y110.563 E89.94217
G0 F7200 X108.715 Y110.206
G1 F450 X109.095 Y110.062 E89.99094
G1 X114.137 Y110.061 E90.59598
G1 X114.361 Y110.281 E90.63365
G1 X114.505 Y110.661 E90.68242
G1 X114.505 Y112.57 E90.9115
G1 X114.285 Y112.794 E90.94917
G1 X113.905 Y112.938 E90.99794
G1 X108.863 Y112.939 E91.60298
G1 X108.639 Y112.719 E91.64065
G1 X108.495 Y112.339 E91.68942
G1 X108.495 Y110.431 E91.91838
G1 X108.715 Y110.206 E91.95614
G10
;MESH:2 entretoises de couronne Z30.STL
G0 F7200 X109.509 Y111.076
G0 X109.295 Y112.139
;TYPE:WALL-OUTER
G11
G1 F450 X113.705 Y112.138 E92.53826
G1 X113.705 Y110.862 E92.70669
G1 X109.295 Y110.862 E93.28881
G1 X109.295 Y112.139 E93.45738
G0 F7200 X109.495 Y112.139
G0 X109.714 Y111.72
;TYPE:WALL-INNER
G1 F407.1 X113.286 Y111.719 E93.90327
G1 X113.286 Y111.281 E93.95794
G1 X109.714 Y111.281 E94.40384
G1 F406 X109.714 Y111.72 E94.45876
;MESH:NONMESH
G0 F600 X109.714 Y111.72 Z0.45
G0 F7200 X109.965 Y111.469
G0 X110.284 Y110.829
;TIME_ELAPSED:109.324346
;LAYER:1
M106 S255
;TYPE:FILL
;MESH:2 entretoises de couronne Z30.STL
G1 F283.4 X109.775 Y111.338 E94.50195
G0 F7200 X109.915 Y111.338
G0 X110.828 Y112.03
G0 X110.828 Y112.17
G1 F283.4 X112.169 Y110.829 E94.61574
G1 X112.239 Y110.759
G0 F7200 X112.239 Y110.97
G0 X113.085 Y111.659
G0 X113.224 Y111.659
G1 F283.4 X112.713 Y112.17 E94.6591
G0 F7200 X112.713 Y112.03
G0 X109.485 Y112.461
G0 X109.215 Y112.731
;TYPE:WALL-OUTER
;BRIDGE
G1 F283.4 X113.785 Y112.73 E94.9333
;TYPE:WALL-OUTER
G1 X113.785 Y112.138 E94.96882
G1 X113.785 Y110.861 E95.04544
G1 X113.785 Y110.27 E95.0809
;TYPE:WALL-OUTER
;BRIDGE
G1 X109.215 Y110.27 E95.3551
;TYPE:WALL-OUTER
G1 X109.215 Y110.862 E95.39062
G1 X109.215 Y112.139 E95.46724
G1 X109.215 Y112.731 E95.50276
G0 F7200 X109.415 Y112.731
G0 X109.615 Y112.331
;TYPE:WALL-INNER
;BRIDGE
G1 F283.4 X113.385 Y112.33 E95.72896
;TYPE:WALL-INNER
G1 X113.385 Y110.861 E95.8171
;TYPE:WALL-INNER
;BRIDGE
G1 X109.615 Y110.67 E96.04359
;TYPE:WALL-INNER
G1 X109.615 Y112.139 E96.13173
G0 F7200 X110.098 Y111.73
;MESH:NONMESH
G0 F600 X110.098 Y111.73 Z0.6
G0 F7200 X110.527 Y110.97
G0 X110.527 Y110.586
;TIME_ELAPSED:115.567326
;LAYER:2
;TYPE:FILL
;MESH:2 entretoises de couronne Z30.STL
G1 F322.8 X109.774 Y111.338 E96.19558
G1 X109.704 Y111.408
G0 F7200 X109.915 Y111.408
G0 X110.585 Y112.273
G0 X110.585 Y112.413
G1 F322.8 X112.412 Y110.586 E96.35061
G1 X112.482 Y110.516
G0 F7200 X112.482 Y110.727
G0 X113.085 Y111.659
G0 X113.224 Y111.659
G1 F322.8 X112.47 Y112.413 E96.41459
G1 X112.4 Y112.483
G0 F7200 X112.4 Y112.273
G0 X109.485 Y112.704
G0 X109.215 Y112.974
;TYPE:WALL-OUTER
G1 F322.8 X113.785 Y112.973 E96.68879
G1 X113.785 Y110.027 E96.86555
G1 X109.215 Y110.027 E97.13975
G1 X109.215 Y112.974 E97.31657
G0 F7200 X109.415 Y112.974
G0 X109.615 Y112.574
;TYPE:WALL-INNER
G1 F322.8 X113.385 Y112.573 E97.54277
G1 X113.385 Y110.427 E97.67153
G1 X109.615 Y110.427 E97.89773
G1 X109.615 Y112.574 E98.02655
G0 F7200 X110.098 Y111.973
;MESH:NONMESH
G0 F600 X110.098 Y111.973 Z0.75
G0 F7200 X110.729 Y110.727
G0 X110.729 Y110.384
;TIME_ELAPSED:121.819101
;LAYER:3
;TYPE:FILL
;MESH:2 entretoises de couronne Z30.STL
G1 F351 X109.775 Y111.338 E98.1075
G1 X109.705 Y111.408
G0 F7200 X109.915 Y111.408
G0 X110.383 Y112.475
G0 X110.383 Y112.615
G1 F351 X112.614 Y110.384 E98.2968
G1 X112.684 Y110.314
G0 F7200 X112.684 Y110.525
G0 X113.085 Y111.659
G0 X113.224 Y111.659
G1 F351 X112.268 Y112.615 E98.37792
G1 X112.198 Y112.685
G0 F7200 X112.198 Y112.475
G0 X109.485 Y112.906
G0 X109.215 Y113.176
;TYPE:WALL-OUTER
G1 F351 X113.785 Y113.175 E98.65212
G1 X113.785 Y109.825 E98.85312
G1 X109.215 Y109.825 E99.12732
G1 X109.215 Y113.176 E99.32838
G0 F7200 X109.415 Y113.176
G0 X109.615 Y112.776
;TYPE:WALL-INNER
G1 F351 X113.385 Y112.775 E99.55458
G1 X113.385 Y110.225 E99.70758
G1 X109.615 Y110.225 E99.93378
G1 X109.615 Y112.776 E100.08684
G0 F7200 X110.098 Y112.175
;MESH:NONMESH
G0 F600 X110.098 Y112.175 Z0.9
G0 F7200 X110.905 Y110.525
G0 X110.905 Y110.208
;TIME_ELAPSED:128.074441
;LAYER:4
;TYPE:FILL
;MESH:2 entretoises de couronne Z30.STL
G1 F375.6 X109.775 Y111.338 E100.18273
G1 X109.705 Y111.408
G0 F7200 X109.915 Y111.408
G0 X110.207 Y112.651
G0 X110.207 Y112.791
G1 F375.6 X112.79 Y110.208 E100.4019
G1 X112.86 Y110.138
G0 F7200 X112.86 Y110.349
G0 X113.085 Y111.659
G0 X113.224 Y111.659
G1 F375.6 X112.092 Y112.791 E100.49796
G1 X112.022 Y112.861
G0 F7200 X112.022 Y112.651
G0 X109.485 Y113.082
G0 X109.215 Y113.352
;TYPE:WALL-OUTER
G1 F375.6 X113.785 Y113.351 E100.77216
G1 X113.785 Y109.649 E100.99428
G1 X109.215 Y109.649 E101.26848
G1 X109.215 Y113.352 E101.49066
G0 F7200 X109.415 Y113.352
