;FLAVOR:UltiGCode
;TIME:325
;MATERIAL:320
;MATERIAL2:0
;NOZZLE_DIAMETER:0.4
;MINX:98.795
;MINY:97.795
;MINZ:0.3
;MAXX:124.205
;MAXY:125.205
;MAXZ:4.05
;Generated with Cura_SteamEngine 5.4.0
M82 ;absolute extrusion mode
G0 F3000 Y50 ;avoid prime blob
G92 E0
G92 E0
G10
;LAYER_COUNT:26
;LAYER:0
M107
G0 F7200 X99.885 Y101.291 Z0.3
;TYPE:SKIRT
G11
G1 F750 X102.452 Y98.798 E0.4294
G1 X105.524 Y97.795 E0.81719
G1 X117.775 Y97.795 E2.28731
G1 X120.393 Y98.685 E2.61913
G1 X120.709 Y98.885 E2.66401
G1 X123.202 Y101.452 E3.09341
G1 X124.205 Y104.524 E3.4812
G1 X124.205 Y118.384 E5.1444
G1 X123.785 Y120.312 E5.38118
G1 X122.675 Y122.132 E5.637
G1 X120.529 Y124.214 E5.9958
G1 X117.472 Y125.205 E6.38143
G1 X105.616 Y125.205 E7.80415
G1 X103.688 Y124.785 E8.04094
G1 X101.868 Y123.675 E8.29675
G1 X99.786 Y121.529 E8.65555
G1 X98.795 Y118.472 E9.04118
G1 X98.795 Y104.225 E10.75082
G1 X99.685 Y101.607 E11.08264
G1 X99.885 Y101.291 E11.12752
G0 F7200 X100.164 Y101.578
G1 F750 X102.665 Y99.149 E11.54589
G1 X105.587 Y98.195 E11.91474
G1 X117.708 Y98.195 E13.36926
G1 X120.264 Y99.064 E13.69322
G1 X120.422 Y99.164 E13.71566
G1 X122.851 Y101.665 E14.13403
G1 X123.805 Y104.587 E14.50289
G1 X123.805 Y118.34 E16.15325
G1 X123.408 Y120.163 E16.37713
G1 X122.362 Y121.878 E16.61819
G1 X120.317 Y123.862 E16.9601
G1 X117.408 Y124.805 E17.32707
G1 X105.66 Y124.805 E18.73683
G1 X103.837 Y124.408 E18.96071
G1 X102.122 Y123.362 E19.20177
G1 X100.138 Y121.317 E19.54368
G1 X99.195 Y118.408 E19.91065
G1 X99.195 Y104.292 E21.60457
G1 X100.064 Y101.736 E21.92853
G1 X100.164 Y101.578 E21.95097
G0 F7200 X100.443 Y101.865
G1 F750 X102.878 Y99.5 E22.3583
G1 X105.65 Y98.595 E22.70822
G1 X117.641 Y98.595 E24.14714
G1 X120.135 Y99.443 E24.46325
G1 X122.5 Y101.878 E24.87059
G1 X123.405 Y104.65 E25.22051
G1 X123.405 Y118.296 E26.85803
G1 X123.031 Y120.014 E27.06901
G1 X122.049 Y121.624 E27.29532
G1 X120.105 Y123.51 E27.62034
G1 X117.344 Y124.405 E27.96863
G1 X105.704 Y124.405 E29.36543
G1 X103.986 Y124.031 E29.57642
G1 X102.376 Y123.049 E29.80272
G1 X100.49 Y121.105 E30.12775
G1 X99.595 Y118.344 E30.47604
G1 X99.595 Y104.359 E32.15424
G1 X100.443 Y101.865 E32.47035
G0 F7200 X100.791 Y102.085
G1 F750 X103.091 Y99.851 E32.85511
G1 X105.713 Y98.995 E33.18609
G1 X117.574 Y98.995 E34.60941
G1 X119.915 Y99.791 E34.90613
G1 X122.149 Y102.091 E35.29089
G1 X123.005 Y104.713 E35.62187
G1 X123.005 Y118.252 E37.24655
G1 X122.654 Y119.865 E37.44464
G1 X121.736 Y121.37 E37.65619
G1 X119.893 Y123.158 E37.96433
G1 X117.28 Y124.005 E38.29395
G1 X105.748 Y124.005 E39.67779
G1 X104.135 Y123.654 E39.87588
G1 X102.63 Y122.736 E40.08742
G1 X100.842 Y120.893 E40.39556
G1 X99.995 Y118.28 E40.72518
G1 X99.995 Y104.426 E42.38766
G1 X100.791 Y102.085 E42.68438
G0 F7200 X101.139 Y102.305
G1 F750 X103.304 Y100.202 E43.04657
G1 X105.776 Y99.395 E43.35861
G1 X117.507 Y99.395 E44.76633
G1 X119.695 Y100.139 E45.04366
G1 X121.798 Y102.304 E45.40585
G1 X122.605 Y104.776 E45.71789
G1 X122.605 Y118.208 E47.32973
G1 X122.277 Y119.716 E47.51492
G1 X121.423 Y121.116 E47.71171
G1 X119.681 Y122.806 E48.00296
G1 X117.216 Y123.605 E48.31391
G1 X105.792 Y123.605 E49.68479
G1 X104.284 Y123.277 E49.86998
G1 X102.884 Y122.423 E50.06677
G1 X101.194 Y120.681 E50.35802
G1 X100.395 Y118.216 E50.66897
G1 X100.395 Y104.493 E52.31573
G1 X101.139 Y102.305 E52.59306
G0 F7200 X101.487 Y102.525
G1 F750 X103.517 Y100.553 E52.93267
G1 X105.839 Y99.795 E53.22579
G1 X117.44 Y99.795 E54.61791
G1 X119.475 Y100.487 E54.87584
G1 X121.447 Y102.517 E55.21545
G1 X122.205 Y104.839 E55.50857
G1 X122.205 Y118.164 E57.10757
G1 X121.9 Y119.567 E57.27986
G1 X121.11 Y120.862 E57.46189
G1 X119.469 Y122.454 E57.73625
G1 X117.152 Y123.205 E58.02853
G1 X105.836 Y123.205 E59.38645
G1 X104.433 Y122.9 E59.55874
G1 X103.138 Y122.11 E59.74078
G1 X101.546 Y120.469 E60.01514
G1 X100.795 Y118.152 E60.30742
G1 X100.795 Y104.56 E61.93846
G1 X101.487 Y102.525 E62.19639
G0 F7200 X101.835 Y102.745
G1 F750 X103.73 Y100.904 E62.51344
G1 X105.902 Y100.195 E62.78761
G1 X117.373 Y100.195 E64.16413
G1 X119.255 Y100.835 E64.40267
G1 X121.096 Y102.73 E64.71971
G1 X121.805 Y104.902 E64.99389
G1 X121.805 Y118.12 E66.58005
G1 X121.523 Y119.418 E66.73944
G1 X120.797 Y120.608 E66.90672
G1 X119.257 Y122.102 E67.16419
G1 X117.088 Y122.805 E67.4378
G1 X105.88 Y122.805 E68.78276
G1 X104.582 Y122.523 E68.94216
G1 X103.392 Y121.797 E69.10943
G1 X101.898 Y120.257 E69.36691
G1 X101.195 Y118.088 E69.64052
G1 X101.195 Y104.627 E71.25584
G1 X101.835 Y102.745 E71.49438
G0 F7200 X102.183 Y102.965
G1 F750 X103.943 Y101.255 E71.78885
G1 X105.965 Y100.595 E72.04409
G1 X117.306 Y100.595 E73.40501
G1 X119.035 Y101.183 E73.62416
G1 X120.745 Y102.943 E73.91863
G1 X121.405 Y104.965 E74.17387
G1 X121.405 Y118.076 E75.74719
G1 X121.146 Y119.269 E75.89368
G1 X120.484 Y120.354 E76.0462
G1 X119.045 Y121.75 E76.28679
G1 X117.024 Y122.405 E76.54173
G1 X105.924 Y122.405 E77.87373
G1 X104.731 Y122.146 E78.02022
G1 X103.646 Y121.484 E78.17274
G1 X102.25 Y120.045 E78.41333
G1 X101.595 Y118.024 E78.66827
G1 X101.595 Y104.694 E80.26787
G1 X102.183 Y102.965 E80.48702
G0 F7200 X102.531 Y103.185
G1 F750 X104.156 Y101.606 E80.75891
G1 X106.028 Y100.995 E80.99522
G1 X117.239 Y100.995 E82.34054
G1 X118.815 Y101.531 E82.54029
G1 X120.394 Y103.156 E82.81219
G1 X121.005 Y105.028 E83.04849
G1 X121.005 Y118.032 E84.60897
G1 X120.769 Y119.12 E84.74257
G1 X120.171 Y120.1 E84.88033
G1 X118.833 Y121.398 E85.10403
G1 X116.96 Y122.005 E85.3403
G1 X105.968 Y122.005 E86.65934
G1 X104.88 Y121.769 E86.79294
G1 X103.9 Y121.171 E86.9307
G1 X102.602 Y119.833 E87.1544
G1 X101.995 Y117.96 E87.39067
G1 X101.995 Y104.761 E88.97455
G1 X102.531 Y103.185 E89.17431
G0 F7200 X102.879 Y103.405
G1 F750 X104.369 Y101.957 E89.42363
G1 X106.091 Y101.395 E89.641
G1 X117.172 Y101.395 E90.97072
G1 X118.595 Y101.879 E91.15108
G1 X120.043 Y103.369 E91.40041
G1 X120.605 Y105.091 E91.61777
G1 X120.605 Y117.988 E93.16541
G1 X120.392 Y118.969 E93.28588
G1 X119.856 Y119.848 E93.40942
G1 X118.62 Y121.047 E93.61606
G1 X116.899 Y121.605 E93.83316
G1 X106.012 Y121.605 E95.1396
G1 X105.031 Y121.392 E95.26007
G1 X104.152 Y120.856 E95.38361
G1 X102.953 Y119.62 E95.59025
G1 X102.395 Y117.899 E95.80736
G1 X102.395 Y104.828 E97.37588
G1 X102.879 Y103.405 E97.55624
G0 F7200 X103.227 Y103.625
G1 F750 X104.582 Y102.308 E97.78299
G1 X106.154 Y101.795 E97.98142
G1 X117.105 Y101.795 E99.29554
G1 X118.375 Y102.227 E99.45652
G1 X119.692 Y103.582 E99.68327
G1 X120.205 Y105.154 E99.8817
G1 X120.205 Y117.944 E101.4165
G1 X120.015 Y118.818 E101.52383
G1 X119.541 Y119.596 E101.63315
G1 X118.407 Y120.696 E101.82273
G1 X116.838 Y121.205 E102.02067
G1 X106.056 Y121.205 E103.31451
G1 X105.182 Y121.015 E103.42184
G1 X104.404 Y120.541 E103.53117
G1 X103.304 Y119.407 E103.72075
G1 X102.795 Y117.838 E103.91869
G1 X102.795 Y104.895 E105.47185
G1 X103.227 Y103.625 E105.63282
G0 F7200 X103.575 Y103.845
G1 F750 X104.795 Y102.659 E105.837
G1 X106.217 Y102.195 E106.01649
G1 X117.038 Y102.195 E107.31501
G1 X118.155 Y102.575 E107.4566
G1 X119.341 Y103.795 E107.66078
G1 X119.805 Y105.217 E107.84027
G1 X119.805 Y117.9 E109.36223
G1 X119.638 Y118.667 E109.45643
G1 X119.224 Y119.347 E109.55196
G1 X118.195 Y120.345 E109.72398
G1 X116.777 Y120.805 E109.90287
G1 X106.1 Y120.805 E111.18411
G1 X105.333 Y120.638 E111.2783
G1 X104.653 Y120.224 E111.37384
G1 X103.655 Y119.195 E111.54585
G1 X103.195 Y117.777 E111.72474
G1 X103.195 Y104.962 E113.26254
G1 X103.575 Y103.845 E113.40413
G0 F7200 X103.923 Y104.065
G1 F750 X105.008 Y103.01 E113.58573
G1 X106.28 Y102.595 E113.74629
G1 X116.971 Y102.595 E115.02921
G1 X117.935 Y102.923 E115.1514
G1 X118.99 Y104.008 E115.333
G1 X119.405 Y105.28 E115.49356
G1 X119.405 Y117.856 E117.00268
G1 X119.261 Y118.516 E117.08375
G1 X118.907 Y119.098 E117.16549
G1 X117.983 Y119.994 E117.31994
G1 X116.716 Y120.405 E117.47978
G1 X106.144 Y120.405 E118.74842
G1 X105.484 Y120.261 E118.82948
G1 X104.902 Y119.907 E118.91123
G1 X104.006 Y118.983 E119.06568
G1 X103.595 Y117.716 E119.22552
G1 X103.595 Y105.029 E120.74796
G1 X103.923 Y104.065 E120.87015
G0 F7200 X104.271 Y104.285
G1 F750 X105.221 Y103.361 E121.02918
G1 X106.343 Y102.995 E121.1708
G1 X116.904 Y102.995 E122.43812
G1 X117.715 Y103.271 E122.54092
G1 X118.639 Y104.221 E122.69995
G1 X119.005 Y105.343 E122.84157
G1 X119.005 Y117.812 E124.33785
G1 X118.884 Y118.365 E124.40578
G1 X118.59 Y118.849 E124.47374
G1 X117.771 Y119.643 E124.61062
G1 X116.655 Y120.005 E124.75141
G1 X106.188 Y120.005 E126.00745
G1 X105.635 Y119.884 E126.07538
G1 X105.151 Y119.59 E126.14334
G1 X104.357 Y118.771 E126.28022
G1 X103.995 Y117.655 E126.42101
G1 X103.995 Y105.096 E127.92809
G1 X104.271 Y104.285 E128.03089
G0 F7200 X104.619 Y104.505
G1 F750 X105.434 Y103.712 E128.16735
G1 X106.406 Y103.395 E128.29004
G1 X116.837 Y103.395 E129.54176
G1 X117.495 Y103.619 E129.62517
G1 X118.288 Y104.434 E129.76162
G1 X118.605 Y105.406 E129.88431
G1 X118.605 Y117.812 E131.37303
G1 X118.495 Y118.272 E131.42978
G1 X118.312 Y118.562 E131.47093
G1 X117.56 Y119.291 E131.59662
G1 X116.593 Y119.605 E131.71862
G1 X106.188 Y119.605 E132.96722
G1 X105.728 Y119.495 E133.02398
G1 X105.438 Y119.312 E133.06513
G1 X104.709 Y118.56 E133.19081
G1 X104.395 Y117.593 E133.31281
G1 X104.395 Y105.163 E134.80441
G1 X104.619 Y104.505 E134.88782
G0 F7200 X104.967 Y104.725
G1 F750 X105.647 Y104.063 E135.00171
G1 X106.469 Y103.795 E135.10546
G1 X116.77 Y103.795 E136.34158
G1 X117.275 Y103.967 E136.40559
G1 X117.937 Y104.647 E136.51948
G1 X118.205 Y105.469 E136.62323
G1 X118.205 Y117.772 E138.09959
G1 X118.146 Y118.076 E138.13675
G1 X118.034 Y118.275 E138.16415
G1 X117.349 Y118.939 E138.27863
G1 X116.531 Y119.205 E138.38185
G1 X106.228 Y119.205 E139.61821
G1 X105.924 Y119.146 E139.65537
G1 X105.725 Y119.034 E139.68277
G1 X105.061 Y118.349 E139.79725
G1 X104.795 Y117.531 E139.90047
G1 X104.795 Y105.23 E141.37659
G1 X104.967 Y104.725 E141.44061
G0 F7200 X105.246 Y105.012
G1 F750 X105.86 Y104.414 E141.54346
G1 X106.532 Y104.195 E141.62828
G1 X116.77 Y104.195 E142.85684
G1 X116.988 Y104.246 E142.8837
G1 X117.586 Y104.86 E142.98655
G1 X117.805 Y105.532 E143.07137
G1 X117.805 Y117.772 E144.54017
G1 X117.756 Y117.988 E144.56675
G1 X117.138 Y118.587 E144.67002
G1 X116.468 Y118.805 E144.75457
G1 X106.228 Y118.805 E145.98337
G1 X106.012 Y118.756 E146.00995
G1 X105.413 Y118.138 E146.11323
G1 X105.195 Y117.468 E146.19778
G1 X105.195 Y105.23 E147.66634
G1 X105.246 Y105.012 E147.69321
G0 F7200 X105.595 Y105.23
G1 F750 X106.073 Y104.765 E147.77323
G1 X106.595 Y104.595 E147.83911
G1 X116.77 Y104.595 E149.06011
G1 X117.235 Y105.073 E149.14013
G1 X117.405 Y105.595 E149.20601
G1 X117.405 Y117.772 E150.66725
G1 X116.927 Y118.235 E150.74711
G1 X116.405 Y118.405 E150.81298
G1 X106.228 Y118.405 E152.03422
G1 X105.765 Y117.927 E152.11408
G1 X105.595 Y117.405 E152.17996
G1 X105.595 Y105.23 E153.64096
G0 F7200 X106.395 Y105.496
G1 F750 X106.595 Y105.395 E153.66785
G1 X116.504 Y105.395 E154.85693
G1 X116.605 Y105.595 E154.88381
G1 X116.605 Y117.504 E156.31289
G1 X116.405 Y117.605 E156.33978
G1 X106.496 Y117.605 E157.52886
G1 X106.395 Y117.405 E157.55575
G1 X106.395 Y105.496 E158.98483
G0 F7200 X106.215 Y105.139
G1 F750 X106.595 Y104.995 E159.03359
G1 X116.636 Y104.995 E160.23851
G1 X116.861 Y105.215 E160.27627
G1 X117.005 Y105.595 E160.32504
G1 X117.005 Y117.637 E161.77008
G1 X116.785 Y117.861 E161.80775
G1 X116.405 Y118.005 E161.85652
G1 X106.363 Y118.005 E163.06156
G1 X106.139 Y117.785 E163.09923
G1 X105.995 Y117.405 E163.148
G1 X105.995 Y105.364 E164.59292
G1 X106.215 Y105.139 E164.63068
G10
;MESH:4_PIN_LED_Strip_Connector.stl
G0 F7200 X107.009 Y106.009
G0 X108.023 Y106.495
G0 X108.023 Y106.355
;TYPE:FILL
G11
G1 F750 X107.355 Y108.854 E164.94109
G1 X107.33 Y108.95
G0 F7200 X107.355 Y109.849
G1 F750 X115.645 Y107.629 E165.97094
G1 X115.741 Y107.604
G0 F7200 X115.505 Y107.604
G0 X115.535 Y106.465
G0 X115.639 Y106.355
G1 F750 X112.877 Y116.645 E167.24945
G1 X107.355 Y111.123 E168.18656
G1 X107.285 Y111.053
G0 F7200 X107.495 Y111.053
G0 X107.495 Y112.392
G0 X107.355 Y112.392
G1 F750 X115.645 Y110.171 E169.21645
G1 X115.741 Y110.146
G0 F7200 X115.505 Y110.146
G0 X115.505 Y109.012
G0 X115.645 Y109.012
G1 F750 X113.073 Y106.444 E169.65259
G1 X110.334 Y116.667 E170.92262
G1 X115.645 Y115.245 E171.58239
G0 F7200 X115.645 Y115.788
G1 F750 X115.613 Y115.907 E171.59717
G0 F7200 X115.417 Y116.645
G1 F750 X115.612 Y115.918 E171.6875
G1 X107.355 Y107.654 E173.08935
G1 X107.355 Y107.316 E173.12991
G1 X110.942 Y106.355 E173.57553
G1 X110.558 Y106.355 E173.62161
G1 X107.802 Y116.645 E174.89993
G1 X107.777 Y116.741
G0 F7200 X107.777 Y116.505
G0 X109.411 Y116.505
G0 X109.411 Y116.645
G1 F750 X107.355 Y114.588 E175.24893
G1 X107.355 Y114.929 E175.28985
G1 X115.645 Y112.71 E176.31967
G1 X115.645 Y112.48 E176.34727
G1 X109.52 Y106.355 E177.38672
G1 X109.45 Y106.285
G0 F7200 X109.45 Y106.495
G0 X115.935 Y116.935
G0 X116.205 Y117.205
;TYPE:WALL-OUTER
G1 F750 X116.205 Y105.795 E178.89284
G1 X106.795 Y105.795 E180.13496
G1 X106.795 Y117.205 E181.64108
G1 X116.205 Y117.205 E182.8832
G0 F7200 X116.205 Y117.005
G0 X115.805 Y116.805
;TYPE:WALL-INNER
G1 F750 X115.805 Y106.195 E184.09274
G1 X107.195 Y106.195 E185.07428
G1 X107.195 Y116.805 E186.28382
G1 X115.805 Y116.805 E187.26536
G0 F7200 X115.205 Y116.323
;MESH:NONMESH
G0 F600 X115.205 Y116.323 Z0.45
G0 F7200 X108.154 Y106.495
G0 X108.154 Y106.275
;TIME_ELAPSED:129.690975
;LAYER:1
M106 S255
;TYPE:FILL
;MESH:4_PIN_LED_Strip_Connector.stl
G1 F1875 X107.275 Y109.562 E187.46951
G1 X107.275 Y109.761 E187.48145
G1 X115.725 Y107.499 E188.0063
G1 X115.821 Y107.474
G0 F7200 X115.585 Y107.474
G0 X115.585 Y106.444
G0 X115.725 Y106.444
G1 F1875 X112.971 Y116.725 E188.64491
G1 X112.808 Y116.725 E188.65469
G1 X107.275 Y111.192 E189.12418
G1 X107.205 Y111.122
G0 F7200 X107.415 Y111.122
G0 X107.415 Y112.304
G0 X107.275 Y112.304
G1 F1875 X115.725 Y110.039 E189.64908
G0 F7200 X115.725 Y109.242
G1 F1875 X113.134 Y106.652 E189.86889
G0 F7200 X112.754 Y106.275
G1 F1875 X113.129 Y106.65 E189.90071
G1 X110.428 Y116.725 E190.52656
G1 X110.403 Y116.821
G0 F7200 X110.403 Y116.585
G0 X107.89 Y116.585
G0 X107.89 Y116.725
G1 F1875 X110.689 Y106.275 E191.17566
G1 X110.831 Y106.275 E191.18418
G1 X107.275 Y107.228 E191.40507
G0 F7200 X107.275 Y107.724
G1 F1875 X115.725 Y116.173 E192.12203
G1 X115.725 Y115.899 E192.13847
G1 X115.506 Y116.725 E192.18974
G1 X115.481 Y116.821
G0 F7200 X115.481 Y116.585
G0 X115.585 Y115.113
G0 X115.725 Y115.113
G1 F1875 X109.709 Y116.725 E192.56344
G1 X109.341 Y116.725 E192.58552
G1 X107.275 Y114.658 E192.76087
G1 X107.275 Y114.842 E192.77191
G1 X115.725 Y112.58 E193.29676
G1 X115.725 Y112.71 E193.30456
G1 X109.291 Y106.275 E193.85054
G1 X109.221 Y106.205
G0 F7200 X109.221 Y106.415
G0 X116.015 Y117.015
G0 X116.285 Y117.285
;TYPE:WALL-OUTER
G1 F1125 X116.285 Y105.715 E194.54474
G1 X106.715 Y105.715 E195.11894
G1 X106.715 Y117.285 E195.81314
G1 X116.285 Y117.285 E196.38734
G0 F7200 X116.285 Y117.085
G0 X115.885 Y116.885
;TYPE:WALL-INNER
G1 F1875 X115.885 Y106.115 E197.03354
G1 X107.115 Y106.115 E197.55974
G1 X107.115 Y116.885 E198.20594
G1 X115.885 Y116.885 E198.73214
G0 F7200 X115.285 Y116.403
;MESH:NONMESH
G0 F600 X115.285 Y116.403 Z0.6
G0 F7200 X107.415 Y107.118
G0 X107.275 Y107.118
;TIME_ELAPSED:137.486258
;LAYER:2
;TYPE:FILL
;MESH:4_PIN_LED_Strip_Connector.stl
G1 F2306.2 X110.42 Y106.275 E198.9275
G1 X110.799 Y106.275 E198.95024
G1 X108 Y116.725 E199.59935
G1 X107.975 Y116.821
G0 F7200 X107.975 Y116.585
G0 X110.539 Y116.585
G0 X110.539 Y116.725
G1 F2306.2 X113.339 Y106.275 E200.24846
G0 F7200 X112.604 Y106.275
G1 F2306.2 X115.725 Y109.393 E200.51316
G0 F7200 X115.725 Y109.928
G1 F2306.2 X107.275 Y112.193 E201.03806
G1 X107.179 Y112.218
G0 F7200 X107.275 Y111.342
G1 F2306.2 X112.659 Y116.725 E201.49486
G0 F7200 X113.081 Y116.725
G1 F2306.2 X115.725 Y106.853 E202.10806
G0 F7200 X115.725 Y107.389
G1 F2306.2 X107.275 Y109.652 E202.63293
G1 X107.275 Y109.972 E202.65213
G1 X108.264 Y106.275 E202.88175
G1 X108.289 Y106.179
G0 F7200 X109.141 Y106.275
