;FLAVOR:UltiGCode
;TIME:110
;MATERIAL:74
;MATERIAL2:0
;NOZZLE_DIAMETER:0.4
;MINX:103.399
;MINY:106.779
;MINZ:0.3
;MAXX:119.647
;MAXY:124.192
;MAXZ:3.9
;Generated with Cura_SteamEngine 5.4.0
M82 ;absolute extrusion mode
G0 F3000 Y50 ;avoid prime blob
G92 E0
G92 E0
G10
;LAYER_COUNT:61
;LAYER:0
M107
G0 F7200 X106.228 Y109.713 Z0.3
;TYPE:SKIRT
G11
G1 F600 X109.285 Y108.085 E0.41562
G1 X112.166 Y107.959 E0.76167
G1 X114.708 Y108.505 E1.07366
G1 X117.058 Y110.044 E1.41076
G1 X118.851 Y112.197 E1.74698
G1 X119.647 Y115.153 E2.11433
G1 X119.47 Y117.951 E2.45076
G1 X118.583 Y120.22 E2.74311
G1 X117.509 Y121.621 E2.95494
G1 X115.856 Y122.967 E3.21075
G1 X113.452 Y123.989 E3.52421
G1 X110.877 Y124.192 E3.83417
G1 X108.81 Y123.695 E4.08928
G1 X106.686 Y122.682 E4.37167
G1 X104.463 Y120.506 E4.74495
G1 X103.41 Y117.5 E5.12717
G1 X103.399 Y114.304 E5.51069
G1 X104.09 Y112.177 E5.77906
G1 X106.228 Y109.713 E6.17053
G0 F7200 X106.481 Y110.031
G1 F600 X109.392 Y108.481 E6.56628
G1 X112.134 Y108.361 E6.89564
G1 X114.55 Y108.88 E7.19217
G1 X116.79 Y110.347 E7.51349
G1 X118.488 Y112.385 E7.83181
G1 X119.244 Y115.193 E8.18077
G1 X119.075 Y117.861 E8.50157
G1 X118.229 Y120.025 E8.78039
G1 X117.222 Y121.338 E8.97895
G1 X115.647 Y122.621 E9.22272
G1 X113.356 Y123.595 E9.52146
G1 X110.908 Y123.788 E9.81613
G1 X108.944 Y123.316 E10.05852
G1 X106.919 Y122.35 E10.32775
G1 X104.809 Y120.284 E10.68212
G1 X103.81 Y117.433 E11.04463
G1 X103.799 Y114.366 E11.41267
G1 X104.445 Y112.378 E11.66351
G1 X106.481 Y110.031 E12.03636
G0 F7200 X106.734 Y110.349
G1 F600 X109.499 Y108.877 E12.41225
G1 X112.102 Y108.763 E12.72491
G1 X114.392 Y109.255 E13.00598
G1 X116.522 Y110.65 E13.31152
G1 X118.125 Y112.573 E13.61194
G1 X118.841 Y115.233 E13.9425
G1 X118.68 Y117.771 E14.24767
G1 X117.876 Y119.827 E14.51259
G1 X116.933 Y121.058 E14.69867
G1 X115.437 Y122.276 E14.93016
G1 X113.261 Y123.201 E15.2139
G1 X110.94 Y123.384 E15.49328
G1 X109.077 Y122.936 E15.72321
G1 X107.152 Y122.018 E15.97914
G1 X105.155 Y120.062 E16.31458
G1 X104.21 Y117.366 E16.6574
G1 X104.199 Y114.428 E17.00996
G1 X104.8 Y112.579 E17.24326
G1 X106.734 Y110.349 E17.59748
G0 F7200 X106.987 Y110.667
G1 F600 X109.606 Y109.273 E17.95351
G1 X112.07 Y109.165 E18.24947
G1 X114.234 Y109.63 E18.51508
G1 X116.254 Y110.953 E18.80484
G1 X117.762 Y112.762 E19.08746
G1 X118.438 Y115.273 E19.39951
G1 X118.285 Y117.681 E19.68905
G1 X117.523 Y119.63 E19.94017
G1 X116.642 Y120.78 E20.11401
G1 X115.23 Y121.929 E20.33246
G1 X113.165 Y122.807 E20.60173
G1 X110.971 Y122.98 E20.86583
G1 X109.211 Y122.557 E21.08304
G1 X107.385 Y121.686 E21.32581
G1 X105.502 Y119.842 E21.64208
G1 X104.61 Y117.296 E21.9658
G1 X104.599 Y114.49 E22.30253
G1 X105.155 Y112.78 E22.5183
G1 X106.987 Y110.667 E22.85389
G0 F7200 X107.24 Y110.985
G1 F600 X109.713 Y109.669 E23.19006
G1 X112.038 Y109.567 E23.46932
G1 X114.076 Y110.005 E23.71947
G1 X115.986 Y111.256 E23.99345
G1 X117.399 Y112.951 E24.25826
G1 X118.035 Y115.313 E24.5518
G1 X117.89 Y117.591 E24.82571
G1 X117.169 Y119.435 E25.0633
G1 X116.355 Y120.497 E25.22387
G1 X115.02 Y121.584 E25.43046
G1 X113.07 Y122.413 E25.68473
G1 X111.003 Y122.576 E25.93354
G1 X109.344 Y122.177 E26.13829
G1 X107.618 Y121.354 E26.36775
G1 X105.848 Y119.62 E26.66509
G1 X105.01 Y117.229 E26.96913
G1 X104.999 Y114.552 E27.29037
G1 X105.51 Y112.981 E27.48861
G1 X107.24 Y110.985 E27.80558
G0 F7200 X107.493 Y111.303
G1 F600 X109.82 Y110.065 E28.12188
G1 X112.006 Y109.969 E28.38445
G1 X113.918 Y110.38 E28.61913
G1 X115.718 Y111.559 E28.87734
G1 X117.036 Y113.14 E29.12434
G1 X117.632 Y115.353 E29.39936
G1 X117.495 Y117.501 E29.65765
G1 X116.815 Y119.24 E29.88171
G1 X116.068 Y120.214 E30.02901
G1 X114.811 Y121.238 E30.22356
G1 X112.974 Y122.019 E30.4631
G1 X111.034 Y122.172 E30.69662
G1 X109.478 Y121.798 E30.88866
G1 X107.851 Y121.022 E31.10497
G1 X106.195 Y119.4 E31.38313
G1 X105.41 Y117.159 E31.66808
G1 X105.399 Y114.614 E31.97348
G1 X105.865 Y113.182 E32.15419
G1 X107.493 Y111.303 E32.45253
G0 F7200 X107.746 Y111.621
G1 F600 X109.927 Y110.461 E32.74896
G1 X111.974 Y110.371 E32.99484
G1 X113.76 Y110.755 E33.21406
G1 X115.45 Y111.862 E33.45649
G1 X116.673 Y113.329 E33.68568
G1 X117.229 Y115.393 E33.94219
G1 X117.1 Y117.411 E34.18485
G1 X116.462 Y119.042 E34.39501
G1 X115.779 Y119.934 E34.52982
G1 X114.601 Y120.893 E34.7121
G1 X112.879 Y121.625 E34.93664
G1 X111.066 Y121.768 E35.15487
G1 X109.611 Y121.418 E35.33445
G1 X108.084 Y120.69 E35.53745
G1 X106.542 Y119.18 E35.79644
G1 X105.81 Y117.089 E36.06229
G1 X105.799 Y114.676 E36.35185
G1 X106.22 Y113.383 E36.51503
G1 X107.746 Y111.621 E36.79474
G0 F7200 X107.999 Y111.939
G1 F600 X110.034 Y110.857 E37.07132
G1 X111.942 Y110.773 E37.3005
G1 X113.602 Y111.13 E37.50425
G1 X115.182 Y112.165 E37.73091
G1 X116.31 Y113.518 E37.94229
G1 X116.826 Y115.433 E38.18029
G1 X116.705 Y117.324 E38.40767
G1 X116.111 Y118.842 E38.60328
G1 X115.488 Y119.656 E38.72629
G1 X114.394 Y120.546 E38.89552
G1 X112.783 Y121.231 E39.10559
G1 X111.097 Y121.364 E39.30854
G1 X109.745 Y121.039 E39.47541
G1 X108.317 Y120.358 E39.66525
G1 X106.889 Y118.96 E39.90506
G1 X106.21 Y117.019 E40.15182
G1 X106.199 Y114.738 E40.42554
G1 X106.575 Y113.584 E40.57119
G1 X107.999 Y111.939 E40.83228
G0 F7200 X108.252 Y112.257
G1 F600 X110.141 Y111.253 E41.08899
G1 X111.91 Y111.175 E41.30147
G1 X113.444 Y111.505 E41.48976
G1 X114.914 Y112.468 E41.70065
G1 X115.947 Y113.707 E41.89422
G1 X116.423 Y115.473 E42.1137
G1 X116.31 Y117.237 E42.32582
G1 X115.759 Y118.645 E42.50726
G1 X115.201 Y119.373 E42.61733
G1 X114.184 Y120.201 E42.7747
G1 X112.688 Y120.837 E42.96977
G1 X111.128 Y120.96 E43.15755
G1 X109.879 Y120.66 E43.31169
G1 X108.55 Y120.026 E43.48839
G1 X107.236 Y118.74 E43.70902
G1 X106.61 Y116.949 E43.93669
G1 X106.599 Y114.8 E44.19457
G1 X106.93 Y113.785 E44.32269
G1 X108.252 Y112.257 E44.56515
G0 F7200 X108.507 Y112.574
G1 F600 X110.248 Y111.649 E44.80172
G1 X111.878 Y111.577 E44.99751
G1 X113.286 Y111.88 E45.17034
G1 X114.646 Y112.771 E45.36545
G1 X115.584 Y113.896 E45.54122
G1 X116.02 Y115.513 E45.74219
G1 X115.915 Y117.15 E45.93903
G1 X115.407 Y118.447 E46.10618
G1 X114.914 Y119.09 E46.20341
G1 X113.975 Y119.855 E46.34875
G1 X112.592 Y120.443 E46.52909
G1 X111.16 Y120.556 E46.70146
G1 X110.012 Y120.28 E46.84315
G1 X108.783 Y119.694 E47.00654
G1 X107.583 Y118.52 E47.20799
G1 X107.01 Y116.879 E47.41657
G1 X106.999 Y114.862 E47.65861
G1 X107.284 Y113.988 E47.76893
G1 X108.507 Y112.574 E47.99327
G0 F7200 X108.762 Y112.891
G1 F600 X110.355 Y112.045 E48.20972
G1 X111.846 Y111.979 E48.38881
G1 X113.128 Y112.255 E48.54618
G1 X114.378 Y113.074 E48.72551
G1 X115.221 Y114.085 E48.88347
G1 X115.617 Y115.553 E49.06592
G1 X115.52 Y117.063 E49.2475
G1 X115.055 Y118.249 E49.40037
G1 X114.661 Y118.78 E49.47971
G1 X113.766 Y119.509 E49.61823
G1 X112.496 Y120.049 E49.78383
G1 X111.192 Y120.152 E49.9408
G1 X110.145 Y119.9 E50.07003
G1 X109.016 Y119.362 E50.2201
G1 X107.93 Y118.3 E50.40238
G1 X107.41 Y116.809 E50.59187
G1 X107.399 Y114.924 E50.81807
G1 X107.638 Y114.191 E50.91059
G1 X108.762 Y112.891 E51.11682
G0 F7200 X109.017 Y113.208
G1 F600 X110.462 Y112.441 E51.31313
G1 X111.814 Y112.381 E51.47553
G1 X112.97 Y112.63 E51.61743
G1 X114.11 Y113.377 E51.78098
G1 X114.858 Y114.274 E51.92114
G1 X115.214 Y115.593 E52.08508
G1 X115.125 Y116.976 E52.25138
G1 X114.702 Y118.056 E52.39057
G1 X114.408 Y118.47 E52.4515
G1 X113.556 Y119.164 E52.58337
G1 X112.401 Y119.655 E52.73397
G1 X111.224 Y119.748 E52.87565
G1 X110.278 Y119.52 E52.99242
G1 X109.249 Y119.03 E53.12919
G1 X108.277 Y118.08 E53.29229
G1 X107.81 Y116.739 E53.46269
G1 X107.799 Y114.922 E53.68073
G1 X107.941 Y114.453 E53.73953
G1 X109.017 Y113.208 E53.937
G0 F7200 X109.273 Y113.524
G1 F600 X110.568 Y112.837 E54.11291
G1 X111.782 Y112.783 E54.25873
G1 X112.812 Y113.005 E54.38517
G1 X113.842 Y113.68 E54.53295
G1 X114.495 Y114.463 E54.6553
G1 X114.811 Y115.633 E54.80073
G1 X114.73 Y116.889 E54.95176
G1 X114.346 Y117.87 E55.07818
G1 X114.155 Y118.16 E55.11985
G1 X113.347 Y118.818 E55.24489
G1 X112.305 Y119.261 E55.38076
G1 X111.256 Y119.344 E55.50704
G1 X110.411 Y119.14 E55.61135
G1 X109.48 Y118.697 E55.73507
G1 X108.624 Y117.861 E55.87865
G1 X108.21 Y116.67 E56.02996
G1 X108.199 Y114.919 E56.24009
G1 X108.244 Y114.715 E56.26515
G1 X109.273 Y113.524 E56.45403
G0 F7200 X109.529 Y113.84
G1 F600 X110.674 Y113.233 E56.60954
G1 X111.75 Y113.185 E56.73879
G1 X112.654 Y113.38 E56.84976
G1 X113.574 Y113.983 E56.98177
G1 X114.132 Y114.652 E57.0863
G1 X114.408 Y115.673 E57.21322
G1 X114.335 Y116.802 E57.34899
G1 X113.974 Y117.724 E57.4678
G1 X113.855 Y117.888 E57.49212
G1 X113.137 Y118.473 E57.60326
G1 X112.21 Y118.867 E57.72413
G1 X111.288 Y118.94 E57.83511
G1 X110.544 Y118.76 E57.92697
G1 X109.711 Y118.364 E58.03765
G1 X108.971 Y117.642 E58.16171
G1 X108.61 Y116.601 E58.29393
G1 X108.599 Y114.916 E58.49614
G1 X109.529 Y113.84 E58.6668
G0 F7200 X109.783 Y114.157
G1 F600 X110.78 Y113.629 E58.80218
G1 X111.718 Y113.587 E58.91486
G1 X112.496 Y113.755 E59.01037
G1 X113.306 Y114.286 E59.12659
G1 X113.769 Y114.841 E59.21332
G1 X114.005 Y115.713 E59.32173
G1 X113.94 Y116.715 E59.44222
G1 X113.602 Y117.578 E59.55344
G1 X112.927 Y118.128 E59.65793
G1 X112.115 Y118.473 E59.7638
G1 X111.319 Y118.536 E59.85961
G1 X110.716 Y118.399 E59.93382
G1 X109.942 Y118.031 E60.03666
G1 X109.318 Y117.423 E60.14121
G1 X109.01 Y116.532 E60.25434
G1 X109 Y115.064 E60.4305
G1 X109.783 Y114.157 E60.57429
G0 F7200 X110.036 Y114.476
G1 F600 X110.888 Y114.025 E60.68997
G1 X111.736 Y113.987 E60.79183
G1 X112.277 Y114.09 E60.85792
G1 X113.087 Y114.621 E60.97414
G1 X113.405 Y115.029 E61.03622
G1 X113.602 Y115.754 E61.12637
G1 X113.545 Y116.625 E61.23111
G1 X113.267 Y117.336 E61.32272
G1 X112.719 Y117.782 E61.40751
G1 X112.02 Y118.079 E61.49865
G1 X111.287 Y118.137 E61.58688
G1 X110.888 Y118.038 E61.63622
G1 X110.173 Y117.698 E61.73122
G1 X109.665 Y117.203 E61.81634
G1 X109.41 Y116.464 E61.91015
G1 X109.401 Y115.212 E62.06039
G1 X110.036 Y114.476 E62.17704
G0 F7200 X110.289 Y114.795
G1 F600 X110.996 Y114.421 E62.27302
G1 X111.754 Y114.387 E62.36407
G1 X112.126 Y114.468 E62.40976
G1 X112.868 Y114.955 E62.51626
G1 X113.023 Y115.148 E62.54597
G1 X113.203 Y115.728 E62.61884
G1 X113.146 Y116.599 E62.72358
G1 X112.934 Y117.091 E62.78787
G1 X112.563 Y117.414 E62.8469
G1 X111.92 Y117.687 E62.93073
G1 X111.374 Y117.747 E62.99664
G1 X111.06 Y117.677 E63.03525
G1 X110.345 Y117.337 E63.13025
G1 X109.954 Y116.927 E63.19824
G1 X109.81 Y116.461 E63.25677
G1 X109.802 Y115.36 E63.38889
G1 X110.289 Y114.795 E63.4784
G0 F7200 X110.586 Y115.063
G1 F600 X111.102 Y114.817 E63.547
G1 X111.772 Y114.787 E63.62748
G1 X111.968 Y114.842 E63.65191
G1 X112.649 Y115.289 E63.74966
G1 X112.804 Y115.702 E63.80259
G1 X112.747 Y116.573 E63.90734
G1 X112.657 Y116.802 E63.93686
G1 X112.399 Y117.049 E63.97973
G1 X111.861 Y117.291 E64.05052
G1 X111.443 Y117.353 E64.10122
G1 X111.232 Y117.316 E64.12693
G1 X110.517 Y116.976 E64.22194
G1 X110.33 Y116.792 E64.25342
G1 X110.21 Y116.458 E64.29601
G1 X110.203 Y115.486 E64.41265
G1 X110.586 Y115.063 E64.48113
G0 F7200 X111.005 Y115.739
G1 F600 X111.439 Y115.542 E64.53832
G1 X111.584 Y115.544 E64.55572
G1 X111.999 Y115.755 E64.61159
G1 X111.99 Y116.368 E64.68516
G1 X111.542 Y116.557 E64.74351
G1 X111.41 Y116.555 E64.75935
G1 X110.999 Y116.362 E64.81383
G1 X111.005 Y115.739 E64.8886
G0 F7200 X110.758 Y115.424
G1 F600 X111.274 Y115.178 E64.95719
G1 X111.765 Y115.187 E65.01612
G1 X112.317 Y115.512 E65.09299
G1 X112.399 Y115.761 E65.12445
G1 X112.348 Y116.547 E65.21897
G1 X112.235 Y116.684 E65.24028
G1 X111.697 Y116.926 E65.31107
G1 X111.404 Y116.955 E65.3464
G1 X110.689 Y116.615 E65.44141
G1 X110.61 Y116.455 E65.46282
G1 X110.604 Y115.614 E65.56375
G1 X110.758 Y115.424 E65.59309
G0 X110.758 Y115.424 Z0.36
G0 F7200 X111.39 Y116.16
;TIME_ELAPSED:58.643158
;LAYER:1
M106 S255
;TYPE:WALL-OUTER
;MESH:Assassin_Hand_Crossbow_bottom.stl
G1 F524.1 X111.694 Y116.102 E65.60149
G1 X111.699 Y115.757 E65.61084
G1 X111.495 Y115.659 E65.61698
G1 X111.298 Y115.755 E65.62293
G1 X111.301 Y116.103 E65.63236
G1 X111.39 Y116.16 E65.63523
G0 F7200 X111.586 Y116.123
;MESH:NONMESH
G0 F600 X111.586 Y116.123 Z0.42
G0 F7200 X111.597 Y116.131
;TIME_ELAPSED:58.869070
;LAYER:2
;TYPE:WALL-OUTER
;MESH:Assassin_Hand_Crossbow_bottom.stl
G1 F522.8 X111.695 Y116.069 E65.63838
G1 X111.698 Y115.697 E65.64849
G1 X111.496 Y115.597 E65.65462
G1 X111.299 Y115.696 E65.66061
G1 X111.301 Y116.072 E65.67083
G1 X111.597 Y116.131 E65.67904
G0 F7200 X111.695 Y116.069
G0 X111.695 Y115.984
;MESH:NONMESH
G0 F600 X111.695 Y115.984 Z0.48
G0 F7200 X111.599 Y116.121
;TIME_ELAPSED:59.112695
;LAYER:3
;TYPE:WALL-OUTER
;MESH:Assassin_Hand_Crossbow_bottom.stl
G1 F570.1 X111.722 Y116.038 E65.68277
G1 F576.1 X111.702 Y115.619 E65.69321
G1 F580.8 X111.497 Y115.514 E65.6989
G1 X111.3 Y115.615 E65.70438
G1 F576.1 X111.303 Y116.064 E65.71556
G1 F570.1 X111.599 Y116.121 E65.72314
G0 F7200 X111.722 Y116.038
G0 X111.72 Y115.986
;MESH:NONMESH
G0 F600 X111.72 Y115.986 Z0.54
G0 F7200 X111.391 Y116.098
;TIME_ELAPSED:59.362081
;LAYER:4
;TYPE:WALL-OUTER
;MESH:Assassin_Hand_Crossbow_bottom.stl
G1 F582.3 X111.6 Y116.097 E65.72829
G1 X111.701 Y116.028 E65.73131
G1 F576.1 X111.731 Y115.58 E65.74249
G1 F570.1 X111.495 Y115.456 E65.74919
G1 X111.303 Y115.558 E65.75465
G1 F576.1 X111.299 Y116.034 E65.76651
G1 F582.3 X111.391 Y116.098 E65.76927
G0 F7200 X111.591 Y116.098
;MESH:NONMESH
G0 F600 X111.591 Y116.098 Z0.6
G0 F7200 X111.393 Y116.066
;TIME_ELAPSED:59.614759
;LAYER:5
;TYPE:WALL-OUTER
;MESH:Assassin_Hand_Crossbow_bottom.stl
G1 F570.1 X111.593 Y116.065 E65.7743
G1 X111.697 Y115.992 E65.77749
G1 F559.7 X111.727 Y115.535 E65.7892
G1 F548.3 X111.495 Y115.404 E65.79614
G1 X111.276 Y115.524 E65.80264
G1 F559.7 X111.298 Y115.997 E65.81474
G1 F570.1 X111.393 Y116.066 E65.81769
G0 F7200 X111.593 Y116.065
;MESH:NONMESH
G0 F600 X111.593 Y116.065 Z0.66
G0 F7200 X111.397 Y116.031
;TIME_ELAPSED:59.877573
;LAYER:6
;TYPE:WALL-OUTER
;MESH:Assassin_Hand_Crossbow_bottom.stl
G1 F552.5 X111.602 Y116.029 E65.823
G1 X111.718 Y115.942 E65.82675
G1 F554 X111.694 Y115.449 E65.83948
G1 F555.4 X111.466 Y115.323 E65.84619
G1 X111.277 Y115.449 E65.85203
G1 F554 X111.302 Y115.961 E65.86526
G1 F552.5 X111.397 Y116.031 E65.86831
G0 F7200 X111.597 Y116.03
;MESH:NONMESH
G0 F600 X111.597 Y116.03 Z0.72
G0 F7200 X111.397 Y116.006
;TIME_ELAPSED:60.149919
;LAYER:7
;TYPE:WALL-OUTER
;MESH:Assassin_Hand_Crossbow_bottom.stl
G1 F568.6 X111.591 Y116.004 E65.8732
G1 X111.696 Y115.927 E65.87648
G1 F555.4 X111.723 Y115.418 E65.8896
G1 F541.4 X111.495 Y115.287 E65.89653
G1 X111.275 Y115.414 E65.90322
G1 F555.4 X111.297 Y115.929 E65.91648
G1 F568.6 X111.397 Y116.006 E65.91967
G0 F7200 X111.591 Y116.004
G0 X111.595 Y116.001
;MESH:NONMESH
G0 F600 X111.595 Y116.001 Z0.78
G0 F7200 X111.397 Y115.961
;TIME_ELAPSED:60.425292
;LAYER:8
;TYPE:WALL-OUTER
;MESH:Assassin_Hand_Crossbow_bottom.stl
G1 F568.6 X111.591 Y115.959 E65.92455
G1 X111.696 Y115.882 E65.92784
G1 F555.4 X111.723 Y115.373 E65.94096
G1 F541.4 X111.497 Y115.243 E65.94782
G1 X111.275 Y115.371 E65.95457
G1 F555.4 X111.297 Y115.884 E65.96779
G1 F568.6 X111.397 Y115.961 E65.97097
G0 F7200 X111.591 Y115.959
G0 X111.595 Y115.956
;MESH:NONMESH
G0 F600 X111.595 Y115.956 Z0.84
G0 F7200 X111.397 Y115.916
;TIME_ELAPSED:60.700450
;LAYER:9
;TYPE:WALL-OUTER
;MESH:Assassin_Hand_Crossbow_bottom.stl
G1 F568.6 X111.59 Y115.915 E65.97583
G1 X111.696 Y115.837 E65.97915
G1 F555.4 X111.723 Y115.328 E65.99227
G1 F541.4 X111.497 Y115.198 E65.99914
G1 X111.275 Y115.326 E66.00589
G1 F555.4 X111.297 Y115.839 E66.0191
G1 F568.6 X111.397 Y115.916 E66.02228
G0 F7200 X111.59 Y115.915
G0 X111.595 Y115.911
;MESH:NONMESH
G0 F600 X111.595 Y115.911 Z0.9
G0 F7200 X111.397 Y115.872
;TIME_ELAPSED:60.975656
;LAYER:10
;TYPE:WALL-OUTER
;MESH:Assassin_Hand_Crossbow_bottom.stl
G1 F568.6 X111.591 Y115.87 E66.02717
G1 X111.696 Y115.793 E66.03046
G1 F555.4 X111.723 Y115.284 E66.04358
G1 F541.4 X111.466 Y115.137 E66.05137
G1 X111.28 Y115.266 E66.05734
G1 F555.4 X111.297 Y115.795 E66.07096
G1 F568.6 X111.397 Y115.872 E66.07414
