;FLAVOR:UltiGCode
;TIME:757
;MATERIAL:651
;MATERIAL2:0
;NOZZLE_DIAMETER:0.4
;MINX:97.48
;MINY:96.34
;MINZ:0.3
;MAXX:125.52
;MAXY:126.66
;MAXZ:3.45
;Generated with Cura_SteamEngine 5.4.0
M82 ;absolute extrusion mode
G0 F3000 Y50 ;avoid prime blob
G92 E0
G92 E0
G10
;LAYER_COUNT:22
;LAYER:0
M107
G0 F7200 X98.57 Y99.836 Z0.3
;TYPE:SKIRT
G11
G1 F900 X101.137 Y97.343 E0.4294
G1 X104.209 Y96.34 E0.81719
G1 X119.09 Y96.34 E2.60291
G1 X121.708 Y97.23 E2.93473
G1 X122.024 Y97.43 E2.97961
G1 X124.517 Y99.997 E3.40901
G1 X125.52 Y103.069 E3.7968
G1 X125.52 Y119.839 E5.8092
G1 X125.1 Y121.767 E6.04598
G1 X123.99 Y123.587 E6.3018
G1 X121.844 Y125.669 E6.6606
G1 X118.787 Y126.66 E7.04623
G1 X104.301 Y126.66 E8.78455
G1 X102.373 Y126.24 E9.02134
G1 X100.553 Y125.13 E9.27715
G1 X98.471 Y122.984 E9.63595
G1 X97.48 Y119.927 E10.02158
G1 X97.48 Y102.77 E12.08042
G1 X98.37 Y100.152 E12.41224
G1 X98.57 Y99.836 E12.45712
G0 F7200 X98.849 Y100.123
G1 F900 X101.35 Y97.694 E12.87549
G1 X104.272 Y96.74 E13.24434
G1 X119.023 Y96.74 E15.01446
G1 X121.579 Y97.609 E15.33842
G1 X121.737 Y97.709 E15.36086
G1 X124.166 Y100.21 E15.77923
G1 X125.12 Y103.132 E16.14809
G1 X125.12 Y119.795 E18.14765
G1 X124.723 Y121.618 E18.37153
G1 X123.677 Y123.333 E18.61259
G1 X121.632 Y125.317 E18.9545
G1 X118.723 Y126.26 E19.32147
G1 X104.345 Y126.26 E21.04683
G1 X102.522 Y125.863 E21.27071
G1 X100.807 Y124.817 E21.51177
G1 X98.823 Y122.772 E21.85368
G1 X97.88 Y119.863 E22.22065
G1 X97.88 Y102.837 E24.26377
G1 X98.749 Y100.281 E24.58773
G1 X98.849 Y100.123 E24.61017
G0 F7200 X99.128 Y100.41
G1 F900 X101.563 Y98.045 E25.0175
G1 X104.335 Y97.14 E25.36742
G1 X118.956 Y97.14 E27.12194
G1 X121.45 Y97.988 E27.43805
G1 X123.815 Y100.423 E27.84539
G1 X124.72 Y103.195 E28.19531
G1 X124.72 Y119.751 E30.18203
G1 X124.346 Y121.469 E30.39301
G1 X123.364 Y123.079 E30.61932
G1 X121.42 Y124.965 E30.94434
G1 X118.659 Y125.86 E31.29263
G1 X104.389 Y125.86 E33.00503
G1 X102.671 Y125.486 E33.21602
G1 X101.061 Y124.504 E33.44232
G1 X99.175 Y122.56 E33.76735
G1 X98.28 Y119.799 E34.11564
G1 X98.28 Y102.904 E36.14304
G1 X99.128 Y100.41 E36.45915
G0 F7200 X99.476 Y100.63
G1 F900 X101.776 Y98.396 E36.84391
G1 X104.398 Y97.54 E37.17489
G1 X118.889 Y97.54 E38.91381
G1 X121.23 Y98.336 E39.21053
G1 X123.464 Y100.636 E39.59529
G1 X124.32 Y103.258 E39.92627
G1 X124.32 Y119.707 E41.90015
G1 X123.969 Y121.32 E42.09824
G1 X123.051 Y122.825 E42.30979
G1 X121.208 Y124.613 E42.61793
G1 X118.595 Y125.46 E42.94755
G1 X104.433 Y125.46 E44.64699
G1 X102.82 Y125.109 E44.84508
G1 X101.315 Y124.191 E45.05662
G1 X99.527 Y122.348 E45.36476
G1 X98.68 Y119.735 E45.69438
G1 X98.68 Y102.971 E47.70606
G1 X99.476 Y100.63 E48.00278
G0 F7200 X99.824 Y100.85
G1 F900 X101.989 Y98.747 E48.36497
G1 X104.461 Y97.94 E48.67701
G1 X118.822 Y97.94 E50.40033
G1 X121.01 Y98.684 E50.67766
G1 X123.113 Y100.849 E51.03985
G1 X123.92 Y103.321 E51.35189
G1 X123.92 Y119.663 E53.31293
G1 X123.592 Y121.171 E53.49812
G1 X122.738 Y122.571 E53.69491
G1 X120.996 Y124.261 E53.98616
G1 X118.531 Y125.06 E54.29711
G1 X104.477 Y125.06 E55.98359
G1 X102.969 Y124.732 E56.16878
G1 X101.569 Y123.878 E56.36557
G1 X99.879 Y122.136 E56.65682
G1 X99.08 Y119.671 E56.96777
G1 X99.08 Y103.038 E58.96373
G1 X99.824 Y100.85 E59.24106
G0 F7200 X100.172 Y101.07
G1 F900 X102.202 Y99.098 E59.58067
G1 X104.524 Y98.34 E59.87379
G1 X118.755 Y98.34 E61.58151
G1 X120.79 Y99.032 E61.83944
G1 X122.762 Y101.062 E62.17905
G1 X123.52 Y103.384 E62.47217
G1 X123.52 Y119.619 E64.42037
G1 X123.215 Y121.022 E64.59266
G1 X122.425 Y122.317 E64.77469
G1 X120.784 Y123.909 E65.04905
G1 X118.467 Y124.66 E65.34133
G1 X104.521 Y124.66 E67.01485
G1 X103.118 Y124.355 E67.18714
G1 X101.823 Y123.565 E67.36918
G1 X100.231 Y121.924 E67.64354
G1 X99.48 Y119.607 E67.93582
G1 X99.48 Y103.105 E69.91606
G1 X100.172 Y101.07 E70.17399
G0 F7200 X100.52 Y101.29
G1 F900 X102.415 Y99.449 E70.49104
G1 X104.587 Y98.74 E70.76521
G1 X118.688 Y98.74 E72.45733
G1 X120.57 Y99.38 E72.69587
G1 X122.411 Y101.275 E73.01291
G1 X123.12 Y103.447 E73.28709
G1 X123.12 Y119.575 E75.22245
G1 X122.838 Y120.873 E75.38184
G1 X122.112 Y122.063 E75.54912
G1 X120.572 Y123.557 E75.80659
G1 X118.403 Y124.26 E76.0802
G1 X104.565 Y124.26 E77.74076
G1 X103.267 Y123.978 E77.90016
G1 X102.077 Y123.252 E78.06743
G1 X100.583 Y121.712 E78.32491
G1 X99.88 Y119.543 E78.59852
G1 X99.88 Y103.172 E80.56304
G1 X100.52 Y101.29 E80.80158
G0 F7200 X100.868 Y101.51
G1 F900 X102.628 Y99.8 E81.09605
G1 X104.65 Y99.14 E81.35129
G1 X118.621 Y99.14 E83.02781
G1 X120.35 Y99.728 E83.24696
G1 X122.06 Y101.488 E83.54143
G1 X122.72 Y103.51 E83.79667
G1 X122.72 Y119.531 E85.71919
G1 X122.461 Y120.724 E85.86568
G1 X121.799 Y121.809 E86.0182
G1 X120.36 Y123.205 E86.25879
G1 X118.339 Y123.86 E86.51373
G1 X104.609 Y123.86 E88.16133
G1 X103.416 Y123.601 E88.30782
G1 X102.331 Y122.939 E88.46034
G1 X100.935 Y121.5 E88.70093
G1 X100.28 Y119.479 E88.95587
G1 X100.28 Y103.239 E90.90467
G1 X100.868 Y101.51 E91.12382
G0 F7200 X101.216 Y101.73
G1 F900 X102.841 Y100.151 E91.39571
G1 X104.713 Y99.54 E91.63202
G1 X118.554 Y99.54 E93.29294
G1 X120.13 Y100.076 E93.49269
G1 X121.709 Y101.701 E93.76459
G1 X122.32 Y103.573 E94.00089
G1 X122.32 Y119.487 E95.91057
G1 X122.084 Y120.575 E96.04417
G1 X121.486 Y121.555 E96.18193
G1 X120.148 Y122.853 E96.40563
G1 X118.275 Y123.46 E96.6419
G1 X104.653 Y123.46 E98.27654
G1 X103.565 Y123.224 E98.41014
G1 X102.585 Y122.626 E98.5479
G1 X101.287 Y121.288 E98.7716
G1 X100.68 Y119.415 E99.00787
G1 X100.68 Y103.306 E100.94095
G1 X101.216 Y101.73 E101.14071
G0 F7200 X101.564 Y101.95
G1 F900 X103.054 Y100.502 E101.39003
G1 X104.776 Y99.94 E101.6074
G1 X118.487 Y99.94 E103.25272
G1 X119.91 Y100.424 E103.43308
G1 X121.358 Y101.914 E103.68241
G1 X121.92 Y103.636 E103.89977
G1 X121.92 Y119.443 E105.79661
G1 X121.707 Y120.424 E105.91708
G1 X121.171 Y121.303 E106.04062
G1 X119.935 Y122.502 E106.24726
G1 X118.214 Y123.06 E106.46436
G1 X104.697 Y123.06 E108.0864
G1 X103.716 Y122.847 E108.20687
G1 X102.837 Y122.311 E108.33041
G1 X101.638 Y121.075 E108.53705
G1 X101.08 Y119.354 E108.75416
G1 X101.08 Y103.373 E110.67188
G1 X101.564 Y101.95 E110.85224
G0 F7200 X101.912 Y102.17
G1 F900 X103.267 Y100.853 E111.07899
G1 X104.839 Y100.34 E111.27742
G1 X118.42 Y100.34 E112.90714
G1 X119.69 Y100.772 E113.06812
G1 X121.007 Y102.127 E113.29487
G1 X121.52 Y103.699 E113.4933
G1 X121.52 Y119.399 E115.3773
G1 X121.33 Y120.273 E115.48463
G1 X120.856 Y121.051 E115.59395
G1 X119.722 Y122.151 E115.78353
G1 X118.153 Y122.66 E115.98147
G1 X104.741 Y122.66 E117.59091
G1 X103.867 Y122.47 E117.69824
G1 X103.089 Y121.996 E117.80757
G1 X101.989 Y120.862 E117.99715
G1 X101.48 Y119.293 E118.19509
G1 X101.48 Y103.44 E120.09745
G1 X101.912 Y102.17 E120.25842
G0 F7200 X102.26 Y102.39
G1 F900 X103.48 Y101.204 E120.4626
G1 X104.902 Y100.74 E120.64209
G1 X118.353 Y100.74 E122.25621
G1 X119.47 Y101.12 E122.3978
G1 X120.656 Y102.34 E122.60198
G1 X121.12 Y103.762 E122.78147
G1 X121.12 Y119.355 E124.65263
G1 X120.953 Y120.122 E124.74683
G1 X120.539 Y120.802 E124.84236
G1 X119.51 Y121.8 E125.01438
G1 X118.092 Y122.26 E125.19327
G1 X104.785 Y122.26 E126.79011
G1 X104.018 Y122.093 E126.8843
G1 X103.338 Y121.679 E126.97984
G1 X102.34 Y120.65 E127.15185
G1 X101.88 Y119.232 E127.33074
G1 X101.88 Y103.507 E129.21774
G1 X102.26 Y102.39 E129.35933
G0 F7200 X102.608 Y102.61
G1 F900 X103.693 Y101.555 E129.54093
G1 X104.965 Y101.14 E129.70149
G1 X118.286 Y101.14 E131.30001
G1 X119.25 Y101.468 E131.4222
G1 X120.305 Y102.553 E131.6038
G1 X120.72 Y103.825 E131.76436
G1 X120.72 Y119.311 E133.62268
G1 X120.576 Y119.971 E133.70375
G1 X120.222 Y120.553 E133.78549
G1 X119.298 Y121.449 E133.93994
G1 X118.031 Y121.86 E134.09978
G1 X104.829 Y121.86 E135.68402
G1 X104.169 Y121.716 E135.76508
G1 X103.587 Y121.362 E135.84683
G1 X102.691 Y120.438 E136.00128
G1 X102.28 Y119.171 E136.16112
G1 X102.28 Y103.574 E138.03276
G1 X102.608 Y102.61 E138.15495
G0 F7200 X102.956 Y102.83
G1 F900 X103.906 Y101.906 E138.31398
G1 X105.028 Y101.54 E138.4556
G1 X118.219 Y101.54 E140.03852
G1 X119.03 Y101.816 E140.14132
G1 X119.954 Y102.766 E140.30035
G1 X120.32 Y103.888 E140.44197
G1 X120.32 Y119.267 E142.28745
G1 X120.199 Y119.82 E142.35538
G1 X119.905 Y120.304 E142.42334
G1 X119.086 Y121.098 E142.56022
G1 X117.97 Y121.46 E142.70101
G1 X104.873 Y121.46 E144.27265
G1 X104.32 Y121.339 E144.34058
G1 X103.836 Y121.045 E144.40854
G1 X103.042 Y120.226 E144.54542
G1 X102.68 Y119.11 E144.68621
G1 X102.68 Y103.641 E146.54249
G1 X102.956 Y102.83 E146.64529
G0 F7200 X103.304 Y103.05
G1 F900 X104.119 Y102.257 E146.78175
G1 X105.091 Y101.94 E146.90444
G1 X118.152 Y101.94 E148.47176
G1 X118.81 Y102.164 E148.55517
G1 X119.603 Y102.979 E148.69162
G1 X119.92 Y103.951 E148.81431
G1 X119.92 Y119.267 E150.65223
G1 X119.81 Y119.727 E150.70898
G1 X119.627 Y120.017 E150.75013
G1 X118.875 Y120.746 E150.87582
G1 X117.908 Y121.06 E150.99782
G1 X104.873 Y121.06 E152.56202
G1 X104.413 Y120.95 E152.61878
G1 X104.123 Y120.767 E152.65993
G1 X103.394 Y120.015 E152.78561
G1 X103.08 Y119.048 E152.90761
G1 X103.08 Y103.708 E154.74841
G1 X103.304 Y103.05 E154.83182
G0 F7200 X103.652 Y103.27
G1 F900 X104.332 Y102.608 E154.94571
G1 X105.154 Y102.34 E155.04946
G1 X118.085 Y102.34 E156.60118
G1 X118.59 Y102.512 E156.66519
G1 X119.252 Y103.192 E156.77908
G1 X119.52 Y104.014 E156.88283
G1 X119.52 Y119.227 E158.70839
G1 X119.461 Y119.531 E158.74555
G1 X119.349 Y119.73 E158.77295
G1 X118.664 Y120.394 E158.88743
G1 X117.846 Y120.66 E158.99065
G1 X104.913 Y120.66 E160.54261
G1 X104.609 Y120.601 E160.57977
G1 X104.41 Y120.489 E160.60717
G1 X103.746 Y119.804 E160.72165
G1 X103.48 Y118.986 E160.82487
G1 X103.48 Y103.775 E162.65019
G1 X103.652 Y103.27 E162.71421
G0 F7200 X103.931 Y103.557
G1 F900 X104.545 Y102.959 E162.81706
G1 X105.217 Y102.74 E162.90188
G1 X118.085 Y102.74 E164.44604
G1 X118.303 Y102.791 E164.4729
G1 X118.901 Y103.405 E164.57575
G1 X119.12 Y104.077 E164.66057
G1 X119.12 Y119.227 E166.47857
G1 X119.071 Y119.443 E166.50515
G1 X118.453 Y120.042 E166.60842
G1 X117.783 Y120.26 E166.69297
G1 X104.913 Y120.26 E168.23737
G1 X104.697 Y120.211 E168.26395
G1 X104.098 Y119.593 E168.36723
G1 X103.88 Y118.923 E168.45178
G1 X103.88 Y103.775 E170.26954
G1 X103.931 Y103.557 E170.29641
G0 F7200 X104.28 Y103.775
G1 F900 X104.758 Y103.31 E170.37643
G1 X105.28 Y103.14 E170.44231
G1 X118.085 Y103.14 E171.97891
G1 X118.55 Y103.618 E172.05893
G1 X118.72 Y104.14 E172.12481
G1 X118.72 Y119.227 E173.93525
G1 X118.242 Y119.69 E174.01511
G1 X117.72 Y119.86 E174.08098
G1 X104.913 Y119.86 E175.61782
G1 X104.45 Y119.382 E175.69768
G1 X104.28 Y118.86 E175.76356
G1 X104.28 Y103.775 E177.57376
G0 F7200 X105.08 Y104.041
G1 F900 X105.28 Y103.94 E177.60065
G1 X117.819 Y103.94 E179.10533
G1 X117.92 Y104.14 E179.13221
G1 X117.92 Y118.959 E180.91049
G1 X117.72 Y119.06 E180.93738
G1 X105.181 Y119.06 E182.44206
G1 X105.08 Y118.86 E182.46895
G1 X105.08 Y104.041 E184.24723
G0 F7200 X104.9 Y103.684
G1 F900 X105.28 Y103.54 E184.29599
G1 X117.951 Y103.54 E185.81651
G1 X118.176 Y103.76 E185.85427
G1 X118.32 Y104.14 E185.90304
G1 X118.32 Y119.092 E187.69728
G1 X118.1 Y119.316 E187.73495
G1 X117.72 Y119.46 E187.78372
G1 X105.048 Y119.46 E189.30436
G1 X104.824 Y119.24 E189.34203
G1 X104.68 Y118.86 E189.3908
G1 X104.68 Y103.909 E191.18492
G1 X104.9 Y103.684 E191.22268
G10
;MESH:MCB_basarbits_cratebit_2_2.stl
G0 F7200 X106 Y104.86
G0 X117.52 Y118.66
;TYPE:WALL-OUTER
G11
G1 F900 X117.52 Y104.34 E193.11292
G1 X105.48 Y104.34 E194.7022
G1 X105.48 Y118.66 E196.59244
G1 X117.52 Y118.66 E198.18172
G0 F7200 X117.52 Y118.46
G0 X117.12 Y118.26
;TYPE:WALL-INNER
G1 F900 X117.12 Y104.74 E199.723
G1 X105.88 Y104.74 E201.00436
G1 X105.88 Y118.26 E202.54564
G1 X117.12 Y118.26 E203.827
G0 F7200 X116.8 Y117.94
;TYPE:SKIN
G1 F900 X116.8 Y105.06 E205.14849
G1 X106.2 Y105.06 E206.23605
G1 X106.2 Y117.94 E207.55754
G1 X116.8 Y117.94 E208.6451
G0 F7200 X117.1 Y117.94
G0 X106.99 Y118.24
G0 X106.99 Y117.738
G1 F900 X106.399 Y117.147 E208.73085
G0 F7200 X106.399 Y116.582
G1 F900 X107.556 Y117.738 E208.89865
G0 F7200 X108.122 Y117.738
G1 F900 X106.399 Y116.016 E209.14859
G0 F7200 X106.399 Y115.45
G1 F900 X108.687 Y117.738 E209.48057
G0 F7200 X109.253 Y117.738
G1 F900 X106.399 Y114.885 E209.89461
G0 F7200 X106.399 Y114.319
G1 F900 X109.819 Y117.738 E210.39077
G0 F7200 X110.385 Y117.738
G1 F900 X106.399 Y113.753 E210.96906
G0 F7200 X106.399 Y113.187
G1 F900 X110.95 Y117.738 E211.62941
G0 F7200 X111.516 Y117.738
G1 F900 X106.399 Y112.622 E212.3718
G0 F7200 X106.399 Y112.056
G1 F900 X112.082 Y117.738 E213.19632
G0 F7200 X112.647 Y117.738
G1 F900 X106.399 Y111.49 E214.1029
G0 F7200 X106.399 Y110.925
G1 F900 X113.213 Y117.738 E215.09152
G0 F7200 X113.779 Y117.738
G1 F900 X106.399 Y110.359 E216.16228
G0 F7200 X106.399 Y109.793
G1 F900 X114.344 Y117.738 E217.31508
G0 F7200 X114.91 Y117.738
G1 F900 X106.399 Y109.228 E218.54994
G0 F7200 X106.399 Y108.662
G1 F900 X115.476 Y117.738 E219.86693
G0 F7200 X116.041 Y117.738
G1 F900 X106.399 Y108.096 E221.26596
G0 F7200 X106.399 Y107.531
G1 F900 X116.599 Y117.731 E222.74597
G0 F7200 X116.599 Y117.165
G1 F900 X106.399 Y106.965 E224.22597
G0 F7200 X106.399 Y106.399
G1 F900 X116.599 Y116.599 E225.70597
G0 F7200 X116.599 Y116.034
G1 F900 X106.399 Y105.834 E227.18598
G0 F7200 X106.399 Y105.268
G1 F900 X116.599 Y115.468 E228.66598
G0 F7200 X116.599 Y114.902
G1 F900 X106.956 Y105.259 E230.06516
G0 F7200 X107.522 Y105.259
G1 F900 X116.599 Y114.337 E231.38229
G0 F7200 X116.599 Y113.771
G1 F900 X108.088 Y105.259 E232.6173
G0 F7200 X108.654 Y105.259
G1 F900 X116.599 Y113.205 E233.77017
G0 F7200 X116.599 Y112.639
G1 F900 X109.219 Y105.259 E234.841
G0 F7200 X109.785 Y105.259
G1 F900 X116.599 Y112.074 E235.82977
G0 F7200 X116.599 Y111.508
G1 F900 X110.351 Y105.259 E236.73642
G0 F7200 X110.916 Y105.259
G1 F900 X116.599 Y110.942 E237.56101
G0 F7200 X116.599 Y110.377
G1 F900 X111.482 Y105.259 E238.30355
G0 F7200 X112.048 Y105.259
G1 F900 X116.599 Y109.811 E238.96397
G0 F7200 X116.599 Y109.245
G1 F900 X112.613 Y105.259 E239.54233
G0 F7200 X113.179 Y105.259
G1 F900 X116.599 Y108.68 E240.03864
G0 F7200 X116.599 Y108.114
G1 F900 X113.745 Y105.259 E240.45282
G0 F7200 X114.31 Y105.259
G1 F900 X116.599 Y107.548 E240.78495
G0 F7200 X116.599 Y106.983
G1 F900 X114.876 Y105.259 E241.03503
G0 F7200 X115.442 Y105.259
G1 F900 X116.599 Y106.417 E241.20298
G0 F7200 X116.599 Y105.851
G1 F900 X116.007 Y105.259 E241.28888
G1 X115.937 Y105.189
G10
;MESH:NONMESH
G0 F600 X115.937 Y105.189 Z0.45
G0 F7200 X115.937 Y104.76
G0 X117.028 Y104.832
G0 X117.25 Y118.39
G0 X117.6 Y118.74
;TIME_ELAPSED:143.552461
;LAYER:1
M106 S255
;TYPE:WALL-OUTER
;MESH:MCB_basarbits_cratebit_2_2.stl
G11
G1 F1350 X117.6 Y104.26 E242.15768
G1 X105.4 Y104.26 E242.88968
G1 X105.4 Y118.74 E243.75848
G1 X117.6 Y118.74 E244.49048
G0 F7200 X117.6 Y118.54
G0 X117.2 Y118.34
;TYPE:WALL-INNER
G1 F2250 X117.2 Y104.66 E245.31128
G1 X105.8 Y104.66 E245.99528
G1 X105.8 Y118.34 E246.81608
G1 X117.2 Y118.34 E247.50008
G0 F7200 X116.88 Y118.02
;TYPE:SKIN
G1 F1350 X116.88 Y104.98 E248.24336
G1 X106.12 Y104.98 E248.85668
G1 X106.12 Y118.02 E249.59996
G1 X116.88 Y118.02 E250.21328
G0 F7200 X116.374 Y117.819
G1 F1350 X116.678 Y117.514 E250.23782
G0 F7200 X116.678 Y116.949
G1 F1350 X115.808 Y117.819 E250.30796
G0 F7200 X115.242 Y117.819
G1 F1350 X116.678 Y116.383 E250.42371
G0 F7200 X116.678 Y115.817
G1 F1350 X114.677 Y117.819 E250.58505
G0 F7200 X114.111 Y117.819
G1 F1350 X116.678 Y115.252 E250.79198
G0 F7200 X116.678 Y114.686
G1 F1350 X113.545 Y117.819 E251.04453
G0 F7200 X112.98 Y117.819
G1 F1350 X116.678 Y114.12 E251.34267
G0 F7200 X116.678 Y113.554
G1 F1350 X112.414 Y117.819 E251.68643
G0 F7200 X111.848 Y117.819
G1 F1350 X116.678 Y112.989 E252.07578
G0 F7200 X116.678 Y112.423
G1 F1350 X111.283 Y117.819 E252.51071
G0 F7200 X110.717 Y117.819
G1 F1350 X116.678 Y111.857 E252.99127
G0 F7200 X116.678 Y111.292
G1 F1350 X110.151 Y117.819 E253.51741
G0 F7200 X109.585 Y117.819
G1 F1350 X116.678 Y110.726 E254.08918
G0 F7200 X116.678 Y110.16
G1 F1350 X109.02 Y117.819 E254.70653
