;FLAVOR:UltiGCode
;TIME:772
;MATERIAL:1213
;MATERIAL2:0
;NOZZLE_DIAMETER:0.4
;MINX:96.34
;MINY:94.994
;MINZ:0.3
;MAXX:126.66
;MAXY:128.006
;MAXZ:9
;Generated with Cura_SteamEngine 5.4.0
M82 ;absolute extrusion mode
G0 F3000 Y50 ;avoid prime blob
G92 E0
G92 E0
G10
;LAYER_COUNT:59
;LAYER:0
M107
G0 F7200 X99.751 Y96.982 Z0.3
;TYPE:SKIRT
G11
G1 F900 X102.036 Y95.47 E0.32879
G1 X104.308 Y94.994 E0.60735
G1 X118.963 Y94.994 E2.36595
G1 X121.63 Y95.78 E2.6996
G1 X123.46 Y97.221 E2.97911
G1 X125.497 Y99.616 E3.35641
G1 X126.66 Y102.372 E3.71537
G1 X126.66 Y120.18 E5.85233
G1 X125.766 Y123.04 E6.2119
G1 X123.249 Y126.018 E6.67981
G1 X120.964 Y127.53 E7.0086
G1 X118.692 Y128.006 E7.28716
G1 X104.037 Y128.006 E9.04576
G1 X101.37 Y127.22 E9.37941
G1 X99.54 Y125.779 E9.65892
G1 X97.503 Y123.384 E10.03621
G1 X96.34 Y120.628 E10.39517
G1 X96.34 Y102.82 E12.53213
G1 X97.234 Y99.96 E12.89171
G1 X99.751 Y96.982 E13.35961
G0 F7200 X100.017 Y97.286
G1 F900 X102.195 Y95.845 E13.673
G1 X104.347 Y95.394 E13.93685
G1 X118.904 Y95.394 E15.68369
G1 X121.443 Y96.142 E16.00132
G1 X123.181 Y97.511 E16.26681
G1 X125.151 Y99.827 E16.63167
G1 X126.26 Y102.455 E16.97396
G1 X126.26 Y120.119 E19.09364
G1 X125.408 Y122.845 E19.43636
G1 X122.983 Y125.714 E19.88715
G1 X120.805 Y127.155 E20.20054
G1 X118.653 Y127.606 E20.46439
G1 X104.096 Y127.606 E22.21123
G1 X101.557 Y126.858 E22.52885
G1 X99.819 Y125.489 E22.79434
G1 X97.849 Y123.173 E23.15921
G1 X96.74 Y120.545 E23.5015
G1 X96.74 Y102.881 E25.62118
G1 X97.592 Y100.155 E25.9639
G1 X100.017 Y97.286 E26.41469
G0 F7200 X100.283 Y97.59
G1 F900 X102.354 Y96.22 E26.71266
G1 X104.386 Y95.794 E26.96181
G1 X118.845 Y95.794 E28.69689
G1 X121.258 Y96.505 E28.99875
G1 X122.9 Y97.798 E29.24955
G1 X124.805 Y100.038 E29.60241
G1 X125.86 Y102.538 E29.92803
G1 X125.86 Y120.058 E32.03043
G1 X125.05 Y122.65 E32.35631
G1 X122.717 Y125.41 E32.78998
G1 X120.646 Y126.78 E33.08795
G1 X118.614 Y127.206 E33.33709
G1 X104.155 Y127.206 E35.07217
G1 X101.742 Y126.495 E35.37404
G1 X100.1 Y125.202 E35.62484
G1 X98.195 Y122.962 E35.9777
G1 X97.14 Y120.462 E36.30332
G1 X97.14 Y102.942 E38.40572
G1 X97.95 Y100.35 E38.73159
G1 X100.283 Y97.59 E39.16527
G0 F7200 X100.549 Y97.894
G1 F900 X102.511 Y96.596 E39.44757
G1 X104.43 Y96.194 E39.68284
G1 X118.786 Y96.194 E41.40556
G1 X121.071 Y96.867 E41.69141
G1 X122.621 Y98.088 E41.92819
G1 X124.459 Y100.249 E42.26862
G1 X125.46 Y102.621 E42.57757
G1 X125.46 Y119.997 E44.66269
G1 X124.692 Y122.455 E44.97171
G1 X122.451 Y125.106 E45.38827
G1 X120.489 Y126.404 E45.67056
G1 X118.57 Y126.806 E45.90584
G1 X104.214 Y126.806 E47.62856
G1 X101.929 Y126.133 E47.91441
G1 X100.379 Y124.912 E48.15119
G1 X98.541 Y122.751 E48.49162
G1 X97.54 Y120.379 E48.80057
G1 X97.54 Y103.003 E50.88569
G1 X98.308 Y100.545 E51.19471
G1 X100.549 Y97.894 E51.61126
G0 F7200 X100.815 Y98.198
G1 F900 X102.67 Y96.971 E51.87815
G1 X104.469 Y96.594 E52.09872
G1 X118.727 Y96.594 E53.80968
G1 X120.886 Y97.23 E54.07977
G1 X122.34 Y98.375 E54.30186
G1 X124.113 Y100.46 E54.63029
G1 X125.06 Y102.704 E54.92257
G1 X125.06 Y119.936 E56.99041
G1 X124.334 Y122.26 E57.28258
G1 X122.185 Y124.802 E57.68202
G1 X120.33 Y126.029 E57.94891
G1 X118.531 Y126.406 E58.16947
G1 X104.273 Y126.406 E59.88043
G1 X102.114 Y125.77 E60.15052
G1 X100.66 Y124.625 E60.37261
G1 X98.887 Y122.54 E60.70104
G1 X97.94 Y120.296 E60.99332
G1 X97.94 Y103.064 E63.06116
G1 X98.666 Y100.74 E63.35333
G1 X100.815 Y98.198 E63.75277
G0 F7200 X101.081 Y98.502
G1 F900 X102.829 Y97.346 E64.00425
G1 X104.508 Y96.994 E64.21011
G1 X118.668 Y96.994 E65.90931
G1 X120.699 Y97.592 E66.16337
G1 X122.061 Y98.665 E66.37144
G1 X123.767 Y100.671 E66.68744
G1 X124.66 Y102.787 E66.96304
G1 X124.66 Y119.875 E69.0136
G1 X123.976 Y122.065 E69.28892
G1 X121.919 Y124.498 E69.67125
G1 X120.171 Y125.654 E69.92273
G1 X118.492 Y126.006 E70.12859
G1 X104.332 Y126.006 E71.82779
G1 X102.301 Y125.408 E72.08185
G1 X100.939 Y124.335 E72.28992
G1 X99.233 Y122.329 E72.60592
G1 X98.34 Y120.213 E72.88153
G1 X98.34 Y103.125 E74.93209
G1 X99.024 Y100.935 E75.20741
G1 X101.081 Y98.502 E75.58973
G0 F7200 X101.347 Y98.806
G1 F900 X102.986 Y97.722 E75.82553
G1 X104.552 Y97.394 E76.01753
G1 X118.609 Y97.394 E77.70437
G1 X120.514 Y97.955 E77.94268
G1 X121.78 Y98.952 E78.13605
G1 X123.421 Y100.882 E78.44005
G1 X124.26 Y102.87 E78.69899
G1 X124.26 Y119.814 E80.73227
G1 X123.618 Y121.87 E80.99073
G1 X121.653 Y124.194 E81.35594
G1 X120.014 Y125.278 E81.59175
G1 X118.448 Y125.606 E81.78374
G1 X104.391 Y125.606 E83.47058
G1 X102.486 Y125.045 E83.70889
G1 X101.22 Y124.048 E83.90226
G1 X99.579 Y122.118 E84.20626
G1 X98.74 Y120.13 E84.4652
G1 X98.74 Y103.186 E86.49848
G1 X99.382 Y101.13 E86.75695
G1 X101.347 Y98.806 E87.12215
G0 F7200 X101.613 Y99.11
G1 F900 X103.145 Y98.097 E87.34255
G1 X104.591 Y97.794 E87.51984
G1 X118.55 Y97.794 E89.19492
G1 X120.327 Y98.317 E89.4172
G1 X121.501 Y99.242 E89.59656
G1 X123.075 Y101.093 E89.88813
G1 X123.86 Y102.953 E90.13039
G1 X123.86 Y119.753 E92.14639
G1 X123.26 Y121.675 E92.38801
G1 X121.387 Y123.89 E92.7361
G1 X119.855 Y124.903 E92.95649
G1 X118.409 Y125.206 E93.13378
G1 X104.45 Y125.206 E94.80886
G1 X102.673 Y124.683 E95.03114
G1 X101.499 Y123.758 E95.2105
G1 X99.925 Y121.907 E95.50207
G1 X99.14 Y120.047 E95.74433
G1 X99.14 Y103.247 E97.76033
G1 X99.74 Y101.325 E98.00195
G1 X101.613 Y99.11 E98.35004
G0 F7200 X101.879 Y99.414
G1 F900 X103.304 Y98.472 E98.55503
G1 X104.63 Y98.194 E98.7176
G1 X118.491 Y98.194 E100.38092
G1 X120.142 Y98.68 E100.58745
G1 X121.22 Y99.529 E100.75211
G1 X122.729 Y101.304 E101.03168
G1 X123.46 Y103.036 E101.25727
G1 X123.46 Y119.692 E103.25599
G1 X122.902 Y121.48 E103.48076
G1 X121.121 Y123.586 E103.81173
G1 X119.696 Y124.528 E104.01672
G1 X118.37 Y124.806 E104.1793
G1 X104.509 Y124.806 E105.84262
G1 X102.858 Y124.32 E106.04914
G1 X101.78 Y123.471 E106.21381
G1 X100.271 Y121.696 E106.49338
G1 X99.54 Y119.964 E106.71897
G1 X99.54 Y103.308 E108.71769
G1 X100.098 Y101.52 E108.94245
G1 X101.879 Y99.414 E109.27343
G0 F7200 X102.145 Y99.718
G1 F900 X103.461 Y98.848 E109.46274
G1 X104.674 Y98.594 E109.61145
G1 X118.432 Y98.594 E111.26241
G1 X119.957 Y99.043 E111.45318
G1 X120.939 Y99.816 E111.60315
G1 X122.383 Y101.515 E111.87072
G1 X123.06 Y103.119 E112.07964
G1 X123.06 Y119.631 E114.06108
G1 X122.544 Y121.285 E114.269
G1 X120.855 Y123.282 E114.58285
G1 X119.539 Y124.152 E114.77216
G1 X118.326 Y124.406 E114.92088
G1 X104.568 Y124.406 E116.57184
G1 X103.043 Y123.957 E116.76261
G1 X102.061 Y123.184 E116.91258
G1 X100.617 Y121.485 E117.18014
G1 X99.94 Y119.881 E117.38907
G1 X99.94 Y103.369 E119.37051
G1 X100.456 Y101.715 E119.57842
G1 X102.145 Y99.718 E119.89228
G0 F7200 X102.411 Y100.022
G1 F900 X103.618 Y99.224 E120.06591
G1 X104.718 Y98.994 E120.20077
G1 X118.373 Y98.994 E121.83937
G1 X119.772 Y99.406 E122.01438
G1 X120.658 Y100.103 E122.14965
G1 X122.037 Y101.726 E122.40522
G1 X122.66 Y103.202 E122.59747
G1 X122.66 Y119.57 E124.56163
G1 X122.186 Y121.09 E124.75269
G1 X120.589 Y122.978 E125.04943
G1 X119.382 Y123.776 E125.22307
G1 X118.282 Y124.006 E125.35792
G1 X104.627 Y124.006 E126.99652
G1 X103.228 Y123.594 E127.17153
G1 X102.342 Y122.897 E127.30681
G1 X100.963 Y121.274 E127.56238
G1 X100.34 Y119.798 E127.75463
G1 X100.34 Y103.43 E129.71879
G1 X100.814 Y101.91 E129.90985
G1 X102.411 Y100.022 E130.20659
G0 F7200 X102.677 Y100.326
G1 F900 X103.775 Y99.6 E130.36455
G1 X104.762 Y99.394 E130.48554
G1 X118.314 Y99.394 E132.11178
G1 X119.587 Y99.769 E132.27103
G1 X120.377 Y100.39 E132.39161
G1 X121.691 Y101.937 E132.63518
G1 X122.26 Y103.285 E132.81076
G1 X122.26 Y119.509 E134.75764
G1 X121.828 Y120.895 E134.93185
G1 X120.323 Y122.674 E135.21148
G1 X119.225 Y123.4 E135.36944
G1 X118.238 Y123.606 E135.49043
G1 X104.686 Y123.606 E137.11667
G1 X103.413 Y123.231 E137.27592
G1 X102.623 Y122.61 E137.3965
G1 X101.309 Y121.063 E137.64007
G1 X100.74 Y119.715 E137.81565
G1 X100.74 Y103.491 E139.76253
G1 X101.172 Y102.105 E139.93674
G1 X102.677 Y100.326 E140.21637
G0 F7200 X102.943 Y100.63
G1 F900 X103.932 Y99.976 E140.35865
G1 X104.806 Y99.794 E140.46578
G1 X118.255 Y99.794 E142.07966
G1 X119.4 Y100.131 E142.22289
G1 X120.099 Y100.68 E142.32954
G1 X121.345 Y102.148 E142.5606
G1 X121.86 Y103.368 E142.71951
G1 X121.86 Y119.448 E144.64911
G1 X121.47 Y120.7 E144.80647
G1 X120.057 Y122.37 E145.06898
G1 X119.068 Y123.024 E145.21126
G1 X118.194 Y123.206 E145.31839
G1 X104.745 Y123.206 E146.93227
G1 X103.6 Y122.869 E147.0755
G1 X102.901 Y122.32 E147.18216
G1 X101.655 Y120.852 E147.41322
G1 X101.14 Y119.632 E147.57213
G1 X101.14 Y103.552 E149.50173
G1 X101.53 Y102.3 E149.65909
G1 X102.943 Y100.63 E149.9216
G0 F7200 X103.209 Y100.934
G1 F900 X104.089 Y100.352 E150.0482
G1 X104.849 Y100.194 E150.14135
G1 X118.196 Y100.194 E151.74299
G1 X119.213 Y100.493 E151.8702
G1 X119.821 Y100.97 E151.96293
G1 X120.999 Y102.359 E152.18148
G1 X121.46 Y103.451 E152.32372
G1 X121.46 Y119.387 E154.23604
G1 X121.112 Y120.505 E154.37655
G1 X119.791 Y122.066 E154.62194
G1 X118.911 Y122.648 E154.74855
G1 X118.151 Y122.806 E154.8417
G1 X104.804 Y122.806 E156.44334
G1 X103.787 Y122.507 E156.57054
G1 X103.179 Y122.03 E156.66328
G1 X102.001 Y120.641 E156.88183
G1 X101.54 Y119.549 E157.02407
G1 X101.54 Y103.613 E158.93639
G1 X101.888 Y102.495 E159.0769
G1 X103.209 Y100.934 E159.32229
G0 F7200 X103.475 Y101.238
G1 F900 X104.246 Y100.728 E159.43322
G1 X104.891 Y100.594 E159.51227
G1 X118.137 Y100.594 E161.10179
G1 X119.026 Y100.855 E161.21297
G1 X119.543 Y101.26 E161.29178
G1 X120.655 Y102.572 E161.49817
G1 X121.06 Y103.531 E161.62309
G1 X121.06 Y119.326 E163.51849
G1 X120.754 Y120.31 E163.64215
G1 X119.525 Y121.762 E163.87042
G1 X118.754 Y122.272 E163.98135
G1 X118.109 Y122.406 E164.0604
G1 X104.863 Y122.406 E165.64992
G1 X103.974 Y122.145 E165.76111
G1 X103.457 Y121.74 E165.83992
G1 X102.345 Y120.428 E166.0463
G1 X101.94 Y119.469 E166.17122
G1 X101.94 Y103.674 E168.06662
G1 X102.246 Y102.69 E168.19028
G1 X103.475 Y101.238 E168.41855
G0 F7200 X103.741 Y101.542
G1 F900 X104.403 Y101.104 E168.51381
G1 X104.933 Y100.994 E168.57876
G1 X118.078 Y100.994 E170.15616
G1 X118.841 Y101.218 E170.25159
G1 X119.263 Y101.548 E170.31587
G1 X120.311 Y102.785 E170.51042
G1 X120.66 Y103.611 E170.61803
G1 X120.66 Y119.265 E172.49651
G1 X120.396 Y120.115 E172.60331
G1 X119.259 Y121.458 E172.81447
G1 X118.597 Y121.896 E172.90973
G1 X118.067 Y122.006 E172.97468
G1 X104.922 Y122.006 E174.55208
G1 X104.159 Y121.782 E174.64751
G1 X103.737 Y121.452 E174.71179
G1 X102.689 Y120.215 E174.90634
G1 X102.34 Y119.389 E175.01395
G1 X102.34 Y103.735 E176.89243
G1 X102.604 Y102.885 E176.99923
G1 X103.741 Y101.542 E177.21039
G0 F7200 X104.009 Y101.845
G1 F900 X104.561 Y101.48 E177.2898
G1 X104.933 Y101.394 E177.33562
G1 X118.019 Y101.394 E178.90594
G1 X118.655 Y101.581 E178.98549
G1 X118.958 Y101.807 E179.03085
G1 X119.967 Y102.998 E179.21817
G1 X120.26 Y103.691 E179.30845
G1 X120.26 Y119.204 E181.17001
G1 X120.038 Y119.919 E181.25985
G1 X118.991 Y121.155 E181.45424
G1 X118.439 Y121.52 E181.53365
G1 X118.067 Y121.606 E181.57946
G1 X104.981 Y121.606 E183.14978
G1 X104.345 Y121.419 E183.22934
G1 X104.042 Y121.193 E183.2747
G1 X103.033 Y120.002 E183.46201
G1 X102.74 Y119.309 E183.5523
G1 X102.74 Y103.796 E185.41386
G1 X102.962 Y103.081 E185.5037
G1 X104.009 Y101.845 E185.69808
G0 F7200 X104.277 Y102.148
G1 F900 X104.725 Y101.852 E185.76251
G1 X104.933 Y101.794 E185.78843
G1 X117.96 Y101.794 E187.35167
G1 X118.476 Y101.946 E187.41622
G1 X118.653 Y102.066 E187.44188
G1 X119.623 Y103.211 E187.62195
G1 X119.86 Y103.771 E187.69492
G1 X119.86 Y119.143 E189.53956
G1 X119.68 Y119.722 E189.61232
G1 X118.723 Y120.852 E189.79002
G1 X118.275 Y121.148 E189.85445
G1 X118.067 Y121.206 E189.88037
G1 X105.04 Y121.206 E191.44361
G1 X104.524 Y121.054 E191.50816
G1 X104.347 Y120.934 E191.53382
G1 X103.377 Y119.789 E191.7139
G1 X103.14 Y119.229 E191.78687
G1 X103.14 Y103.857 E193.63151
G1 X103.32 Y103.278 E193.70427
G1 X104.277 Y102.148 E193.88196
G0 F7200 X104.887 Y102.665
G1 F900 X105.04 Y102.594 E193.9022
G1 X117.96 Y102.594 E195.4526
G1 X118.113 Y102.665 E195.47284
G1 X119.013 Y103.728 E195.63998
G1 X119.06 Y103.857 E195.65646
G1 X119.06 Y119.143 E197.49078
G1 X119.013 Y119.272 E197.50725
G1 X118.113 Y120.335 E197.67439
G1 X117.96 Y120.406 E197.69463
G1 X105.04 Y120.406 E199.24503
G1 X104.887 Y120.335 E199.26527
G1 X103.987 Y119.272 E199.43241
G1 X103.94 Y119.143 E199.44889
G1 X103.94 Y103.857 E201.28321
G1 X103.987 Y103.728 E201.29968
G1 X104.887 Y102.665 E201.46682
G0 F7200 X104.582 Y102.407
G1 F900 X104.933 Y102.194 E201.51609
G1 X117.96 Y102.194 E203.07933
G1 X118.348 Y102.325 E203.12847
G1 X119.318 Y103.47 E203.30855
G1 X119.46 Y103.771 E203.34849
G1 X119.46 Y119.143 E205.19313
G1 X119.375 Y119.463 E205.23286
G1 X118.418 Y120.593 E205.41055
G1 X118.067 Y120.806 E205.45982
G1 X105.04 Y120.806 E207.02306
G1 X104.652 Y120.675 E207.07221
G1 X103.682 Y119.53 E207.25228
G1 X103.54 Y119.229 E207.29222
G1 X103.54 Y103.857 E209.13686
G1 X103.625 Y103.537 E209.17659
G1 X104.582 Y102.407 E209.35429
G10
;MESH:MCB_basarbits_crate1.stl
G0 F7200 X105.373 Y103.514
G0 X117.869 Y120.006
;TYPE:WALL-OUTER
G11
G1 F900 X118.66 Y119.07 E209.51605
G1 X118.66 Y103.93 E211.51453
G1 X117.869 Y102.994 E211.67629
G1 X105.131 Y102.994 E213.35771
G1 X104.34 Y103.93 E213.51947
G1 X104.34 Y119.07 E215.51795
G1 X105.131 Y120.006 E215.67971
G1 X117.869 Y120.006 E217.36113
G0 F7200 X117.998 Y119.854
G0 X117.683 Y119.606
;TYPE:WALL-INNER
G1 F900 X118.26 Y118.924 E217.46297
G1 X118.26 Y104.076 E219.15564
G1 X117.683 Y103.394 E219.25748
G1 X105.317 Y103.394 E220.6672
G1 X104.74 Y104.076 E220.76905
G1 X104.74 Y118.924 E222.46172
G1 X105.317 Y119.606 E222.56356
G1 X117.683 Y119.606 E223.97328
G0 F7200 X117.536 Y119.286
;TYPE:SKIN
G1 F900 X117.94 Y118.807 E224.03757
G1 X117.94 Y104.193 E225.53697
G1 X117.536 Y103.714 E225.60126
G1 X105.464 Y103.714 E226.83985
G1 X105.06 Y104.193 E226.90414
G1 X105.06 Y118.807 E228.40354
G1 X105.464 Y119.286 E228.46783
G1 X117.536 Y119.286 E229.70642
G0 F7200 X117.763 Y119.479
G0 X106.074 Y119.586
G0 X106.074 Y119.085
G1 F900 X105.259 Y118.269 E229.82474
G0 F7200 X105.259 Y117.704
G1 F900 X106.64 Y119.085 E230.02512
G0 F7200 X107.205 Y119.085
G1 F900 X105.259 Y117.138 E230.30756
G0 F7200 X105.259 Y116.572
G1 F900 X107.771 Y119.085 E230.67212
G0 F7200 X108.337 Y119.085
G1 F900 X105.259 Y116.007 E231.11873
G0 F7200 X105.259 Y115.441
G1 F900 X108.902 Y119.085 E231.6474
G0 F7200 X109.468 Y119.085
G1 F900 X105.259 Y114.875 E232.25819
G0 F7200 X105.259 Y114.31
G1 F900 X110.034 Y119.085 E232.95103
G0 F7200 X110.599 Y119.085
G1 F900 X105.259 Y113.744 E233.72593
G0 F7200 X105.259 Y113.178
G1 F900 X111.165 Y119.085 E234.58295
G0 F7200 X111.731 Y119.085
G1 F900 X105.259 Y112.613 E235.52203
G0 F7200 X105.259 Y112.047
G1 F900 X112.297 Y119.085 E236.54323
G0 F7200 X112.862 Y119.085
G1 F900 X105.259 Y111.481 E237.64648
G0 F7200 X105.259 Y110.916
G1 F900 X113.428 Y119.085 E238.83179
G0 F7200 X113.994 Y119.085
G1 F900 X105.259 Y110.35 E240.09923
G0 F7200 X105.259 Y109.784
G1 F900 X114.559 Y119.085 E241.44871
G0 F7200 X115.125 Y119.085
G1 F900 X105.259 Y109.219 E242.88025
G0 F7200 X105.259 Y108.653
G1 F900 X115.691 Y119.085 E244.39392
G0 F7200 X116.256 Y119.085
G1 F900 X105.259 Y108.087 E245.98964
G0 F7200 X105.259 Y107.521
G1 F900 X116.822 Y119.085 E247.66748
G0 F7200 X117.388 Y119.085
G1 F900 X105.259 Y106.956 E249.42738
G0 F7200 X105.259 Y106.39
G1 F900 X117.677 Y118.808 E251.22921
G0 F7200 X117.74 Y118.306
G1 F900 X105.259 Y105.824 E253.04026
G0 F7200 X105.259 Y105.259
G1 F900 X117.74 Y117.74 E254.85123
G0 F7200 X117.74 Y117.174
G1 F900 X105.259 Y104.693 E256.6622
G0 F7200 X105.322 Y104.19
G1 F900 X117.74 Y116.608 E258.46403
G0 F7200 X117.74 Y116.043
G1 F900 X105.611 Y103.914 E260.22393
G0 F7200 X106.177 Y103.914
G1 F900 X117.74 Y115.477 E261.9017
G0 F7200 X117.74 Y114.911
G1 F900 X106.742 Y103.914 E263.49742
G0 F7200 X107.308 Y103.914
G1 F900 X117.74 Y114.346 E265.01108
G0 F7200 X117.74 Y113.78
G1 F900 X107.874 Y103.914 E266.44262
G0 F7200 X108.439 Y103.914
