;FLAVOR:UltiGCode
;TIME:3531
;MATERIAL:5952
;MATERIAL2:0
;NOZZLE_DIAMETER:0.4
;MINX:103.644
;MINY:84.308
;MINZ:0.3
;MAXX:119.355
;MAXY:138.692
;MAXZ:54.9
;Generated with Cura_SteamEngine 5.4.0
M82 ;absolute extrusion mode
G0 F3000 Y50 ;avoid prime blob
G92 E0
G92 E0
G10
;LAYER_COUNT:366
;LAYER:0
M107
G0 F7200 X104.691 Y105.518 Z0.3
;TYPE:SKIRT
G11
G1 F900 X106.924 Y103.478 E0.36295
G1 X109.356 Y102.155 E0.69517
G1 X112.029 Y102.037 E1.01625
G1 X114.2 Y102.392 E1.28023
G1 X116.812 Y103.987 E1.64748
G1 X118.237 Y105.84 E1.92799
G1 X119.189 Y107.909 E2.20129
G1 X119.333 Y110.196 E2.47628
G1 X119.355 Y111.353 E2.61514
G1 X119.346 Y112.567 E2.76083
G1 X119.239 Y114.903 E3.04144
G1 X118.226 Y117.554 E3.38199
G1 X116.136 Y119.522 E3.72648
G1 X113.789 Y120.841 E4.04955
G1 X110.769 Y121.001 E4.41246
G1 X108.65 Y120.538 E4.67274
G1 X106.303 Y119.141 E5.0005
G1 X104.415 Y116.791 E5.36223
G1 X103.739 Y114.468 E5.65256
G1 X103.654 Y112.273 E5.91615
G1 X103.644 Y111.046 E6.0634
G1 X103.687 Y109.896 E6.20149
G1 X103.818 Y107.742 E6.46045
G1 X104.691 Y105.518 E6.74716
G0 F7200 X105.029 Y105.751
G1 F900 X107.159 Y103.805 E7.09337
G1 X109.464 Y102.551 E7.40825
G1 X112.007 Y102.439 E7.71371
G1 X114.059 Y102.774 E7.96321
G1 X116.54 Y104.29 E8.31211
G1 X117.894 Y106.05 E8.57858
G1 X118.795 Y108.008 E8.83722
G1 X118.933 Y110.204 E9.10126
G1 X118.955 Y111.35 E9.23881
G1 X118.946 Y112.549 E9.38269
G1 X118.842 Y114.82 E9.6555
G1 X117.884 Y117.327 E9.97755
G1 X115.899 Y119.196 E10.30472
G1 X113.673 Y120.447 E10.61114
G1 X110.804 Y120.599 E10.9559
G1 X108.8 Y120.161 E11.20206
G1 X106.568 Y118.833 E11.51372
G1 X104.777 Y116.603 E11.85694
G1 X104.137 Y114.405 E12.13165
G1 X104.054 Y112.27 E12.38805
G1 X104.044 Y111.061 E12.53313
G1 X104.086 Y109.92 E12.67014
G1 X104.213 Y107.829 E12.92153
G1 X105.029 Y105.751 E13.18942
G0 F7200 X105.367 Y105.984
G1 F900 X107.394 Y104.132 E13.5189
G1 X109.572 Y102.947 E13.81644
G1 X111.985 Y102.841 E14.10628
G1 X113.918 Y103.156 E14.3413
G1 X116.268 Y104.592 E14.67178
G1 X117.551 Y106.26 E14.92431
G1 X118.401 Y108.107 E15.16829
G1 X118.533 Y110.212 E15.42139
G1 X118.555 Y111.347 E15.55761
G1 X118.546 Y112.531 E15.6997
G1 X118.445 Y114.737 E15.96469
G1 X117.542 Y117.1 E16.26825
G1 X115.662 Y118.87 E16.57811
G1 X113.557 Y120.053 E16.86786
G1 X110.84 Y120.197 E17.19436
G1 X108.948 Y119.783 E17.42677
G1 X106.834 Y118.526 E17.72191
G1 X105.139 Y116.415 E18.04678
G1 X104.535 Y114.342 E18.30589
G1 X104.454 Y112.267 E18.55508
G1 X104.444 Y111.075 E18.69812
G1 X104.485 Y109.944 E18.83393
G1 X104.608 Y107.916 E19.07774
G1 X105.367 Y105.984 E19.32683
G0 F7200 X105.705 Y106.217
G1 F900 X107.629 Y104.459 E19.63957
G1 X109.68 Y103.343 E19.91977
G1 X111.963 Y103.243 E20.19399
G1 X113.777 Y103.538 E20.41453
G1 X115.996 Y104.894 E20.72659
G1 X117.208 Y106.47 E20.96517
G1 X118.007 Y108.206 E21.1945
G1 X118.133 Y110.22 E21.43665
G1 X118.155 Y111.344 E21.57155
G1 X118.146 Y112.513 E21.71184
G1 X118.048 Y114.654 E21.96903
G1 X117.2 Y116.873 E22.25409
G1 X115.425 Y118.544 E22.54663
G1 X113.441 Y119.659 E22.81973
G1 X110.875 Y119.795 E23.12808
G1 X109.096 Y119.406 E23.3466
G1 X107.102 Y118.22 E23.62501
G1 X105.5 Y116.226 E23.93195
G1 X104.933 Y114.279 E24.17529
G1 X104.854 Y112.264 E24.41728
G1 X104.844 Y111.089 E24.55828
G1 X104.884 Y109.968 E24.69289
G1 X105.003 Y108.003 E24.92912
G1 X105.705 Y106.217 E25.1594
G0 F7200 X106.043 Y106.45
G1 F900 X107.864 Y104.786 E25.45541
G1 X109.788 Y103.739 E25.71827
G1 X111.94 Y103.645 E25.97675
G1 X113.637 Y103.921 E26.18307
G1 X115.723 Y105.195 E26.47638
G1 X116.865 Y106.68 E26.70118
G1 X117.613 Y108.305 E26.91585
G1 X117.733 Y110.228 E27.14706
G1 X117.755 Y111.341 E27.28064
G1 X117.746 Y112.495 E27.41913
G1 X117.651 Y114.571 E27.66851
G1 X116.858 Y116.646 E27.93507
G1 X115.188 Y118.218 E28.21029
G1 X113.325 Y119.265 E28.46674
G1 X110.911 Y119.393 E28.75682
G1 X109.244 Y119.028 E28.9616
G1 X107.368 Y117.913 E29.22348
G1 X105.862 Y116.038 E29.51207
G1 X105.331 Y114.216 E29.73981
G1 X105.254 Y112.261 E29.97459
G1 X105.244 Y111.103 E30.11356
G1 X105.283 Y109.992 E30.24696
G1 X105.398 Y108.09 E30.47562
G1 X106.043 Y106.45 E30.68709
G0 F7200 X106.381 Y106.683
G1 F900 X108.099 Y105.113 E30.96637
G1 X109.896 Y104.135 E31.21188
G1 X111.917 Y104.047 E31.45463
G1 X113.497 Y104.304 E31.64672
G1 X115.45 Y105.496 E31.92128
G1 X116.522 Y106.89 E32.1323
G1 X117.219 Y108.404 E32.33231
G1 X117.333 Y110.236 E32.55258
G1 X117.355 Y111.338 E32.68484
G1 X117.346 Y112.477 E32.82153
G1 X117.254 Y114.488 E33.0631
G1 X116.516 Y116.419 E33.31117
G1 X114.951 Y117.892 E33.56907
G1 X113.209 Y118.871 E33.80886
G1 X110.946 Y118.991 E34.0808
G1 X109.392 Y118.651 E34.27169
G1 X107.634 Y117.606 E34.51711
G1 X106.224 Y115.85 E34.78735
G1 X105.729 Y114.152 E34.99959
G1 X105.654 Y112.257 E35.22717
G1 X105.644 Y111.117 E35.36398
G1 X105.682 Y110.016 E35.49617
G1 X105.793 Y108.177 E35.71726
G1 X106.381 Y106.683 E35.90992
G0 F7200 X106.719 Y106.916
G1 F900 X108.334 Y105.44 E36.17247
G1 X110.004 Y104.531 E36.40063
G1 X111.894 Y104.449 E36.62764
G1 X113.357 Y104.687 E36.80551
G1 X115.177 Y105.797 E37.06133
G1 X116.179 Y107.1 E37.25857
G1 X116.825 Y108.503 E37.44392
G1 X116.933 Y110.244 E37.65324
G1 X116.955 Y111.335 E37.78419
G1 X116.946 Y112.459 E37.91907
G1 X116.857 Y114.405 E38.15284
G1 X116.174 Y116.192 E38.38241
G1 X114.714 Y117.566 E38.62299
G1 X113.093 Y118.477 E38.84612
G1 X110.981 Y118.589 E39.09992
G1 X109.54 Y118.274 E39.27692
G1 X107.9 Y117.299 E39.50588
G1 X106.586 Y115.662 E39.75777
G1 X106.127 Y114.088 E39.95452
G1 X106.054 Y112.253 E40.17489
G1 X106.044 Y111.131 E40.30954
G1 X106.081 Y110.04 E40.44053
G1 X106.188 Y108.265 E40.65392
G1 X106.719 Y106.916 E40.82789
G0 F7200 X107.057 Y107.149
G1 F900 X108.569 Y105.767 E41.0737
G1 X110.112 Y104.927 E41.28452
G1 X111.871 Y104.851 E41.4958
G1 X113.217 Y105.07 E41.65944
G1 X114.904 Y106.099 E41.89657
G1 X115.836 Y107.31 E42.07994
G1 X116.431 Y108.602 E42.25064
G1 X116.533 Y110.252 E42.44901
G1 X116.555 Y111.332 E42.57864
G1 X116.546 Y112.441 E42.71172
G1 X116.46 Y114.322 E42.93768
G1 X115.832 Y115.965 E43.14875
G1 X114.477 Y117.24 E43.37202
G1 X112.977 Y118.083 E43.5785
G1 X111.017 Y118.187 E43.81403
G1 X109.688 Y117.896 E43.97729
G1 X108.168 Y116.993 E44.18945
G1 X106.947 Y115.473 E44.42341
G1 X106.525 Y114.024 E44.60451
G1 X106.454 Y112.249 E44.81768
G1 X106.444 Y111.144 E44.95029
G1 X106.48 Y110.064 E45.07996
G1 X106.583 Y108.353 E45.28565
G1 X107.057 Y107.149 E45.44092
G0 F7200 X107.395 Y107.382
G1 F900 X108.804 Y106.094 E45.67
G1 X110.22 Y105.323 E45.86348
G1 X111.848 Y105.253 E46.05902
G1 X113.077 Y105.453 E46.20844
G1 X114.631 Y106.401 E46.42688
G1 X115.493 Y107.52 E46.59638
G1 X116.037 Y108.701 E46.75241
G1 X116.133 Y110.26 E46.93985
G1 X116.155 Y111.329 E47.06815
G1 X116.146 Y112.423 E47.19944
G1 X116.063 Y114.239 E47.41759
G1 X115.49 Y115.738 E47.61016
G1 X114.24 Y116.914 E47.81611
G1 X112.861 Y117.689 E48.00593
G1 X111.052 Y117.785 E48.22332
G1 X109.836 Y117.519 E48.37269
G1 X108.434 Y116.686 E48.56838
G1 X107.309 Y115.285 E48.784
G1 X106.923 Y113.96 E48.94961
G1 X106.854 Y112.245 E49.15557
G1 X106.844 Y111.157 E49.28614
G1 X106.879 Y110.088 E49.41449
G1 X106.978 Y108.441 E49.61248
G1 X107.395 Y107.382 E49.74906
G0 F7200 X107.733 Y107.615
G1 F900 X109.039 Y106.421 E49.9614
G1 X110.328 Y105.719 E50.13754
G1 X111.825 Y105.655 E50.31734
G1 X112.935 Y105.835 E50.45228
G1 X114.36 Y106.704 E50.65257
G1 X115.15 Y107.73 E50.80796
G1 X115.643 Y108.8 E50.94933
G1 X115.733 Y110.268 E51.12582
G1 X115.755 Y111.326 E51.25281
G1 X115.746 Y112.405 E51.38229
G1 X115.666 Y114.156 E51.59263
G1 X115.148 Y115.511 E51.76671
G1 X114.003 Y116.588 E51.95534
G1 X112.745 Y117.295 E52.12851
G1 X111.087 Y117.383 E52.32775
G1 X109.984 Y117.142 E52.46323
G1 X108.7 Y116.379 E52.64246
G1 X107.671 Y115.097 E52.83973
G1 X107.321 Y113.896 E52.98984
G1 X107.254 Y112.241 E53.18861
G1 X107.244 Y111.17 E53.31713
G1 X107.278 Y110.112 E53.44416
G1 X107.373 Y108.529 E53.63446
G1 X107.733 Y107.615 E53.75234
G0 F7200 X108.071 Y107.848
G1 F900 X109.274 Y106.748 E53.94795
G1 X110.436 Y106.115 E54.10674
G1 X111.802 Y106.057 E54.27081
G1 X112.793 Y106.217 E54.39127
G1 X114.089 Y107.007 E54.5734
G1 X114.807 Y107.94 E54.71468
G1 X115.249 Y108.899 E54.84139
G1 X115.333 Y110.276 E55.00694
G1 X115.355 Y111.323 E55.13261
G1 X115.346 Y112.387 E55.26029
G1 X115.269 Y114.073 E55.46282
G1 X114.806 Y115.284 E55.6184
G1 X113.766 Y116.262 E55.78971
G1 X112.629 Y116.901 E55.94623
G1 X111.123 Y116.981 E56.1272
G1 X110.132 Y116.764 E56.24894
G1 X108.968 Y116.073 E56.41138
G1 X108.032 Y114.908 E56.59071
G1 X107.719 Y113.832 E56.72518
G1 X107.654 Y112.237 E56.91674
G1 X107.644 Y111.183 E57.04322
G1 X107.677 Y110.136 E57.16893
G1 X107.768 Y108.617 E57.35153
G1 X108.071 Y107.848 E57.45072
G0 F7200 X108.409 Y108.081
G1 F900 X109.509 Y107.075 E57.6296
G1 X110.544 Y106.511 E57.77104
G1 X111.779 Y106.459 E57.91937
G1 X112.654 Y106.6 E58.02573
G1 X113.816 Y107.309 E58.18907
G1 X114.464 Y108.15 E58.31647
G1 X114.855 Y108.998 E58.42853
G1 X114.933 Y110.284 E58.58313
G1 X114.955 Y111.32 E58.70748
G1 X114.946 Y112.369 E58.83337
G1 X114.872 Y113.99 E59.02809
G1 X114.464 Y115.057 E59.16517
G1 X113.529 Y115.936 E59.31917
G1 X112.513 Y116.507 E59.45902
G1 X111.158 Y116.579 E59.62185
G1 X110.28 Y116.387 E59.7297
G1 X109.234 Y115.766 E59.87568
G1 X108.394 Y114.72 E60.03666
G1 X108.117 Y113.768 E60.15564
G1 X108.054 Y112.233 E60.33999
G1 X108.044 Y111.195 E60.46456
G1 X108.076 Y110.16 E60.58882
G1 X108.163 Y108.705 E60.76373
G1 X108.409 Y108.081 E60.84422
G0 F7200 X108.747 Y108.314
G1 F900 X109.744 Y107.402 E61.00636
G1 X110.652 Y106.907 E61.13046
G1 X111.757 Y106.861 E61.26318
G1 X112.512 Y106.982 E61.35493
G1 X113.545 Y107.612 E61.50013
G1 X114.12 Y108.359 E61.61325
G1 X114.461 Y109.098 E61.71091
G1 X114.533 Y110.293 E61.85458
G1 X114.555 Y111.317 E61.97748
G1 X114.546 Y112.351 E62.10157
G1 X114.475 Y113.907 E62.28848
G1 X114.122 Y114.83 E62.40707
G1 X113.292 Y115.61 E62.54375
G1 X112.397 Y116.113 E62.66694
G1 X111.194 Y116.177 E62.81151
G1 X110.427 Y116.009 E62.90573
G1 X109.5 Y115.459 E63.03508
G1 X108.756 Y114.532 E63.17771
G1 X108.515 Y113.704 E63.2812
G1 X108.454 Y112.229 E63.45835
G1 X108.444 Y111.207 E63.58099
G1 X108.475 Y110.184 E63.70381
G1 X108.558 Y108.793 E63.87103
G1 X108.747 Y108.314 E63.93282
G0 F7200 X109.017 Y108.609
G1 F900 X109.978 Y107.73 E64.0891
G1 X110.761 Y107.303 E64.19613
G1 X111.735 Y107.263 E64.31311
G1 X112.372 Y107.365 E64.39052
G1 X113.272 Y107.914 E64.51703
G1 X113.776 Y108.568 E64.61611
G1 X114.067 Y109.198 E64.69938
G1 X114.133 Y110.302 E64.8321
G1 X114.155 Y111.313 E64.95345
G1 X114.146 Y112.333 E65.07585
G1 X114.078 Y113.824 E65.25496
G1 X113.781 Y114.601 E65.35478
G1 X113.053 Y115.285 E65.47465
G1 X112.281 Y115.719 E65.58092
G1 X111.229 Y115.775 E65.70734
G1 X110.575 Y115.632 E65.78768
G1 X109.766 Y115.152 E65.90056
G1 X109.118 Y114.344 E66.02485
G1 X108.913 Y113.64 E66.11284
G1 X108.854 Y112.225 E66.28278
G1 X108.844 Y111.219 E66.40351
G1 X108.874 Y110.208 E66.52488
G1 X108.957 Y108.817 E66.6921
G1 X109.017 Y108.609 E66.71808
G0 F7200 X109.356 Y108.841
G1 F900 X110.212 Y108.058 E66.85729
G1 X110.87 Y107.699 E66.94724
G1 X111.713 Y107.665 E67.04848
G1 X112.232 Y107.748 E67.11155
G1 X112.999 Y108.216 E67.21937
G1 X113.433 Y108.778 E67.30458
G1 X113.672 Y109.297 E67.37315
G1 X113.733 Y110.311 E67.49505
G1 X113.755 Y111.309 E67.61484
G1 X113.746 Y112.315 E67.73556
G1 X113.681 Y113.741 E67.90686
G1 X113.44 Y114.372 E67.98791
G1 X112.814 Y114.96 E68.09097
G1 X112.165 Y115.325 E68.18033
G1 X111.265 Y115.373 E68.28848
G1 X110.722 Y115.254 E68.35519
G1 X110.032 Y114.845 E68.45144
G1 X109.48 Y114.156 E68.55738
G1 X109.311 Y113.576 E68.62988
G1 X109.254 Y112.221 E68.79262
G1 X109.244 Y111.231 E68.91143
G1 X109.273 Y110.232 E69.03136
G1 X109.356 Y108.841 E69.19857
G0 F7200 X109.745 Y109.027
G1 F900 X110.446 Y108.386 E69.31256
G1 X110.979 Y108.095 E69.38543
G1 X111.729 Y108.065 E69.4755
G1 X112.093 Y108.131 E69.5199
G1 X112.725 Y108.517 E69.60876
G1 X113.116 Y109.023 E69.6855
G1 X113.278 Y109.396 E69.7343
G1 X113.333 Y110.32 E69.84537
G1 X113.355 Y111.305 E69.9636
G1 X113.346 Y112.297 E70.08265
G1 X113.284 Y113.658 E70.24614
G1 X113.099 Y114.143 E70.30843
G1 X112.575 Y114.635 E70.39468
G1 X112.049 Y114.931 E70.46711
G1 X111.292 Y114.971 E70.55808
G1 X110.926 Y114.91 E70.6026
G1 X110.298 Y114.538 E70.69019
G1 X109.842 Y113.968 E70.77779
G1 X109.711 Y113.559 E70.82932
G1 X109.654 Y112.217 E70.99051
G1 X109.644 Y111.242 E71.10751
G1 X109.672 Y110.256 E71.22588
G1 X109.745 Y109.027 E71.37362
G0 F7200 X110.134 Y109.213
G1 F900 X110.716 Y108.681 E71.46824
G1 X111.087 Y108.491 E71.51826
G1 X111.745 Y108.465 E71.59728
G1 X111.948 Y108.511 E71.62226
G1 X112.453 Y108.819 E71.69324
G1 X112.8 Y109.268 E71.76134
G1 X112.883 Y109.489 E71.78966
G1 X112.933 Y110.329 E71.89064
G1 X112.955 Y111.301 E72.00731
G1 X112.946 Y112.279 E72.12468
G1 X112.884 Y113.64 E72.28817
G1 X112.825 Y113.851 E72.31446
G1 X112.301 Y114.343 E72.40071
G1 X111.935 Y114.537 E72.45042
G1 X111.271 Y114.572 E72.53021
G1 X111.067 Y114.529 E72.55523
G1 X110.564 Y114.231 E72.62539
G1 X110.199 Y113.775 E72.69548
G1 X110.111 Y113.542 E72.72537
G1 X110.054 Y112.213 E72.88499
G1 X110.044 Y111.253 E73.0002
G1 X110.071 Y110.28 E73.117
G1 X110.134 Y109.213 E73.24527
G0 F7200 X110.523 Y109.399
G1 F900 X110.986 Y108.976 E73.32052
G1 X111.187 Y108.888 E73.34685
G1 X111.761 Y108.865 E73.41579
G1 X112.137 Y109.064 E73.46684
G1 X112.484 Y109.513 E73.53493
G1 X112.533 Y110.338 E73.63411
G1 X112.555 Y111.297 E73.74922
G1 X112.546 Y112.261 E73.8649
G1 X112.484 Y113.622 E74.02839
G1 X112.027 Y114.051 E74.10361
G1 X111.826 Y114.143 E74.13014
G1 X111.25 Y114.173 E74.19935
G1 X110.876 Y113.981 E74.2498
G1 X110.511 Y113.525 E74.31989
G1 X110.454 Y112.209 E74.47796
G1 X110.444 Y111.264 E74.59136
G1 X110.47 Y110.303 E74.70672
G1 X110.523 Y109.399 E74.81539
G0 F7200 X111.305 Y109.715
G1 F900 X111.452 Y109.624 E74.83614
G1 X111.577 Y109.633 E74.85118
G1 X111.696 Y109.737 E74.87014
G1 X111.733 Y110.356 E74.94455
G1 X111.755 Y111.289 E75.05655
G1 X111.746 Y112.225 E75.16887
G1 X111.696 Y113.317 E75.30005
G1 X111.55 Y113.411 E75.32088
G1 X111.426 Y113.403 E75.3358
G1 X111.303 Y113.299 E75.35512
G1 X111.254 Y112.201 E75.48702
G1 X111.244 Y111.285 E75.59694
G1 X111.268 Y110.349 E75.7093
G1 X111.305 Y109.715 E75.78551
G0 F7200 X110.914 Y109.555
G1 F900 X111.241 Y109.284 E75.83647
G1 X111.606 Y109.234 E75.88068
G1 X111.84 Y109.332 E75.91112
G1 X112.089 Y109.607 E75.95564
G1 X112.133 Y110.347 E76.0446
G1 X112.155 Y111.293 E76.15815
G1 X112.146 Y112.243 E76.27216
G1 X112.09 Y113.471 E76.41967
G1 X111.767 Y113.747 E76.47065
G1 X111.4 Y113.802 E76.51518
G1 X111.168 Y113.708 E76.54522
G1 X110.908 Y113.43 E76.5909
G1 X110.854 Y112.205 E76.73804
G1 X110.844 Y111.275 E76.84965
G1 X110.869 Y110.326 E76.96357
G1 X110.914 Y109.555 E77.05624
G10
;MESH:No.6_Shroud.stl
G0 F7200 X111.5 Y110.882
;TYPE:WALL-OUTER
G11
G1 F1074.7 X111.5 Y111.623 E77.13938
G10
;MESH:NONMESH
G0 F600 X111.5 Y111.623 Z0.45
G0 F7200 X111.5 Y109.461
;TIME_ELAPSED:47.607262
;LAYER:1
M106 S255
;TYPE:WALL-OUTER
;MESH:No.6_Shroud.stl
G11
G1 F236.2 X111.5 Y111.277 E77.29792
G1 F223.2 X111.5 Y113.093 E77.46436
G1 F249.9 X111.501 Y114.021 E77.54147
;MESH:NONMESH
G0 F600 X111.501 Y114.021 Z0.6
G0 F7200 X111.696 Y114.002
;TIME_ELAPSED:48.845925
;LAYER:2
;TYPE:WALL-OUTER
;MESH:No.6_Shroud.stl
G1 F333.2 X111.732 Y113.075 E77.60117
G1 F292 X111.751 Y112.155 E77.66784
G1 F277.7 X111.755 Y111.247 E77.73662
G1 F282.1 X111.744 Y110.372 E77.80199
G1 F307.6 X111.716 Y109.461 E77.86501
G1 F329 X111.632 Y108.563 E77.92373
G1 X111.497 Y107.537 E77.9911
G1 X111.369 Y108.563 E78.05841
G1 F328.1 X111.282 Y109.507 E78.12027
G1 F306.9 X111.257 Y110.387 E78.18127
G1 F281.4 X111.244 Y111.294 E78.24917
G1 F277.7 X111.248 Y112.2 E78.3178
G1 F294 X111.269 Y113.121 E78.38413
G1 F335 X111.307 Y114.04 E78.44304
G1 F395.6 X111.347 Y114.411 E78.46358
G1 X111.502 Y115.828 E78.54205
G1 X111.653 Y114.411 E78.6205
G1 X111.696 Y114.002 E78.64314
