;FLAVOR:UltiGCode
;TIME:9617
;MATERIAL:17207
;MATERIAL2:0
;NOZZLE_DIAMETER:0.4
;MINX:84.69
;MINY:53.795
;MINZ:0.3
;MAXX:136.132
;MAXY:169.205
;MAXZ:24.45
;Generated with Cura_SteamEngine 5.4.0
M82 ;absolute extrusion mode
G0 F3000 Y50 ;avoid prime blob
G92 E0
G92 E0
G10
;LAYER_COUNT:162
;LAYER:0
M107
G0 F7200 X86.012 Y67.865 Z0.3
;TYPE:SKIRT
G11
G1 F900 X87.92 Y65.714 E0.34503
G1 X90.911 Y64.488 E0.73294
G1 X92.806 Y64.357 E0.96088
G1 X93.537 Y62.224 E1.23145
G1 X94.356 Y60.674 E1.44182
G1 X94.811 Y59.973 E1.54211
G1 X96.166 Y58.296 E1.80083
G1 X97.824 Y56.752 E2.0727
G1 X98.443 Y56.286 E2.16568
G1 X100.118 Y55.266 E2.40101
G1 X101.694 Y54.53 E2.60974
G1 X103.743 Y53.795 E2.87096
G1 X129.702 Y53.795 E5.98604
G1 X132.32 Y54.685 E6.31786
G1 X132.636 Y54.885 E6.36273
G1 X135.129 Y57.452 E6.79213
G1 X136.132 Y60.524 E7.17992
G1 X136.132 Y162.384 E19.40312
G1 X135.712 Y164.312 E19.63991
G1 X134.602 Y166.132 E19.89572
G1 X132.456 Y168.214 E20.25452
G1 X129.399 Y169.205 E20.64016
G1 X103.529 Y169.205 E23.74456
G1 X100.798 Y168.126 E24.09693
G1 X99.596 Y167.483 E24.26051
G1 X89.922 Y164.758 E25.46657
G1 X88.004 Y163.738 E25.72725
G1 X86.677 Y162.181 E25.97274
G1 X85.291 Y159.61 E26.32324
G1 X85.186 Y156.433 E26.70468
G1 X91.011 Y135.749 E29.28331
G1 X85.455 Y115.122 E31.84677
G1 X85.362 Y113.201 E32.07756
G1 X85.952 Y111.153 E32.33332
G1 X87.503 Y108.56 E32.69589
G1 X90.157 Y106.829 E33.07613
G1 X92.186 Y106.284 E33.32824
G1 X92.186 Y100.971 E33.9658
G1 X91.467 Y100.863 E34.05304
G1 X89.685 Y99.854 E34.29878
G1 X87.534 Y97.946 E34.64382
G1 X86.307 Y94.955 E35.03177
G1 X84.69 Y71.747 E37.82348
G1 X85.003 Y69.647 E38.07826
G1 X86.012 Y67.865 E38.324
G0 F7200 X86.34 Y68.097
G1 F900 X88.157 Y66.049 E38.65254
G1 X91.003 Y64.883 E39.02161
G1 X93.099 Y64.738 E39.27373
G1 X93.891 Y62.411 E39.5687
G1 X94.692 Y60.892 E39.77478
G1 X95.147 Y60.191 E39.87506
G1 X96.477 Y58.548 E40.12872
G1 X98.065 Y57.072 E40.38889
G1 X98.684 Y56.606 E40.48186
G1 X100.287 Y55.628 E40.7072
G1 X101.829 Y54.907 E40.91146
G1 X103.814 Y54.195 E41.16452
G1 X129.635 Y54.195 E44.26304
G1 X132.191 Y55.064 E44.58701
G1 X132.349 Y55.164 E44.60945
G1 X134.778 Y57.665 E45.02781
G1 X135.732 Y60.587 E45.39667
G1 X135.732 Y162.34 E57.60703
G1 X135.335 Y164.163 E57.83092
G1 X134.289 Y165.878 E58.07197
G1 X132.244 Y167.862 E58.41389
G1 X129.335 Y168.805 E58.78085
G1 X103.605 Y168.805 E61.86845
G1 X100.987 Y167.773 E62.20614
G1 X99.749 Y167.111 E62.3746
G1 X90.072 Y164.385 E63.58104
G1 X88.258 Y163.42 E63.8276
G1 X87.01 Y161.956 E64.05845
G1 X85.688 Y159.503 E64.39284
G1 X85.588 Y156.481 E64.75568
G1 X91.426 Y135.752 E67.33993
G1 X85.853 Y115.063 E69.9111
G1 X85.765 Y113.246 E70.1294
G1 X86.322 Y111.313 E70.37079
G1 X87.798 Y108.846 E70.71577
G1 X90.324 Y107.198 E71.0777
G1 X92.586 Y106.59 E71.35877
G1 X92.586 Y100.626 E72.07445
G1 X91.598 Y100.478 E72.19434
G1 X89.917 Y99.526 E72.42616
G1 X87.869 Y97.709 E72.7547
G1 X86.702 Y94.863 E73.12382
G1 X85.092 Y71.765 E75.9023
G1 X85.388 Y69.778 E76.14337
G1 X86.34 Y68.097 E76.3752
G0 F7200 X86.666 Y68.332
G1 F900 X88.395 Y66.384 E76.68775
G1 X91.095 Y65.278 E77.03788
G1 X93.393 Y65.119 E77.3143
G1 X94.245 Y62.597 E77.63375
G1 X95.028 Y61.11 E77.83541
G1 X95.483 Y60.409 E77.9357
G1 X96.75 Y58.841 E78.17761
G1 X98.306 Y57.392 E78.43275
G1 X98.925 Y56.926 E78.52573
G1 X100.457 Y55.99 E78.74117
G1 X101.964 Y55.284 E78.94087
G1 X103.885 Y54.595 E79.18577
G1 X129.568 Y54.595 E82.26773
G1 X132.062 Y55.443 E82.58383
G1 X134.427 Y57.878 E82.99117
G1 X135.332 Y60.65 E83.34109
G1 X135.332 Y162.296 E95.53861
G1 X134.958 Y164.014 E95.7496
G1 X133.976 Y165.624 E95.9759
G1 X132.032 Y167.51 E96.30092
G1 X129.271 Y168.405 E96.64921
G1 X103.681 Y168.405 E99.72001
G1 X101.134 Y167.401 E100.04854
G1 X99.898 Y166.738 E100.21685
G1 X90.222 Y164.012 E101.42317
G1 X88.513 Y163.103 E101.65546
G1 X87.342 Y161.728 E101.87219
G1 X86.085 Y159.396 E102.19009
G1 X85.99 Y156.529 E102.53432
G1 X91.841 Y135.755 E105.12419
G1 X86.251 Y115.004 E107.70308
G1 X86.168 Y113.291 E107.90888
G1 X86.692 Y111.473 E108.13592
G1 X88.093 Y109.132 E108.46331
G1 X90.491 Y107.567 E108.80693
G1 X92.986 Y106.897 E109.11693
G1 X92.986 Y100.281 E109.91085
G1 X91.729 Y100.093 E110.06337
G1 X90.152 Y99.2 E110.28084
G1 X88.204 Y97.471 E110.5934
G1 X87.097 Y94.771 E110.94358
G1 X85.494 Y71.783 E113.70883
G1 X85.773 Y69.909 E113.93619
G1 X86.666 Y68.332 E114.15367
G0 F7200 X86.992 Y68.567
G1 F900 X88.633 Y66.719 E114.45024
G1 X91.187 Y65.673 E114.78143
G1 X93.687 Y65.5 E115.08214
G1 X94.624 Y62.725 E115.43362
G1 X95.364 Y61.328 E115.62332
G1 X95.819 Y60.627 E115.72361
G1 X97.061 Y59.093 E115.96046
G1 X98.547 Y57.712 E116.2039
G1 X99.166 Y57.246 E116.29687
G1 X100.665 Y56.332 E116.50755
G1 X102.099 Y55.661 E116.69754
G1 X103.956 Y54.995 E116.93428
G1 X129.501 Y54.995 E119.99968
G1 X131.842 Y55.791 E120.29639
G1 X134.076 Y58.091 E120.68116
G1 X134.932 Y60.713 E121.01214
G1 X134.932 Y162.252 E133.19682
G1 X134.581 Y163.865 E133.39491
G1 X133.663 Y165.37 E133.60645
G1 X131.82 Y167.158 E133.91459
G1 X129.207 Y168.005 E134.24421
G1 X103.756 Y168.005 E137.29833
G1 X101.323 Y167.048 E137.61207
G1 X100.051 Y166.366 E137.78526
G1 X90.372 Y163.639 E138.99196
G1 X88.769 Y162.786 E139.20986
G1 X87.674 Y161.5 E139.41254
G1 X86.482 Y159.289 E139.71397
G1 X86.392 Y156.577 E140.03958
G1 X92.256 Y135.758 E142.63507
G1 X86.649 Y114.945 E145.22168
G1 X86.571 Y113.336 E145.41498
G1 X87.062 Y111.633 E145.62767
G1 X88.388 Y109.416 E145.93766
G1 X90.656 Y107.937 E146.26258
G1 X93.386 Y107.204 E146.60178
G1 X93.386 Y99.936 E147.47394
G1 X91.86 Y99.708 E147.65909
G1 X90.387 Y98.874 E147.86222
G1 X88.539 Y97.233 E148.15879
G1 X87.492 Y94.679 E148.49003
G1 X85.896 Y71.801 E151.24206
G1 X86.158 Y70.04 E151.4557
G1 X86.992 Y68.567 E151.65883
G0 F7200 X87.318 Y68.802
G1 F900 X88.871 Y67.054 E151.93942
G1 X91.279 Y66.067 E152.25171
G1 X94.04 Y65.877 E152.58381
G1 X94.105 Y65.512 E152.6283
G1 X94.978 Y62.912 E152.95742
G1 X95.7 Y61.546 E153.14283
G1 X96.155 Y60.845 E153.24311
G1 X97.334 Y59.386 E153.46821
G1 X98.788 Y58.032 E153.70663
G1 X99.407 Y57.566 E153.79961
G1 X100.835 Y56.694 E154.00039
G1 X102.234 Y56.038 E154.18581
G1 X104.027 Y55.395 E154.41439
G1 X129.434 Y55.395 E157.46323
G1 X131.622 Y56.139 E157.74055
G1 X133.725 Y58.304 E158.10274
G1 X134.532 Y60.776 E158.41479
G1 X134.532 Y162.208 E170.58663
G1 X134.204 Y163.716 E170.77182
G1 X133.35 Y165.116 E170.96861
G1 X131.608 Y166.806 E171.25986
G1 X129.143 Y167.605 E171.57081
G1 X103.831 Y167.605 E174.60825
G1 X101.512 Y166.695 E174.90719
G1 X100.204 Y165.994 E175.08527
G1 X90.522 Y163.266 E176.29235
G1 X89.025 Y162.469 E176.49586
G1 X88.006 Y161.272 E176.6845
G1 X86.879 Y159.182 E176.96944
G1 X86.794 Y156.625 E177.27645
G1 X92.671 Y135.761 E179.87756
G1 X87.047 Y114.886 E182.47188
G1 X86.974 Y113.381 E182.65269
G1 X87.432 Y111.793 E182.85102
G1 X88.683 Y109.702 E183.14341
G1 X90.823 Y108.306 E183.45002
G1 X93.786 Y107.51 E183.81819
G1 X93.786 Y99.591 E184.76847
G1 X91.991 Y99.323 E184.98626
G1 X90.622 Y98.548 E185.17503
G1 X88.874 Y96.995 E185.45562
G1 X87.887 Y94.587 E185.76791
G1 X86.298 Y71.818 E188.50684
G1 X86.543 Y70.171 E188.70665
G1 X87.318 Y68.802 E188.89543
G0 F7200 X87.644 Y69.037
G1 F900 X89.109 Y67.389 E189.16003
G1 X91.371 Y66.462 E189.45338
G1 X94.384 Y66.254 E189.8158
G1 X94.484 Y65.639 E189.89057
G1 X95.332 Y63.099 E190.21191
G1 X96.036 Y61.764 E190.39302
G1 X96.491 Y61.063 E190.49331
G1 X97.645 Y59.638 E190.71335
G1 X99.029 Y58.352 E190.94006
G1 X99.648 Y57.886 E191.03303
G1 X101.043 Y57.036 E191.22906
G1 X102.369 Y56.415 E191.40477
G1 X104.098 Y55.795 E191.62518
G1 X129.367 Y55.795 E194.65746
G1 X131.402 Y56.487 E194.9154
G1 X133.374 Y58.517 E195.25501
G1 X134.132 Y60.839 E195.54812
G1 X134.132 Y162.164 E207.70712
G1 X133.827 Y163.567 E207.87942
G1 X133.037 Y164.862 E208.06145
G1 X131.396 Y166.454 E208.33581
G1 X129.079 Y167.205 E208.62809
G1 X103.908 Y167.205 E211.64861
G1 X101.701 Y166.342 E211.93298
G1 X100.357 Y165.622 E212.11594
G1 X90.672 Y162.893 E213.3234
G1 X89.281 Y162.152 E213.51253
G1 X88.338 Y161.044 E213.68712
G1 X87.276 Y159.075 E213.95558
G1 X87.196 Y156.673 E214.24398
G1 X93.086 Y135.764 E216.85071
G1 X87.445 Y114.827 E219.45274
G1 X87.377 Y113.426 E219.62106
G1 X87.802 Y111.953 E219.80503
G1 X88.978 Y109.988 E220.07983
G1 X90.99 Y108.675 E220.36814
G1 X94.186 Y107.817 E220.76524
G1 X94.186 Y99.129 E221.8078
G1 X93.609 Y99.16 E221.87714
G1 X92.122 Y98.938 E222.05755
G1 X90.857 Y98.222 E222.23198
G1 X89.209 Y96.757 E222.49659
G1 X88.282 Y94.495 E222.78994
G1 X86.7 Y71.835 E225.51575
G1 X86.928 Y70.302 E225.70174
G1 X87.644 Y69.037 E225.87617
G0 F7200 X87.97 Y69.272
G1 F900 X89.347 Y67.724 E226.12479
G1 X91.463 Y66.857 E226.39919
G1 X94.728 Y66.631 E226.79193
G1 X94.879 Y65.703 E226.90476
G1 X95.686 Y63.285 E227.21065
G1 X96.372 Y61.982 E227.38736
G1 X96.827 Y61.281 E227.48764
G1 X97.918 Y59.931 E227.69593
G1 X99.27 Y58.672 E227.91762
G1 X99.889 Y58.206 E228.0106
G1 X101.213 Y57.398 E228.19673
G1 X102.504 Y56.792 E228.36786
G1 X104.169 Y56.195 E228.58012
G1 X129.3 Y56.195 E231.59584
G1 X131.182 Y56.835 E231.83438
G1 X133.023 Y58.73 E232.15142
G1 X133.732 Y60.902 E232.4256
G1 X133.732 Y162.12 E244.57176
G1 X133.45 Y163.418 E244.73115
G1 X132.724 Y164.608 E244.89843
G1 X131.184 Y166.102 E245.1559
G1 X129.015 Y166.805 E245.42951
G1 X103.984 Y166.805 E248.43323
G1 X101.89 Y165.989 E248.70292
G1 X100.649 Y165.324 E248.87187
G1 X100.553 Y165.262 E248.88559
G1 X90.822 Y162.52 E250.09878
G1 X89.537 Y161.835 E250.27352
G1 X88.67 Y160.816 E250.43407
G1 X87.673 Y158.968 E250.68605
G1 X87.598 Y156.721 E250.95584
G1 X93.501 Y135.767 E253.56819
G1 X87.843 Y114.768 E256.17793
G1 X87.78 Y113.471 E256.33376
G1 X88.172 Y112.113 E256.50337
G1 X89.273 Y110.272 E256.76078
G1 X91.155 Y109.045 E257.03038
G1 X94.586 Y108.123 E257.45671
G1 X94.586 Y98.701 E258.58735
G1 X93.668 Y98.764 E258.69777
G1 X92.253 Y98.553 E258.86945
G1 X91.092 Y97.896 E259.02953
G1 X89.544 Y96.519 E259.27815
G1 X88.677 Y94.403 E259.55255
G1 X87.102 Y71.852 E262.26527
G1 X87.313 Y70.433 E262.43742
G1 X87.97 Y69.272 E262.5975
G0 F7200 X88.296 Y69.507
G1 F900 X89.585 Y68.059 E262.83013
G1 X91.555 Y67.252 E263.0856
G1 X95.072 Y67.008 E263.50865
G1 X95.274 Y65.767 E263.65953
G1 X96.04 Y63.471 E263.94998
G1 X96.708 Y62.2 E264.12228
G1 X97.163 Y61.499 E264.22257
G1 X98.229 Y60.183 E264.4258
G1 X99.511 Y58.992 E264.63578
G1 X100.13 Y58.526 E264.72876
G1 X101.383 Y57.76 E264.90499
G1 X102.639 Y57.169 E265.07156
G1 X104.24 Y56.595 E265.27566
G1 X129.233 Y56.595 E268.27482
G1 X130.962 Y57.183 E268.49397
G1 X132.672 Y58.943 E268.78844
G1 X133.332 Y60.965 E269.04367
G1 X133.332 Y162.076 E281.17699
G1 X133.073 Y163.269 E281.32349
G1 X132.411 Y164.354 E281.47601
G1 X130.972 Y165.75 E281.7166
G1 X128.951 Y166.405 E281.97153
G1 X104.06 Y166.405 E284.95845
G1 X102.079 Y165.636 E285.21346
G1 X100.838 Y164.971 E285.38241
G1 X100.721 Y164.894 E285.39922
G1 X90.972 Y162.147 E286.61465
G1 X89.791 Y161.517 E286.77528
G1 X89.003 Y160.592 E286.92109
G1 X88.07 Y158.861 E287.15707
G1 X88 Y156.769 E287.40825
G1 X93.916 Y135.77 E290.02622
G1 X88.241 Y114.709 E292.64368
G1 X88.183 Y113.516 E292.78701
G1 X88.542 Y112.273 E292.94227
G1 X89.568 Y110.558 E293.18208
G1 X91.322 Y109.414 E293.43338
G1 X94.986 Y108.43 E293.88863
G1 X94.986 Y98.273 E295.10747
G1 X93.686 Y98.362 E295.26384
G1 X92.384 Y98.168 E295.4218
G1 X91.327 Y97.57 E295.56754
G1 X89.879 Y96.281 E295.80017
G1 X89.072 Y94.311 E296.05564
G1 X87.504 Y71.869 E298.75524
G1 X87.698 Y70.564 E298.91356
G1 X88.296 Y69.507 E299.0593
G0 F7200 X88.622 Y69.742
G1 F900 X89.823 Y68.394 E299.27594
G1 X91.647 Y67.647 E299.51247
G1 X95.416 Y67.385 E299.96584
G1 X95.669 Y65.831 E300.15478
G1 X96.394 Y63.657 E300.42978
G1 X97.044 Y62.418 E300.59768
G1 X97.499 Y61.717 E300.69796
G1 X98.502 Y60.476 E300.88944
G1 X99.752 Y59.312 E301.09441
G1 X100.371 Y58.846 E301.18738
G1 X101.591 Y58.102 E301.35886
G1 X102.774 Y57.546 E301.51572
G1 X104.311 Y56.995 E301.71165
G1 X129.166 Y56.995 E304.69425
G1 X130.742 Y57.531 E304.89401
G1 X132.321 Y59.156 E305.1659
G1 X132.932 Y61.028 E305.40221
G1 X132.932 Y162.032 E317.52269
G1 X132.696 Y163.12 E317.65628
G1 X132.098 Y164.1 E317.79405
G1 X130.76 Y165.398 E318.01775
G1 X128.887 Y166.005 E318.25401
G1 X104.135 Y166.005 E321.22425
G1 X102.224 Y165.263 E321.47025
G1 X101.058 Y164.637 E321.62906
G1 X100.889 Y164.526 E321.65333
G1 X91.122 Y161.774 E322.871
G1 X90.047 Y161.2 E323.01724
G1 X89.335 Y160.364 E323.14901
G1 X88.467 Y158.754 E323.3685
G1 X88.402 Y156.817 E323.60107
G1 X94.331 Y135.773 E326.22467
G1 X88.639 Y114.65 E328.84984
G1 X88.586 Y113.561 E328.98068
G1 X88.912 Y112.433 E329.12158
G1 X89.863 Y110.844 E329.3438
G1 X91.489 Y109.783 E329.57679
G1 X95.386 Y108.736 E330.06101
G1 X95.386 Y97.844 E331.36805
G1 X93.704 Y97.96 E331.57037
G1 X92.515 Y97.783 E331.71462
G1 X91.562 Y97.244 E331.846
G1 X90.214 Y96.043 E332.06265
G1 X89.467 Y94.219 E332.29918
G1 X87.906 Y71.886 E334.98568
G1 X88.083 Y70.695 E335.13017
G1 X88.622 Y69.742 E335.26155
G0 F7200 X88.948 Y69.977
G1 F900 X90.061 Y68.729 E335.46221
G1 X91.739 Y68.042 E335.6798
G1 X95.822 Y67.758 E336.17094
G1 X95.858 Y67.161 E336.24271
G1 X96.064 Y65.895 E336.39663
G1 X96.748 Y63.843 E336.65619
G1 X97.38 Y62.636 E336.81968
G1 X97.835 Y61.935 E336.91997
G1 X98.813 Y60.728 E337.10639
G1 X99.993 Y59.632 E337.29964
G1 X100.612 Y59.166 E337.39262
G1 X101.762 Y58.464 E337.5543
G1 X102.909 Y57.923 E337.70648
G1 X104.382 Y57.395 E337.89426
G1 X129.099 Y57.395 E340.8603
G1 X130.522 Y57.879 E341.04066
G1 X131.97 Y59.369 E341.28999
G1 X132.532 Y61.091 E341.50735
G1 X132.532 Y161.988 E353.61499
G1 X132.319 Y162.969 E353.73546
G1 X131.783 Y163.848 E353.859
G1 X130.547 Y165.047 E354.06564
G1 X128.826 Y165.605 E354.28274
G1 X104.209 Y165.605 E357.23678
G1 X102.413 Y164.91 E357.46788
G1 X101.277 Y164.302 E357.62249
G1 X101.057 Y164.158 E357.65405
G1 X91.271 Y161.4 E358.87411
G1 X90.303 Y160.883 E359.0058
G1 X89.667 Y160.136 E359.12353
G1 X88.864 Y158.647 E359.32654
G1 X88.804 Y156.865 E359.5405
G1 X94.746 Y135.776 E362.16971
G1 X89.037 Y114.591 E364.8026
G1 X88.989 Y113.606 E364.92094
G1 X89.282 Y112.593 E365.04749
G1 X90.158 Y111.13 E365.25211
G1 X91.656 Y110.152 E365.46679
G1 X95.786 Y109.043 E365.97995
G1 X95.786 Y97.415 E367.37531
G1 X93.722 Y97.558 E367.62358
G1 X92.646 Y97.398 E367.75412
G1 X91.797 Y96.918 E367.87116
G1 X90.549 Y95.805 E368.07182
G1 X89.862 Y94.127 E368.2894
G1 X88.308 Y71.903 E370.9628
G1 X88.468 Y70.826 E371.09345
G1 X88.948 Y69.977 E371.21049
G0 F7200 X89.276 Y70.209
G1 F900 X90.297 Y69.065 E371.39449
G1 X91.831 Y68.437 E371.5934
G1 X96.2 Y68.133 E372.11895
G1 X96.253 Y67.225 E372.22809
G1 X96.459 Y65.959 E372.38201
G1 X97.103 Y64.028 E372.62628
G1 X97.716 Y62.854 E372.78521
G1 X98.171 Y62.153 E372.88549
G1 X99.085 Y61.021 E373.06009
G1 X100.234 Y59.952 E373.24841
G1 X100.853 Y59.486 E373.34139
G1 X101.97 Y58.806 E373.49831
G1 X103.044 Y58.3 E373.64078
G1 X104.453 Y57.795 E373.82039
G1 X129.032 Y57.795 E376.76987
G1 X130.302 Y58.227 E376.93085
G1 X131.619 Y59.582 E377.1576
G1 X132.132 Y61.154 E377.35603
G1 X132.132 Y161.944 E389.45083
G1 X131.942 Y162.818 E389.55816
G1 X131.468 Y163.596 E389.66748
G1 X130.334 Y164.696 E389.85706
G1 X128.765 Y165.205 E390.055
G1 X104.283 Y165.205 E392.99284
G1 X102.557 Y164.537 E393.21493
G1 X101.496 Y163.967 E393.35946
G1 X101.226 Y163.79 E393.3982
G1 X91.424 Y161.028 E394.62025
G1 X90.558 Y160.565 E394.73809
G1 X89.999 Y159.908 E394.8416
G1 X89.261 Y158.54 E395.02813
G1 X89.206 Y156.912 E395.2236
G1 X95.161 Y135.779 E397.85832
G1 X89.435 Y114.532 E400.49893
G1 X89.392 Y113.651 E400.60477
G1 X89.651 Y112.755 E400.71669
G1 X90.454 Y111.415 E400.90416
G1 X91.823 Y110.521 E401.10036
G1 X96.186 Y109.35 E401.64245
G1 X96.186 Y96.986 E403.12613
G1 X93.74 Y97.156 E403.42036
G1 X92.777 Y97.013 E403.53719
G1 X92.029 Y96.59 E403.6403
G1 X90.885 Y95.569 E403.82431
G1 X90.257 Y94.035 E404.02322
G1 X88.71 Y71.92 E406.6835
G1 X88.853 Y70.957 E406.80033
G1 X89.276 Y70.209 E406.90345
G0 F7200 X89.604 Y70.441
