;START_OF_HEADER
;HEADER_VERSION:0.1
;FLAVOR:Griffin
;GENERATOR.NAME:Cura_SteamEngine
;GENERATOR.VERSION:5.4.0
;GENERATOR.BUILD_DATE:2023-07-04
;TARGET_MACHINE.NAME:Ultimaker 3
;EXTRUDER_TRAIN.0.INITIAL_TEMPERATURE:200
;EXTRUDER_TRAIN.0.MATERIAL.VOLUME_USED:9074
;EXTRUDER_TRAIN.0.MATERIAL.GUID:506c9f0d-e3aa-4bd4-b2d2-23e2425b1aa9
;EXTRUDER_TRAIN.0.NOZZLE.DIAMETER:0.4
;EXTRUDER_TRAIN.0.NOZZLE.NAME:AA 0.4
;BUILD_PLATE.INITIAL_TEMPERATURE:60
;PRINT.TIME:5573
;PRINT.GROUPS:1
;PRINT.SIZE.MIN.X:9
;PRINT.SIZE.MIN.Y:6
;PRINT.SIZE.MIN.Z:0.2
;PRINT.SIZE.MAX.X:140.074
;PRINT.SIZE.MAX.Y:134.079
;PRINT.SIZE.MAX.Z:32.15
;SLICE_UUID:f41a8c1f-a4c5-494f-be26-e547b9348fc7
;END_OF_HEADER
;Generated with Cura_SteamEngine 5.4.0
T0
M82 ;absolute extrusion mode

G92 E0
M109 S200
G0 F15000 X9 Y6 Z2
G280
G1 F1500 E-6.5
;LAYER_COUNT:214
;LAYER:0
M106 S255
M204 S1000
M205 X20 Y20
G1 F600 Z2.2
G0 F15000 X103.242 Y94.208 Z2.2
;TYPE:SKIRT
G1 F600 Z0.2
G1 F1500 E0
G1 F1350 X106.04 Y91.9 E0.04548
G1 X109.348 Y90.143 E0.09246
G1 X112.845 Y89.086 E0.13827
G1 X116.521 Y88.723 E0.18459
G1 X120.174 Y89.086 E0.23063
G1 X123.713 Y90.163 E0.27702
G1 X126.935 Y91.891 E0.32287
G1 X129.785 Y94.238 E0.36917
G1 X132.098 Y97.044 E0.41477
G1 X133.856 Y100.346 E0.46168
G1 X134.913 Y103.844 E0.50751
G1 X135.277 Y107.533 E0.55399
G1 X134.913 Y111.168 E0.5998
G1 X133.835 Y114.718 E0.64633
G1 X132.113 Y117.929 E0.69202
G1 X129.761 Y120.785 E0.73842
G1 X126.973 Y123.078 E0.78369
G1 X123.654 Y124.863 E0.83095
G1 X120.14 Y125.916 E0.87695
G1 X116.475 Y126.277 E0.92313
G1 X112.807 Y125.916 E0.96935
G1 X109.355 Y124.862 E1.01461
G1 X106.006 Y123.063 E1.06229
G1 X103.21 Y120.757 E1.10774
G1 X100.91 Y117.96 E1.15315
G1 X99.14 Y114.667 E1.20003
G1 X98.084 Y111.141 E1.24619
G1 X97.722 Y107.485 E1.29226
G1 X98.084 Y103.804 E1.33864
G1 X99.14 Y100.345 E1.384
G1 X100.927 Y97.018 E1.43136
G1 X103.242 Y94.208 E1.47701
G0 F15000 X103.526 Y94.492
G1 F1350 X106.264 Y92.234 E1.52152
G1 X109.5 Y90.515 E1.56747
G1 X112.925 Y89.48 E1.61234
G1 X116.52 Y89.125 E1.65764
G1 X120.094 Y89.48 E1.70268
G1 X123.558 Y90.534 E1.74809
G1 X126.713 Y92.226 E1.79298
G1 X129.501 Y94.522 E1.83828
G1 X131.764 Y97.268 E1.8829
G1 X133.484 Y100.498 E1.92879
G1 X134.519 Y103.924 E1.97367
G1 X134.875 Y107.532 E2.01913
G1 X134.519 Y111.088 E2.06395
G1 X133.463 Y114.567 E2.10954
G1 X131.781 Y117.703 E2.15417
G1 X129.477 Y120.501 E2.19962
G1 X126.747 Y122.746 E2.24395
G1 X123.502 Y124.491 E2.29015
G1 X120.062 Y125.522 E2.33519
G1 X116.475 Y125.875 E2.38039
G1 X112.889 Y125.522 E2.42557
G1 X109.505 Y124.489 E2.46994
G1 X106.232 Y122.731 E2.51653
G1 X103.494 Y120.473 E2.56104
G1 X101.242 Y117.734 E2.60551
G1 X99.512 Y114.515 E2.65133
G1 X98.478 Y111.063 E2.69652
G1 X98.124 Y107.485 E2.74161
G1 X98.478 Y103.886 E2.78696
G1 X99.513 Y100.495 E2.83142
G1 X101.259 Y97.244 E2.8777
G1 X103.526 Y94.492 E2.92241
G0 F15000 X103.808 Y94.779
G1 F1350 X106.49 Y92.567 E2.96601
G1 X109.652 Y90.887 E3.01091
G1 X113.005 Y89.874 E3.05484
G1 X116.519 Y89.527 E3.09912
G1 X120.014 Y89.874 E3.14316
G1 X123.403 Y90.905 E3.18759
G1 X126.491 Y92.561 E3.23153
G1 X129.217 Y94.806 E3.27581
G1 X131.43 Y97.492 E3.31946
G1 X133.112 Y100.65 E3.36432
G1 X134.125 Y104.004 E3.40826
G1 X134.473 Y107.531 E3.45271
G1 X134.125 Y111.008 E3.49653
G1 X133.092 Y114.412 E3.54114
G1 X131.446 Y117.481 E3.58481
G1 X129.193 Y120.217 E3.62926
G1 X126.521 Y122.414 E3.67264
G1 X123.35 Y124.119 E3.71779
G1 X119.984 Y125.128 E3.76185
G1 X116.475 Y125.473 E3.80607
G1 X112.971 Y125.128 E3.85022
G1 X109.655 Y124.116 E3.8937
G1 X106.458 Y122.399 E3.93921
G1 X103.778 Y120.189 E3.98277
G1 X101.574 Y117.508 E4.02629
G1 X99.884 Y114.363 E4.07106
G1 X98.872 Y110.985 E4.11529
G1 X98.526 Y107.485 E4.15939
G1 X98.872 Y103.968 E4.20371
G1 X99.886 Y100.645 E4.24728
G1 X101.591 Y97.47 E4.29247
G1 X103.808 Y94.779 E4.33619
G0 F15000 X104.09 Y95.066
G1 F1350 X106.716 Y92.9 E4.37888
G1 X109.804 Y91.259 E4.42274
G1 X113.085 Y90.268 E4.46572
G1 X116.518 Y89.929 E4.50898
G1 X119.934 Y90.268 E4.55202
G1 X123.252 Y91.277 E4.59552
G1 X126.265 Y92.893 E4.63839
G1 X128.933 Y95.09 E4.68173
G1 X131.096 Y97.716 E4.7244
G1 X132.74 Y100.802 E4.76824
G1 X133.731 Y104.084 E4.81124
G1 X134.071 Y107.53 E4.85466
G1 X133.731 Y110.928 E4.89749
G1 X132.721 Y114.257 E4.94111
G1 X131.111 Y117.259 E4.98383
G1 X128.909 Y119.933 E5.02727
G1 X126.295 Y122.082 E5.06971
G1 X123.198 Y123.747 E5.1138
G1 X119.906 Y124.734 E5.1569
G1 X116.475 Y125.071 E5.20013
G1 X113.053 Y124.734 E5.24325
G1 X109.805 Y123.743 E5.28584
G1 X106.684 Y122.067 E5.33026
G1 X104.062 Y119.905 E5.37288
G1 X101.906 Y117.282 E5.41546
G1 X100.256 Y114.211 E5.45918
G1 X99.266 Y110.907 E5.50243
G1 X98.928 Y107.485 E5.54555
G1 X99.266 Y104.05 E5.58884
G1 X100.259 Y100.795 E5.63151
G1 X101.923 Y97.696 E5.67562
G1 X104.09 Y95.066 E5.71836
G0 F15000 X104.374 Y95.35
G1 F1350 X106.94 Y93.234 E5.76007
G1 X109.956 Y91.631 E5.8029
G1 X113.165 Y90.662 E5.84494
G1 X116.518 Y90.331 E5.88719
G1 X119.854 Y90.662 E5.92923
G1 X123.097 Y91.648 E5.97173
G1 X126.043 Y93.228 E6.01366
G1 X128.649 Y95.374 E6.05599
G1 X130.762 Y97.94 E6.09768
G1 X132.368 Y100.954 E6.1405
G1 X133.337 Y104.164 E6.18255
G1 X133.669 Y107.529 E6.22495
G1 X133.337 Y110.848 E6.26678
G1 X132.35 Y114.102 E6.30943
G1 X130.776 Y117.037 E6.35119
G1 X128.625 Y119.649 E6.39362
G1 X126.069 Y121.75 E6.43512
G1 X123.046 Y123.375 E6.47816
G1 X119.828 Y124.34 E6.52029
G1 X116.475 Y124.669 E6.56254
G1 X113.135 Y124.34 E6.60462
G1 X109.955 Y123.37 E6.64632
G1 X106.91 Y121.735 E6.68966
G1 X104.346 Y119.621 E6.73133
G1 X102.238 Y117.056 E6.77296
G1 X100.628 Y114.059 E6.81563
G1 X99.66 Y110.829 E6.85791
G1 X99.33 Y107.485 E6.90005
G1 X99.66 Y104.132 E6.9423
G1 X100.632 Y100.945 E6.98409
G1 X102.255 Y97.922 E7.02711
G1 X104.374 Y95.35 E7.0689
G0 F15000 X104.658 Y95.634
G1 F1350 X107.164 Y93.568 E7.10963
G1 X110.108 Y92.003 E7.15145
G1 X113.245 Y91.056 E7.19254
G1 X116.518 Y90.733 E7.23378
G1 X119.774 Y91.056 E7.27481
G1 X122.942 Y92.019 E7.31634
G1 X125.821 Y93.563 E7.3573
G1 X128.365 Y95.658 E7.39863
G1 X130.428 Y98.164 E7.43934
G1 X131.996 Y101.106 E7.48114
G1 X132.943 Y104.244 E7.52225
G1 X133.267 Y107.528 E7.56363
G1 X132.943 Y110.768 E7.60446
G1 X131.979 Y113.947 E7.64612
G1 X130.441 Y116.815 E7.68693
G1 X128.341 Y119.365 E7.72836
G1 X125.843 Y121.418 E7.76891
G1 X122.894 Y123.003 E7.81089
G1 X119.75 Y123.946 E7.85205
G1 X116.475 Y124.267 E7.89332
G1 X113.217 Y123.946 E7.93438
G1 X110.105 Y122.997 E7.97518
G1 X107.136 Y121.403 E8.01743
G1 X104.63 Y119.337 E8.05816
G1 X102.57 Y116.83 E8.09885
G1 X101 Y113.907 E8.14046
G1 X100.054 Y110.751 E8.18178
G1 X99.732 Y107.485 E8.22294
G1 X100.054 Y104.214 E8.26415
G1 X101.005 Y101.095 E8.30504
G1 X102.587 Y98.148 E8.34699
G1 X104.658 Y95.634 E8.38784
G0 F15000 X104.942 Y95.918
G1 F1350 X107.388 Y93.902 E8.42758
G1 X110.26 Y92.375 E8.46837
G1 X113.325 Y91.45 E8.50852
G1 X116.518 Y91.135 E8.54876
G1 X119.694 Y91.45 E8.58878
G1 X122.787 Y92.39 E8.62932
G1 X125.599 Y93.898 E8.66934
G1 X128.081 Y95.942 E8.70966
G1 X130.094 Y98.388 E8.74938
G1 X131.624 Y101.258 E8.79017
G1 X132.549 Y104.324 E8.83033
G1 X132.865 Y107.527 E8.87069
G1 X132.549 Y110.688 E8.91053
G1 X131.608 Y113.792 E8.9512
G1 X130.106 Y116.593 E8.99106
G1 X128.057 Y119.081 E9.03148
G1 X125.617 Y121.086 E9.07108
G1 X122.742 Y122.631 E9.11201
G1 X119.672 Y123.552 E9.15221
G1 X116.475 Y123.865 E9.19249
G1 X113.299 Y123.552 E9.23251
G1 X110.255 Y122.624 E9.27242
G1 X107.362 Y121.071 E9.3136
G1 X104.914 Y119.053 E9.35338
G1 X102.902 Y116.604 E9.39313
G1 X101.372 Y113.755 E9.43368
G1 X100.448 Y110.673 E9.47403
G1 X100.134 Y107.485 E9.5142
G1 X100.448 Y104.296 E9.55439
G1 X101.378 Y101.245 E9.59438
G1 X102.919 Y98.374 E9.63525
G1 X104.942 Y95.918 E9.67515
G0 F15000 X105.226 Y96.202
G1 F1350 X107.612 Y94.236 E9.71392
G1 X110.412 Y92.747 E9.75369
G1 X113.405 Y91.844 E9.79289
G1 X116.518 Y91.537 E9.83212
G1 X119.614 Y91.844 E9.87114
G1 X122.636 Y92.762 E9.91074
G1 X125.373 Y94.23 E9.94969
G1 X127.797 Y96.226 E9.98907
G1 X129.76 Y98.612 E10.02781
G1 X131.252 Y101.41 E10.06758
G1 X132.155 Y104.404 E10.1068
G1 X132.463 Y107.526 E10.14614
G1 X132.155 Y110.608 E10.18498
G1 X131.237 Y113.637 E10.22467
G1 X129.771 Y116.371 E10.26357
G1 X127.773 Y118.797 E10.30299
G1 X125.391 Y120.754 E10.34164
G1 X122.59 Y122.259 E10.38152
G1 X119.594 Y123.158 E10.42075
G1 X116.475 Y123.463 E10.46005
G1 X113.381 Y123.158 E10.49903
G1 X110.405 Y122.251 E10.53805
G1 X107.588 Y120.739 E10.57814
G1 X105.198 Y118.769 E10.61698
G1 X103.234 Y116.378 E10.65579
G1 X101.744 Y113.603 E10.69528
G1 X100.842 Y110.595 E10.73466
G1 X100.536 Y107.485 E10.77385
G1 X100.842 Y104.378 E10.813
G1 X101.751 Y101.395 E10.85211
G1 X103.251 Y98.6 E10.89189
G1 X105.226 Y96.202 E10.93085
G0 F15000 X105.51 Y96.486
G1 F1350 X107.836 Y94.57 E10.96864
G1 X110.565 Y93.118 E11.0074
G1 X113.483 Y92.238 E11.04562
G1 X116.518 Y91.939 E11.08387
G1 X119.534 Y92.238 E11.12188
G1 X122.481 Y93.133 E11.1605
G1 X125.151 Y94.565 E11.19849
G1 X127.513 Y96.51 E11.23686
G1 X129.426 Y98.836 E11.27463
G1 X130.881 Y101.564 E11.3134
G1 X131.761 Y104.482 E11.35162
G1 X132.061 Y107.525 E11.38997
G1 X131.761 Y110.528 E11.42781
G1 X130.866 Y113.482 E11.46652
G1 X129.436 Y116.149 E11.50447
G1 X127.489 Y118.513 E11.54288
G1 X125.165 Y120.422 E11.58059
G1 X122.438 Y121.887 E11.61941
G1 X119.516 Y122.764 E11.65767
G1 X116.475 Y123.061 E11.69599
G1 X113.463 Y122.764 E11.73394
G1 X110.555 Y121.878 E11.77206
G1 X107.814 Y120.407 E11.81107
G1 X105.482 Y118.485 E11.84897
G1 X103.566 Y116.152 E11.88683
G1 X102.116 Y113.451 E11.92527
G1 X101.236 Y110.517 E11.96369
G1 X100.938 Y107.485 E12.00189
G1 X101.236 Y104.46 E12.04001
G1 X102.124 Y101.545 E12.07822
G1 X103.583 Y98.826 E12.11692
G1 X105.51 Y96.486 E12.15493
G0 F15000 X105.794 Y96.77
G1 F1350 X108.06 Y94.904 E12.19175
G1 X110.718 Y93.489 E12.22951
G1 X113.561 Y92.632 E12.26674
G1 X116.518 Y92.341 E12.304
G1 X119.454 Y92.632 E12.341
G1 X122.326 Y93.504 E12.37864
G1 X124.929 Y94.9 E12.41568
G1 X127.229 Y96.794 E12.45305
G1 X129.092 Y99.06 E12.48983
G1 X130.51 Y101.718 E12.52761
G1 X131.367 Y104.56 E12.56484
G1 X131.659 Y107.524 E12.60219
G1 X131.367 Y110.448 E12.63904
G1 X130.495 Y113.327 E12.67676
G1 X129.101 Y115.927 E12.71376
G1 X127.205 Y118.229 E12.75116
G1 X124.939 Y120.09 E12.78793
G1 X122.286 Y121.515 E12.82569
G1 X119.438 Y122.37 E12.86298
G1 X116.475 Y122.659 E12.90032
G1 X113.545 Y122.37 E12.93724
G1 X110.705 Y121.505 E12.97447
G1 X108.04 Y120.075 E13.0124
G1 X105.766 Y118.201 E13.04935
G1 X103.898 Y115.927 E13.08625
G1 X102.488 Y113.299 E13.12365
G1 X101.63 Y110.439 E13.1611
G1 X101.34 Y107.485 E13.19832
G1 X101.63 Y104.542 E13.2354
G1 X102.497 Y101.695 E13.27273
G1 X103.915 Y99.052 E13.31034
G1 X105.794 Y96.77 E13.34741
G0 F15000 X106.078 Y97.054
G1 F1350 X108.284 Y95.238 E13.38324
G1 X110.871 Y93.86 E13.42
G1 X113.639 Y93.026 E13.45625
G1 X116.518 Y92.743 E13.49253
G1 X119.374 Y93.026 E13.52852
G1 X122.171 Y93.875 E13.56518
G1 X124.707 Y95.235 E13.60126
G1 X126.945 Y97.078 E13.63762
G1 X128.758 Y99.284 E13.67343
G1 X130.139 Y101.872 E13.71021
G1 X130.973 Y104.638 E13.74644
G1 X131.257 Y107.523 E13.7828
G1 X130.973 Y110.369 E13.81866
G1 X130.124 Y113.172 E13.85539
G1 X128.766 Y115.705 E13.89143
G1 X126.921 Y117.945 E13.92782
G1 X124.713 Y119.758 E13.96365
G1 X122.134 Y121.143 E14.00036
G1 X119.36 Y121.976 E14.03668
G1 X116.475 Y122.257 E14.07303
G1 X113.625 Y121.976 E14.10895
G1 X110.856 Y121.133 E14.14525
G1 X108.266 Y119.743 E14.18211
G1 X106.05 Y117.917 E14.21812
G1 X104.233 Y115.705 E14.25401
G1 X102.859 Y113.143 E14.29047
G1 X102.024 Y110.361 E14.3269
G1 X101.742 Y107.485 E14.36313
G1 X102.024 Y104.624 E14.39919
G1 X102.869 Y101.849 E14.43556
G1 X104.25 Y99.274 E14.47221
G1 X106.078 Y97.054 E14.50827
G0 F15000 X106.362 Y97.338
G1 F1350 X108.508 Y95.572 E14.54312
G1 X111.024 Y94.231 E14.57887
G1 X113.717 Y93.42 E14.61414
G1 X116.518 Y93.145 E14.64944
G1 X119.294 Y93.42 E14.68442
G1 X122.016 Y94.246 E14.72009
G1 X124.485 Y95.57 E14.75523
G1 X126.661 Y97.362 E14.79058
G1 X128.424 Y99.508 E14.8254
G1 X129.768 Y102.026 E14.8612
G1 X130.579 Y104.716 E14.89643
G1 X130.855 Y107.522 E14.93179
G1 X130.579 Y110.29 E14.96667
G1 X129.753 Y113.017 E15.0024
G1 X128.431 Y115.483 E15.03749
G1 X126.637 Y117.661 E15.07288
G1 X124.488 Y119.426 E15.10775
G1 X121.982 Y120.771 E15.14342
G1 X119.282 Y121.582 E15.17877
G1 X116.475 Y121.855 E15.21414
G1 X113.705 Y121.582 E15.24904
G1 X111.007 Y120.761 E15.28441
G1 X108.492 Y119.411 E15.32021
G1 X106.334 Y117.633 E15.35527
G1 X104.568 Y115.483 E15.39016
G1 X103.23 Y112.987 E15.42567
G1 X102.418 Y110.283 E15.46108
G1 X102.144 Y107.485 E15.49634
G1 X102.418 Y104.704 E15.53138
G1 X103.24 Y102.004 E15.56677
G1 X104.585 Y99.496 E15.60246
G1 X106.362 Y97.338 E15.63752
G0 F15000 X106.646 Y97.622
G1 F1350 X108.732 Y95.906 E15.67139
G1 X111.177 Y94.602 E15.70614
G1 X113.795 Y93.814 E15.74043
G1 X116.518 Y93.547 E15.77474
G1 X119.214 Y93.814 E15.80871
G1 X121.861 Y94.617 E15.8434
G1 X124.263 Y95.905 E15.87758
G1 X126.377 Y97.646 E15.91192
G1 X128.09 Y99.732 E15.94577
G1 X129.397 Y102.18 E15.98057
G1 X130.185 Y104.794 E16.01481
G1 X130.453 Y107.521 E16.04917
G1 X130.185 Y110.211 E16.08307
G1 X129.382 Y112.862 E16.11781
G1 X128.096 Y115.261 E16.15194
G1 X126.353 Y117.377 E16.18632
G1 X124.263 Y119.094 E16.22024
G1 X121.83 Y120.399 E16.25486
G1 X119.204 Y121.188 E16.28925
G1 X116.475 Y121.453 E16.32363
G1 X113.785 Y121.188 E16.35753
G1 X111.158 Y120.389 E16.39196
G1 X108.718 Y119.079 E16.42669
G1 X106.618 Y117.349 E16.46081
G1 X104.903 Y115.261 E16.4947
G1 X103.601 Y112.831 E16.52927
G1 X102.812 Y110.205 E16.56365
G1 X102.546 Y107.485 E16.59793
G1 X102.812 Y104.784 E16.63196
G1 X103.611 Y102.159 E16.66637
G1 X104.92 Y99.718 E16.70111
G1 X106.646 Y97.622 E16.73516
G0 F15000 X106.93 Y97.906
G1 F1350 X108.956 Y96.24 E16.76805
G1 X111.33 Y94.973 E16.80179
G1 X113.873 Y94.208 E16.8351
G1 X116.518 Y93.949 E16.86842
G1 X119.134 Y94.208 E16.90139
G1 X121.706 Y94.988 E16.9351
G1 X124.041 Y96.24 E16.96832
G1 X126.093 Y97.93 E17.00166
G1 X127.756 Y99.956 E17.03453
G1 X129.026 Y102.334 E17.06833
G1 X129.791 Y104.872 E17.10158
G1 X130.051 Y107.52 E17.13494
G1 X129.791 Y110.132 E17.16786
G1 X129.011 Y112.707 E17.2016
G1 X127.761 Y115.039 E17.23478
G1 X126.069 Y117.093 E17.26815
G1 X124.041 Y118.759 E17.30107
G1 X121.674 Y120.028 E17.33475
G1 X119.126 Y120.794 E17.36811
G1 X116.475 Y121.051 E17.40151
G1 X113.865 Y120.794 E17.4344
G1 X111.309 Y120.017 E17.4679
G1 X108.944 Y118.747 E17.50157
G1 X106.902 Y117.065 E17.53474
G1 X105.238 Y115.039 E17.56762
G1 X103.972 Y112.675 E17.60125
G1 X103.206 Y110.127 E17.63461
G1 X102.948 Y107.485 E17.6679
G1 X103.206 Y104.864 E17.70093
G1 X103.983 Y102.31 E17.73441
G1 X105.252 Y99.944 E17.76808
G1 X106.93 Y97.906 E17.80118
G0 F15000 X107.214 Y98.19
G1 F1350 X109.18 Y96.574 E17.8331
G1 X111.483 Y95.344 E17.86584
G1 X113.951 Y94.602 E17.89816
G1 X116.518 Y94.351 E17.9305
G1 X119.054 Y94.602 E17.96246
G1 X121.551 Y95.359 E17.99518
G1 X123.819 Y96.575 E18.02745
G1 X125.809 Y98.214 E18.05978
G1 X127.422 Y100.179 E18.09166
G1 X128.655 Y102.488 E18.12449
G1 X129.397 Y104.95 E18.15673
G1 X129.649 Y107.519 E18.1891
G1 X129.397 Y110.053 E18.22104
G1 X128.64 Y112.552 E18.25378
G1 X127.426 Y114.817 E18.28601
G1 X125.785 Y116.809 E18.31837
G1 X123.819 Y118.424 E18.35028
G1 X121.518 Y119.657 E18.38302
G1 X119.048 Y120.4 E18.41536
G1 X116.475 Y120.649 E18.44778
G1 X113.945 Y120.4 E18.47966
G1 X111.46 Y119.645 E18.51223
G1 X109.17 Y118.415 E18.54483
G1 X107.186 Y116.781 E18.57706
G1 X105.573 Y114.817 E18.60893
G1 X104.343 Y112.519 E18.64162
G1 X103.6 Y110.049 E18.67396
G1 X103.35 Y107.485 E18.70627
G1 X103.6 Y104.944 E18.73829
G1 X104.355 Y102.461 E18.77083
G1 X105.584 Y100.17 E18.80344
G1 X107.214 Y98.19 E18.8356
G0 F15000 X107.498 Y98.474
G1 F1350 X109.404 Y96.908 E18.86653
G1 X111.637 Y95.715 E18.89828
G1 X114.029 Y94.996 E18.9296
G1 X116.518 Y94.753 E18.96096
G1 X118.974 Y94.996 E18.99191
G1 X121.396 Y95.73 E19.02365
G1 X123.597 Y96.91 E19.05497
G1 X125.525 Y98.498 E19.08629
