;START_OF_HEADER
;HEADER_VERSION:0.1
;FLAVOR:Griffin
;GENERATOR.NAME:Cura_SteamEngine
;GENERATOR.VERSION:5.4.0
;GENERATOR.BUILD_DATE:2023-07-04
;TARGET_MACHINE.NAME:Ultimaker 3
;EXTRUDER_TRAIN.0.INITIAL_TEMPERATURE:200
;EXTRUDER_TRAIN.0.MATERIAL.VOLUME_USED:7133
;EXTRUDER_TRAIN.0.MATERIAL.GUID:506c9f0d-e3aa-4bd4-b2d2-23e2425b1aa9
;EXTRUDER_TRAIN.0.NOZZLE.DIAMETER:0.4
;EXTRUDER_TRAIN.0.NOZZLE.NAME:AA 0.4
;BUILD_PLATE.INITIAL_TEMPERATURE:60
;PRINT.TIME:3949
;PRINT.GROUPS:1
;PRINT.SIZE.MIN.X:9
;PRINT.SIZE.MIN.Y:6
;PRINT.SIZE.MIN.Z:0.2
;PRINT.SIZE.MAX.X:141.679
;PRINT.SIZE.MAX.Y:118.549
;PRINT.SIZE.MAX.Z:50.75
;SLICE_UUID:85f2af52-93de-4eb7-88de-58d126737b12
;END_OF_HEADER
;Generated with Cura_SteamEngine 5.4.0
T0
M82 ;absolute extrusion mode

G92 E0
M109 S200
G0 F15000 X9 Y6 Z5.93
G280
G1 F1500 E-6.5
;LAYER_COUNT:338
;LAYER:0
M106 S255
M204 S1000
M205 X20 Y20
G1 F600 Z9.73
G0 F15000 X108.167 Y102.261 Z0.46
;TYPE:SKIRT
G1 F600 Z8.64
G1 F1500 E0
G1 F1350 X110.602 Y99.896 E0.04257
G1 X113.374 Y98.991 E0.07914
G1 X119.899 Y98.991 E0.16096
G1 X122.393 Y99.839 E0.194
G1 X124.758 Y102.274 E0.23656
G1 X125.663 Y105.046 E0.27313
G1 X125.663 Y112.44 E0.36585
G1 X125.289 Y114.158 E0.3879
G1 X124.307 Y115.768 E0.41155
G1 X122.363 Y117.654 E0.44552
G1 X119.602 Y118.549 E0.48192
G1 X113.428 Y118.549 E0.55934
G1 X111.71 Y118.175 E0.58139
G1 X110.1 Y117.193 E0.60504
G1 X108.214 Y115.249 E0.639
G1 X107.319 Y112.488 E0.6754
G1 X107.319 Y104.755 E0.77238
G1 X108.167 Y102.261 E0.80541
G0 F15000 X108.515 Y102.481
G1 F1350 X110.815 Y100.247 E0.84562
G1 X113.437 Y99.391 E0.88021
G1 X119.832 Y99.391 E0.9604
G1 X122.173 Y100.187 E0.99141
G1 X124.407 Y102.487 E1.03162
G1 X125.263 Y105.109 E1.06621
G1 X125.263 Y112.396 E1.15759
G1 X124.912 Y114.009 E1.17829
G1 X123.994 Y115.514 E1.2004
G1 X122.151 Y117.302 E1.2326
G1 X119.538 Y118.149 E1.26705
G1 X113.472 Y118.149 E1.34312
G1 X111.859 Y117.798 E1.36382
G1 X110.354 Y116.88 E1.38593
G1 X108.566 Y115.037 E1.41813
G1 X107.719 Y112.424 E1.45257
G1 X107.719 Y104.822 E1.54791
G1 X108.515 Y102.481 E1.57891
G0 F15000 X108.863 Y102.701
G1 F1350 X111.028 Y100.598 E1.61676
G1 X113.5 Y99.791 E1.64937
G1 X119.765 Y99.791 E1.72794
G1 X121.953 Y100.535 E1.75692
G1 X124.056 Y102.7 E1.79477
G1 X124.863 Y105.172 E1.82738
G1 X124.863 Y112.352 E1.91742
G1 X124.535 Y113.86 E1.93677
G1 X123.681 Y115.26 E1.95734
G1 X121.939 Y116.95 E1.98777
G1 X119.474 Y117.749 E2.02027
G1 X113.516 Y117.749 E2.09498
G1 X112.008 Y117.421 E2.11434
G1 X110.608 Y116.567 E2.1349
G1 X108.918 Y114.825 E2.16534
G1 X108.119 Y112.36 E2.19783
G1 X108.119 Y104.889 E2.29152
G1 X108.863 Y102.701 E2.3205
G0 F15000 X109.211 Y102.921
G1 F1350 X111.241 Y100.949 E2.356
G1 X113.563 Y100.191 E2.38663
G1 X119.698 Y100.191 E2.46356
G1 X121.733 Y100.883 E2.49052
G1 X123.705 Y102.913 E2.52601
G1 X124.463 Y105.235 E2.55664
G1 X124.463 Y112.308 E2.64534
G1 X124.158 Y113.711 E2.66334
G1 X123.368 Y115.006 E2.68236
G1 X121.727 Y116.598 E2.71104
G1 X119.41 Y117.349 E2.74158
G1 X113.56 Y117.349 E2.81494
G1 X112.157 Y117.044 E2.83295
G1 X110.862 Y116.254 E2.85197
G1 X109.27 Y114.613 E2.88064
G1 X108.519 Y112.296 E2.91119
G1 X108.519 Y104.956 E3.00323
G1 X109.211 Y102.921 E3.03019
G0 F15000 X109.559 Y103.141
G1 F1350 X111.454 Y101.3 E3.06332
G1 X113.626 Y100.591 E3.09197
G1 X119.631 Y100.591 E3.16728
G1 X121.513 Y101.231 E3.1922
G1 X123.354 Y103.126 E3.22534
G1 X124.063 Y105.298 E3.25399
G1 X124.063 Y112.264 E3.34134
G1 X123.781 Y113.562 E3.358
G1 X123.055 Y114.752 E3.37548
G1 X121.515 Y116.246 E3.40239
G1 X119.346 Y116.949 E3.43098
G1 X113.604 Y116.949 E3.50299
G1 X112.306 Y116.667 E3.51965
G1 X111.116 Y115.941 E3.53713
G1 X109.622 Y114.401 E3.56403
G1 X108.919 Y112.232 E3.59263
G1 X108.919 Y105.023 E3.68303
G1 X109.559 Y103.141 E3.70796
G0 F15000 X109.907 Y103.361
G1 F1350 X111.667 Y101.651 E3.73873
G1 X113.689 Y100.991 E3.76541
G1 X119.564 Y100.991 E3.83908
G1 X121.293 Y101.579 E3.86198
G1 X123.003 Y103.339 E3.89275
G1 X123.663 Y105.361 E3.91943
G1 X123.663 Y112.22 E4.00544
G1 X123.404 Y113.413 E4.02075
G1 X122.742 Y114.498 E4.03669
G1 X121.303 Y115.894 E4.06183
G1 X119.282 Y116.549 E4.08847
G1 X113.648 Y116.549 E4.15913
G1 X112.455 Y116.29 E4.17444
G1 X111.37 Y115.628 E4.19037
G1 X109.974 Y114.189 E4.21552
G1 X109.319 Y112.168 E4.24216
G1 X109.319 Y105.09 E4.33092
G1 X109.907 Y103.361 E4.35382
G0 F15000 X110.255 Y103.581
G1 F1350 X111.88 Y102.002 E4.38224
G1 X113.752 Y101.391 E4.40693
G1 X119.497 Y101.391 E4.47897
G1 X121.073 Y101.927 E4.49985
G1 X122.652 Y103.552 E4.52826
G1 X123.263 Y105.424 E4.55296
G1 X123.263 Y112.176 E4.63763
G1 X123.027 Y113.264 E4.65159
G1 X122.429 Y114.244 E4.66599
G1 X121.091 Y115.542 E4.68937
G1 X119.218 Y116.149 E4.71406
G1 X113.692 Y116.149 E4.78335
G1 X112.604 Y115.913 E4.79732
G1 X111.624 Y115.315 E4.81171
G1 X110.326 Y113.977 E4.83509
G1 X109.719 Y112.104 E4.85978
G1 X109.719 Y105.157 E4.9469
G1 X110.255 Y103.581 E4.96777
G0 F15000 X110.603 Y103.801
G1 F1350 X112.093 Y102.353 E4.99383
G1 X113.815 Y101.791 E5.01654
G1 X119.43 Y101.791 E5.08696
G1 X120.853 Y102.275 E5.10581
G1 X122.301 Y103.765 E5.13186
G1 X122.863 Y105.487 E5.15458
G1 X122.863 Y112.132 E5.23791
G1 X122.65 Y113.113 E5.2505
G1 X122.114 Y113.992 E5.26341
G1 X120.878 Y115.191 E5.285
G1 X119.157 Y115.749 E5.30769
G1 X113.736 Y115.749 E5.37567
G1 X112.755 Y115.536 E5.38826
G1 X111.876 Y115 E5.40117
G1 X110.677 Y113.764 E5.42277
G1 X110.119 Y112.043 E5.44545
G1 X110.119 Y105.224 E5.53097
G1 X110.603 Y103.801 E5.54982
G0 F15000 X110.951 Y104.021
G1 F1350 X112.306 Y102.704 E5.57351
G1 X113.878 Y102.191 E5.59425
G1 X119.363 Y102.191 E5.66303
G1 X120.633 Y102.623 E5.67986
G1 X121.95 Y103.978 E5.70355
G1 X122.463 Y105.55 E5.72429
G1 X122.463 Y112.088 E5.80628
G1 X122.273 Y112.962 E5.81749
G1 X121.799 Y113.74 E5.82892
G1 X120.665 Y114.84 E5.84873
G1 X119.096 Y115.349 E5.86941
G1 X113.78 Y115.349 E5.93608
G1 X112.906 Y115.159 E5.9473
G1 X112.128 Y114.685 E5.95872
G1 X111.028 Y113.551 E5.97853
G1 X110.519 Y111.982 E5.99922
G1 X110.519 Y105.291 E6.08313
G1 X110.951 Y104.021 E6.09995
G0 F15000 X111.299 Y104.241
G1 F1350 X112.519 Y103.055 E6.12128
G1 X113.941 Y102.591 E6.14004
G1 X119.296 Y102.591 E6.2072
G1 X120.413 Y102.971 E6.22199
G1 X121.599 Y104.191 E6.24333
G1 X122.063 Y105.613 E6.26209
G1 X122.063 Y112.044 E6.34273
G1 X121.896 Y112.811 E6.35258
G1 X121.482 Y113.491 E6.36256
G1 X120.453 Y114.489 E6.38054
G1 X119.035 Y114.949 E6.39923
G1 X113.824 Y114.949 E6.46458
G1 X113.057 Y114.782 E6.47442
G1 X112.377 Y114.368 E6.48441
G1 X111.379 Y113.339 E6.50238
G1 X110.919 Y111.921 E6.52108
G1 X110.919 Y105.358 E6.60338
G1 X111.299 Y104.241 E6.61818
G0 F15000 X111.647 Y104.461
G1 F1350 X112.732 Y103.406 E6.63715
G1 X114.004 Y102.991 E6.65393
G1 X119.229 Y102.991 E6.71946
G1 X120.193 Y103.319 E6.73223
G1 X121.248 Y104.404 E6.7512
G1 X121.663 Y105.676 E6.76798
G1 X121.663 Y112 E6.84729
G1 X121.519 Y112.66 E6.85576
G1 X121.165 Y113.242 E6.8643
G1 X120.241 Y114.138 E6.88044
G1 X118.974 Y114.549 E6.89715
G1 X113.868 Y114.549 E6.96118
G1 X113.208 Y114.405 E6.96965
G1 X112.626 Y114.051 E6.97819
G1 X111.73 Y113.127 E6.99433
G1 X111.319 Y111.86 E7.01104
G1 X111.319 Y105.425 E7.09173
G1 X111.647 Y104.461 E7.1045
G0 F15000 X111.995 Y104.681
G1 F1350 X112.945 Y103.757 E7.12112
G1 X114.067 Y103.391 E7.13592
G1 X119.162 Y103.391 E7.19982
G1 X119.973 Y103.667 E7.21056
G1 X120.897 Y104.617 E7.22718
G1 X121.263 Y105.739 E7.24198
G1 X121.263 Y111.956 E7.31994
G1 X121.142 Y112.509 E7.32704
G1 X120.848 Y112.993 E7.33414
G1 X120.029 Y113.787 E7.34845
G1 X118.913 Y114.149 E7.36316
G1 X113.912 Y114.149 E7.42587
G1 X113.359 Y114.028 E7.43297
G1 X112.875 Y113.734 E7.44007
G1 X112.081 Y112.915 E7.45438
G1 X111.719 Y111.799 E7.46909
G1 X111.719 Y105.492 E7.54818
G1 X111.995 Y104.681 E7.55893
G0 F15000 X112.343 Y104.901
G1 F1350 X113.158 Y104.108 E7.57319
G1 X114.13 Y103.791 E7.58601
G1 X119.095 Y103.791 E7.64827
G1 X119.753 Y104.015 E7.65699
G1 X120.546 Y104.83 E7.67125
G1 X120.863 Y105.802 E7.68407
G1 X120.863 Y111.956 E7.76124
G1 X120.753 Y112.416 E7.76717
G1 X120.57 Y112.706 E7.77147
G1 X119.818 Y113.435 E7.78461
G1 X118.851 Y113.749 E7.79736
G1 X113.912 Y113.749 E7.85929
G1 X113.452 Y113.639 E7.86523
G1 X113.162 Y113.456 E7.86953
G1 X112.433 Y112.704 E7.88266
G1 X112.119 Y111.737 E7.89541
G1 X112.119 Y105.559 E7.97288
G1 X112.343 Y104.901 E7.9816
G0 F15000 X112.691 Y105.121
G1 F1350 X113.371 Y104.459 E7.9935
G1 X114.193 Y104.191 E8.00434
G1 X119.028 Y104.191 E8.06498
G1 X119.533 Y104.363 E8.07167
G1 X120.195 Y105.043 E8.08357
G1 X120.463 Y105.865 E8.09441
G1 X120.463 Y111.916 E8.17029
G1 X120.404 Y112.22 E8.17418
G1 X120.292 Y112.419 E8.17704
G1 X119.607 Y113.083 E8.189
G1 X118.789 Y113.349 E8.19979
G1 X113.952 Y113.349 E8.26045
G1 X113.648 Y113.29 E8.26433
G1 X113.449 Y113.178 E8.26719
G1 X112.785 Y112.493 E8.27916
G1 X112.519 Y111.675 E8.28994
G1 X112.519 Y105.626 E8.3658
G1 X112.691 Y105.121 E8.37249
G0 F15000 X112.97 Y105.408
G1 F1350 X113.584 Y104.81 E8.38324
G1 X114.256 Y104.591 E8.3921
G1 X119.028 Y104.591 E8.45195
G1 X119.246 Y104.642 E8.45475
G1 X119.844 Y105.256 E8.4655
G1 X120.063 Y105.928 E8.47436
G1 X120.063 Y111.916 E8.54946
G1 X120.014 Y112.132 E8.55223
G1 X119.396 Y112.731 E8.56303
G1 X118.726 Y112.949 E8.57186
G1 X113.952 Y112.949 E8.63173
G1 X113.736 Y112.9 E8.63451
G1 X113.137 Y112.282 E8.6453
G1 X112.919 Y111.612 E8.65414
G1 X112.919 Y105.626 E8.7292
G1 X112.97 Y105.408 E8.73201
G0 F15000 X113.319 Y105.626
G1 F1350 X113.797 Y105.161 E8.74037
G1 X114.319 Y104.991 E8.74726
G1 X119.028 Y104.991 E8.80631
G1 X119.493 Y105.469 E8.81467
G1 X119.663 Y105.991 E8.82156
G1 X119.663 Y111.916 E8.89586
G1 X119.185 Y112.379 E8.9042
G1 X118.663 Y112.549 E8.91109
G1 X113.952 Y112.549 E8.97017
G1 X113.489 Y112.071 E8.97851
G1 X113.319 Y111.549 E8.9854
G1 X113.319 Y105.626 E9.05967
G0 F15000 X114.119 Y105.892
G1 F1350 X114.319 Y105.791 E9.06248
G1 X118.762 Y105.791 E9.1182
G1 X118.863 Y105.991 E9.12101
G1 X118.863 Y111.648 E9.19195
G1 X118.663 Y111.749 E9.19476
G1 X114.22 Y111.749 E9.25048
G1 X114.119 Y111.549 E9.25329
G1 X114.119 Y105.892 E9.32423
G0 F15000 X113.719 Y105.76
G1 F1350 X113.939 Y105.535 E9.32817
G1 X114.319 Y105.391 E9.33327
G1 X118.894 Y105.391 E9.39064
G1 X119.119 Y105.611 E9.39459
G1 X119.263 Y105.991 E9.39968
G1 X119.263 Y111.781 E9.47229
G1 X119.043 Y112.005 E9.47623
G1 X118.663 Y112.149 E9.48133
G1 X114.087 Y112.149 E9.53871
G1 X113.863 Y111.929 E9.54265
G1 X113.719 Y111.549 E9.54774
G1 X113.719 Y105.76 E9.62034
M204 S429
G1 F1500 E3.12034
;MESH:Button_-_hidden_magnet.stl
G0 F15000 X114.733 Y106.405
G0 X118.463 Y111.349
;TYPE:WALL-OUTER
G1 F1500 E9.62034
G1 F1350 X118.463 Y106.191 E9.69149
G1 X114.519 Y106.191 E9.7459
G1 X114.519 Y111.349 E9.81705
G1 X118.463 Y111.349 E9.87145
M204 S1000
G0 F15000 X118.463 Y111.149
G0 X118.063 Y110.949
M104 S194.9
;TYPE:WALL-INNER
G1 F1350 X118.063 Y106.591 E9.92337
G1 X114.919 Y106.591 E9.96083
G1 X114.919 Y110.949 E10.01275
G1 X118.063 Y110.949 E10.0502
G0 F15000 X117.723 Y110.609
;TYPE:SKIN
G1 F1350 X117.723 Y106.931 E10.08964
G1 X115.259 Y106.931 E10.11606
G1 X115.259 Y110.609 E10.15549
G1 X117.723 Y110.609 E10.18191
G0 F15000 X118.023 Y110.609
G0 X116.065 Y110.909
G0 X116.065 Y110.409
G1 F1350 X115.457 Y109.8 E10.19114
G0 F15000 X115.457 Y109.235
G1 F1350 X116.631 Y110.409 E10.20894
G0 F15000 X117.197 Y110.409
G1 F1350 X115.457 Y108.669 E10.23532
G0 F15000 X115.457 Y108.103
G1 F1350 X117.522 Y110.168 E10.26664
G0 F15000 X117.522 Y109.602
G1 F1350 X115.457 Y107.538 E10.29794
G0 F15000 X115.616 Y107.13
G1 F1350 X117.522 Y109.037 E10.32685
G0 F15000 X117.522 Y108.471
G1 F1350 X116.181 Y107.13 E10.34718
G0 F15000 X116.747 Y107.13
G1 F1350 X117.522 Y107.905 E10.35893
G0 F15000 X117.522 Y107.34
G1 F1350 X117.313 Y107.13 E10.36211
M204 S429
G1 F1500 E3.86211
;MESH:NONMESH
G0 F600 X117.313 Y107.13 Z0.35
G0 F15000 X117.313 Y106.631
G0 X118.249 Y111.135
G0 X119.972 Y111.349
;TIME_ELAPSED:41.592485
;LAYER:1
;TYPE:WALL-OUTER
;BRIDGE
;MESH:Button_-_hidden_magnet.stl
G1 F1500 E10.36211
G1 F1061.5 X119.972 Y106.191 E10.41062
;TYPE:WALL-OUTER
G1 X118.463 Y106.191 E10.42482
G1 X114.519 Y106.191 E10.46191
G1 X113.022 Y106.191 E10.47599
;TYPE:WALL-OUTER
;BRIDGE
G1 X113.022 Y111.349 E10.5245
;TYPE:WALL-OUTER
G1 X114.519 Y111.349 E10.53858
G1 X118.463 Y111.349 E10.57568
G1 X119.972 Y111.349 E10.58987
M204 S1500
G0 F15000 X119.972 Y111.149
G0 X119.572 Y110.949
;TYPE:WALL-INNER
;BRIDGE
G1 F1061.5 X119.572 Y106.591 E10.63086
;TYPE:WALL-INNER
G1 X118.463 Y106.591 E10.64129
G1 X114.519 Y106.591 E10.67838
G1 X113.422 Y106.591 E10.6887
;TYPE:WALL-INNER
;BRIDGE
G1 X113.422 Y110.949 E10.72969
;TYPE:WALL-INNER
G1 X114.519 Y110.949 E10.74001
G1 X118.463 Y110.949 E10.7771
G1 X119.572 Y110.949 E10.78753
M204 S1000
G0 F15000 X119.232 Y110.609
;TYPE:SKIN
G1 F1061.5 X119.232 Y106.931 E10.82039
G1 X118.463 Y106.931 E10.82726
G1 X114.519 Y106.931 E10.8625
G1 X113.762 Y106.931 E10.86927
G1 X113.762 Y110.609 E10.90213
G1 X114.519 Y110.609 E10.90889
G1 X118.463 Y110.609 E10.94413
G1 X119.232 Y110.609 E10.95101
G0 F15000 X119.031 Y110.071
G1 F1061.5 X118.693 Y110.409 E10.95528
G0 F15000 X118.127 Y110.409
G1 F1061.5 X119.031 Y109.505 E10.9667
G0 F15000 X119.031 Y108.939
G1 F1061.5 X117.562 Y110.409 E10.98527
G0 F15000 X116.996 Y110.409
G1 F1061.5 X119.031 Y108.374 E11.01098
G0 F15000 X119.031 Y107.808
G1 F1061.5 X116.43 Y110.409 E11.04385
G0 F15000 X115.865 Y110.409
G1 F1061.5 X119.031 Y107.242 E11.08386
G0 F15000 X118.577 Y107.13
G1 F1061.5 X115.299 Y110.409 E11.12529
G0 F15000 X114.733 Y110.409
G1 F1061.5 X118.011 Y107.13 E11.16672
G0 F15000 X117.446 Y107.13
M104 S196.7
G1 F1061.5 X114.168 Y110.409 E11.20814
G0 F15000 X113.961 Y110.049
G1 F1061.5 X116.88 Y107.13 E11.24503
G0 F15000 X116.314 Y107.13
G1 F1061.5 X113.961 Y109.484 E11.27477
G0 F15000 X113.961 Y108.918
G1 F1061.5 X115.749 Y107.13 E11.29736
G0 F15000 X115.183 Y107.13
G1 F1061.5 X113.961 Y108.352 E11.3128
G0 F15000 X113.961 Y107.787
G1 F1061.5 X114.617 Y107.13 E11.3211
G0 F15000 X114.052 Y107.13
G1 F1061.5 X113.961 Y107.221 E11.32225
M204 S429
G0 F15000 X114.719 Y107.221
G1 F1500 E4.82225
;MESH:NONMESH
G0 F600 X114.719 Y107.221 Z5.7
G0 F15000 X114.347 Y110.837
G0 X113.236 Y111.135
G0 X112.119 Y111.349
;TIME_ELAPSED:49.237069
;LAYER:2
;TYPE:WALL-OUTER
;MESH:Button_-_hidden_magnet.stl
G1 F1500 E11.32225
G1 F1319.6 X113.022 Y111.349 E11.33074
G1 X119.972 Y111.349 E11.39611
G1 X120.883 Y111.349 E11.40467
;TYPE:WALL-OUTER
;BRIDGE
G1 X120.883 Y106.191 E11.45319
;TYPE:WALL-OUTER
G1 X119.972 Y106.191 E11.46175
G1 X113.022 Y106.191 E11.52712
G1 X112.119 Y106.191 E11.53561
;TYPE:WALL-OUTER
;BRIDGE
G1 X112.119 Y111.349 E11.58413
M204 S1500
G0 F15000 X112.319 Y111.349
G0 X112.519 Y110.949
;TYPE:WALL-INNER
G1 F1319.6 X113.022 Y110.949 E11.58886
G1 X119.972 Y110.949 E11.65422
G1 X120.483 Y110.949 E11.65903
;TYPE:WALL-INNER
;BRIDGE
G1 X120.483 Y106.591 E11.70002
;TYPE:WALL-INNER
G1 X119.972 Y106.591 E11.70482
G1 X113.022 Y106.591 E11.77019
G1 X112.519 Y106.591 E11.77492
;TYPE:WALL-INNER
;BRIDGE
G1 X112.519 Y110.949 E11.81591
M204 S1000
G0 F15000 X112.859 Y110.609
;TYPE:SKIN
G1 F1319.6 X119.972 Y110.609 E11.87946
G1 X120.143 Y106.931 E11.91236
G1 X113.022 Y106.931 E11.97599
G1 X112.859 Y110.609 E12.00888
G0 F15000 X113.237 Y110.409
G1 F1319.6 X113.057 Y110.229 E12.01116
G0 F15000 X113.057 Y109.663
G1 F1319.6 X113.803 Y110.409 E12.02059
G0 F15000 X114.368 Y110.409
G1 F1319.6 X113.057 Y109.098 E12.03715
G0 F15000 X113.057 Y108.532
G1 F1319.6 X114.934 Y110.409 E12.06087
G0 F15000 X115.5 Y110.409
G1 F1319.6 X113.057 Y107.966 E12.09174
G0 F15000 X113.057 Y107.401
G1 F1319.6 X116.065 Y110.409 E12.12975
G0 F15000 X116.631 Y110.409
G1 F1319.6 X113.353 Y107.13 E12.17118
G0 F15000 X113.919 Y107.13
G1 F1319.6 X117.197 Y110.409 E12.2126
G0 F15000 X117.762 Y110.409
G1 F1319.6 X114.484 Y107.13 E12.25403
G0 F15000 X115.05 Y107.13
G1 F1319.6 X118.328 Y110.409 E12.29546
G0 F15000 X118.894 Y110.409
G1 F1319.6 X115.616 Y107.13 E12.33688
G0 F15000 X116.181 Y107.13
M104 S198.2
G1 F1319.6 X119.46 Y110.409 E12.37832
G0 F15000 X119.942 Y110.325
